%
O01001
(Using high feed G1 F300. instead of G0.)
(T5 D=0.25 CR=0. - ZMIN=-0.694 - flat end mill)
N10 G90 G17
N15 G20
N20 G53 G0 Z0.

(2D Contour1)
N25 T5 M6
N30 S2500 M3
N35 G54
N40 G17 G90
N45 M8
N50 G1 X2.134 Y-0.3412 F300.
N55 G0 G43 Z0.6 H5
N60 G0 Z0.2
N65 G1 Z0.1144 F12.5
N70 Z-0.067
N75 X2.1339 Y-0.3415 Z-0.0691 F50.
N80 X2.1338 Y-0.3422 Z-0.071
N85 X2.1335 Y-0.3435 Z-0.0727
N90 X2.1332 Y-0.3451 Z-0.0739
N95 X2.1329 Y-0.347 Z-0.0747
N100 X2.1325 Y-0.3491 Z-0.075
N105 X2.1309 Y-0.3569
N110 X2.1308 Y-0.3583
N115 X2.1309 Y-0.3597
N120 G2 X2.1284 Y-0.6549 I-0.8809 J-0.1403 F37.5
N125 G3 X2.1442 Y-0.6577 I0.0079 J-0.0014
N130 Y-0.3423 I-0.8942 J0.1577
N135 X2.1284 Y-0.3451 I-0.0079 J-0.0014
N140 G2 X2.1309 Y-0.3597 I-0.8784 J-0.1549
N145 G1 X2.1312 Y-0.361
N150 X2.1318 Y-0.3623
N155 X2.1357 Y-0.3693
N160 X2.1367 Y-0.3711 Z-0.0747
N165 X2.1376 Y-0.3728 Z-0.0739
N170 X2.1384 Y-0.3742 Z-0.0727
N175 X2.139 Y-0.3754 Z-0.071
N180 X2.1394 Y-0.3761 Z-0.0691
N185 X2.1396 Y-0.3763 Z-0.067
N190 G0 Z0.2
N195 G1 X2.134 Y-0.3412 F300.
N200 Z0.0394 F12.5
N205 Z-0.142
N210 X2.1339 Y-0.3415 Z-0.1441 F50.
N215 X2.1338 Y-0.3422 Z-0.146
N220 X2.1335 Y-0.3435 Z-0.1477
N225 X2.1332 Y-0.3451 Z-0.1489
N230 X2.1329 Y-0.347 Z-0.1497
N235 X2.1325 Y-0.3491 Z-0.15
N240 X2.1309 Y-0.3569
N245 X2.1308 Y-0.3583
N250 X2.1309 Y-0.3597
N255 G2 X2.1284 Y-0.6549 I-0.8809 J-0.1403 F37.5
N260 G3 X2.1442 Y-0.6577 I0.0079 J-0.0014
N265 Y-0.3423 I-0.8942 J0.1577
N270 X2.1284 Y-0.3451 I-0.0079 J-0.0014
N275 G2 X2.1309 Y-0.3597 I-0.8784 J-0.1549
N280 G1 X2.1312 Y-0.361
N285 X2.1318 Y-0.3623
N290 X2.1357 Y-0.3693
N295 X2.1367 Y-0.3711 Z-0.1497
N300 X2.1376 Y-0.3728 Z-0.1489
N305 X2.1384 Y-0.3742 Z-0.1477
N310 X2.139 Y-0.3754 Z-0.146
N315 X2.1394 Y-0.3761 Z-0.1441
N320 X2.1396 Y-0.3763 Z-0.142
N325 G0 Z0.2
N330 G1 X2.134 Y-0.3412 F300.
N335 Z-0.0356 F12.5
N340 Z-0.217
N345 X2.1339 Y-0.3415 Z-0.2191 F50.
N350 X2.1338 Y-0.3422 Z-0.221
N355 X2.1335 Y-0.3435 Z-0.2227
N360 X2.1332 Y-0.3451 Z-0.2239
N365 X2.1329 Y-0.347 Z-0.2247
N370 X2.1325 Y-0.3491 Z-0.225
N375 X2.1309 Y-0.3569
N380 X2.1308 Y-0.3583
N385 X2.1309 Y-0.3597
N390 G2 X2.1284 Y-0.6549 I-0.8809 J-0.1403 F37.5
N395 G3 X2.1442 Y-0.6577 I0.0079 J-0.0014
N400 Y-0.3423 I-0.8942 J0.1577
N405 X2.1284 Y-0.3451 I-0.0079 J-0.0014
N410 G2 X2.1309 Y-0.3597 I-0.8784 J-0.1549
N415 G1 X2.1312 Y-0.361
N420 X2.1318 Y-0.3623
N425 X2.1357 Y-0.3693
N430 X2.1367 Y-0.3711 Z-0.2247
N435 X2.1376 Y-0.3728 Z-0.2239
N440 X2.1384 Y-0.3742 Z-0.2227
N445 X2.139 Y-0.3754 Z-0.221
N450 X2.1394 Y-0.3761 Z-0.2191
N455 X2.1396 Y-0.3763 Z-0.217
N460 G0 Z0.2
N465 G1 X2.134 Y-0.3412 F300.
N470 Z-0.1106 F12.5
N475 Z-0.292
N480 X2.1339 Y-0.3415 Z-0.2941 F50.
N485 X2.1338 Y-0.3422 Z-0.296
N490 X2.1335 Y-0.3435 Z-0.2977
N495 X2.1332 Y-0.3451 Z-0.2989
N500 X2.1329 Y-0.347 Z-0.2997
N505 X2.1325 Y-0.3491 Z-0.3
N510 X2.1309 Y-0.3569
N515 X2.1308 Y-0.3583
N520 X2.1309 Y-0.3597
N525 G2 X2.1284 Y-0.6549 I-0.8809 J-0.1403 F37.5
N530 G3 X2.1442 Y-0.6577 I0.0079 J-0.0014
N535 Y-0.3423 I-0.8942 J0.1577
N540 X2.1284 Y-0.3451 I-0.0079 J-0.0014
N545 G2 X2.1309 Y-0.3597 I-0.8784 J-0.1549
N550 G1 X2.1312 Y-0.361
N555 X2.1318 Y-0.3623
N560 X2.1357 Y-0.3693
N565 X2.1367 Y-0.3711 Z-0.2997
N570 X2.1376 Y-0.3728 Z-0.2989
N575 X2.1384 Y-0.3742 Z-0.2977
N580 X2.139 Y-0.3754 Z-0.296
N585 X2.1394 Y-0.3761 Z-0.2941
N590 X2.1396 Y-0.3763 Z-0.292
N595 G0 Z0.2
N600 G1 X2.134 Y-0.3412 F300.
N605 Z-0.1856 F12.5
N610 Z-0.367
N615 X2.1339 Y-0.3415 Z-0.3691 F50.
N620 X2.1338 Y-0.3422 Z-0.371
N625 X2.1335 Y-0.3435 Z-0.3727
N630 X2.1332 Y-0.3451 Z-0.3739
N635 X2.1329 Y-0.347 Z-0.3747
N640 X2.1325 Y-0.3491 Z-0.375
N645 X2.1309 Y-0.3569
N650 X2.1308 Y-0.3583
N655 X2.1309 Y-0.3597
N660 G2 X2.1284 Y-0.6549 I-0.8809 J-0.1403 F37.5
N665 G3 X2.1442 Y-0.6577 I0.0079 J-0.0014
N670 Y-0.3423 I-0.8942 J0.1577
N675 X2.1284 Y-0.3451 I-0.0079 J-0.0014
N680 G2 X2.1309 Y-0.3597 I-0.8784 J-0.1549
N685 G1 X2.1312 Y-0.361
N690 X2.1318 Y-0.3623
N695 X2.1357 Y-0.3693
N700 X2.1367 Y-0.3711 Z-0.3747
N705 X2.1376 Y-0.3728 Z-0.3739
N710 X2.1384 Y-0.3742 Z-0.3727
N715 X2.139 Y-0.3754 Z-0.371
N720 X2.1394 Y-0.3761 Z-0.3691
N725 X2.1396 Y-0.3763 Z-0.367
N730 G0 Z0.2
N735 G1 X2.134 Y-0.3412 F300.
N740 Z-0.2606 F12.5
N745 Z-0.442
N750 X2.1339 Y-0.3415 Z-0.4441 F50.
N755 X2.1338 Y-0.3422 Z-0.446
N760 X2.1335 Y-0.3435 Z-0.4477
N765 X2.1332 Y-0.3451 Z-0.4489
N770 X2.1329 Y-0.347 Z-0.4497
N775 X2.1325 Y-0.3491 Z-0.45
N780 X2.1309 Y-0.3569
N785 X2.1308 Y-0.3583
N790 X2.1309 Y-0.3597
N795 G2 X2.1284 Y-0.6549 I-0.8809 J-0.1403 F37.5
N800 G3 X2.1442 Y-0.6577 I0.0079 J-0.0014
N805 Y-0.3423 I-0.8942 J0.1577
N810 X2.1284 Y-0.3451 I-0.0079 J-0.0014
N815 G2 X2.1309 Y-0.3597 I-0.8784 J-0.1549
N820 G1 X2.1312 Y-0.361
N825 X2.1318 Y-0.3623
N830 X2.1357 Y-0.3693
N835 X2.1367 Y-0.3711 Z-0.4497
N840 X2.1376 Y-0.3728 Z-0.4489
N845 X2.1384 Y-0.3742 Z-0.4477
N850 X2.139 Y-0.3754 Z-0.446
N855 X2.1394 Y-0.3761 Z-0.4441
N860 X2.1396 Y-0.3763 Z-0.442
N865 G0 Z0.2
N870 G1 X2.134 Y-0.3412 F300.
N875 Z-0.3356 F12.5
N880 Z-0.517
N885 X2.1339 Y-0.3415 Z-0.5191 F50.
N890 X2.1338 Y-0.3422 Z-0.521
N895 X2.1335 Y-0.3435 Z-0.5227
N900 X2.1332 Y-0.3451 Z-0.5239
N905 X2.1329 Y-0.347 Z-0.5247
N910 X2.1325 Y-0.3491 Z-0.525
N915 X2.1309 Y-0.3569
N920 X2.1308 Y-0.3583
N925 X2.1309 Y-0.3597
N930 G2 X2.1284 Y-0.6549 I-0.8809 J-0.1403 F37.5
N935 G3 X2.1442 Y-0.6577 I0.0079 J-0.0014
N940 Y-0.3423 I-0.8942 J0.1577
N945 X2.1284 Y-0.3451 I-0.0079 J-0.0014
N950 G2 X2.1309 Y-0.3597 I-0.8784 J-0.1549
N955 G1 X2.1312 Y-0.361
N960 X2.1318 Y-0.3623
N965 X2.1357 Y-0.3693
N970 X2.1367 Y-0.3711 Z-0.5247
N975 X2.1376 Y-0.3728 Z-0.5239
N980 X2.1384 Y-0.3742 Z-0.5227
N985 X2.139 Y-0.3754 Z-0.521
N990 X2.1394 Y-0.3761 Z-0.5191
N995 X2.1396 Y-0.3763 Z-0.517
N1000 G0 Z0.2
N1005 G1 X2.134 Y-0.3412 F300.
N1010 Z-0.4106 F12.5
N1015 Z-0.592
N1020 X2.1339 Y-0.3415 Z-0.5941 F50.
N1025 X2.1338 Y-0.3422 Z-0.596
N1030 X2.1335 Y-0.3435 Z-0.5977
N1035 X2.1332 Y-0.3451 Z-0.5989
N1040 X2.1329 Y-0.347 Z-0.5997
N1045 X2.1325 Y-0.3491 Z-0.6
N1050 X2.1309 Y-0.3569
N1055 X2.1308 Y-0.3583
N1060 X2.1309 Y-0.3597
N1065 G2 X2.1284 Y-0.6549 I-0.8809 J-0.1403 F37.5
N1070 G3 X2.1442 Y-0.6577 I0.0079 J-0.0014
N1075 Y-0.3423 I-0.8942 J0.1577
N1080 X2.1284 Y-0.3451 I-0.0079 J-0.0014
N1085 G2 X2.1309 Y-0.3597 I-0.8784 J-0.1549
N1090 G1 X2.1312 Y-0.361
N1095 X2.1318 Y-0.3623
N1100 X2.1357 Y-0.3693
N1105 X2.1367 Y-0.3711 Z-0.5997
N1110 X2.1376 Y-0.3728 Z-0.5989
N1115 X2.1384 Y-0.3742 Z-0.5977
N1120 X2.139 Y-0.3754 Z-0.596
N1125 X2.1394 Y-0.3761 Z-0.5941
N1130 X2.1396 Y-0.3763 Z-0.592
N1135 G0 Z0.2
N1140 G1 X2.134 Y-0.3412 F300.
N1145 Z-0.4856 F12.5
N1150 Z-0.631
N1155 X2.1339 Y-0.3415 Z-0.6331 F50.
N1160 X2.1338 Y-0.3422 Z-0.635
N1165 X2.1335 Y-0.3435 Z-0.6367
N1170 X2.1332 Y-0.3451 Z-0.6379
N1175 X2.1329 Y-0.347 Z-0.6387
N1180 X2.1325 Y-0.3491 Z-0.639
N1185 X2.1309 Y-0.3569
N1190 X2.1308 Y-0.3583
N1195 X2.1309 Y-0.3597
N1200 G2 X2.1284 Y-0.6549 I-0.8809 J-0.1403 F37.5
N1205 G3 X2.1442 Y-0.6577 I0.0079 J-0.0014
N1210 Y-0.3423 I-0.8942 J0.1577
N1215 X2.1284 Y-0.3451 I-0.0079 J-0.0014
N1220 G2 X2.1309 Y-0.3597 I-0.8784 J-0.1549
N1225 G1 X2.1312 Y-0.361
N1230 X2.1318 Y-0.3623
N1235 X2.1357 Y-0.3693
N1240 X2.1367 Y-0.3711 Z-0.6387
N1245 X2.1376 Y-0.3728 Z-0.6379
N1250 X2.1384 Y-0.3742 Z-0.6367
N1255 X2.139 Y-0.3754 Z-0.635
N1260 X2.1394 Y-0.3761 Z-0.6331
N1265 X2.1396 Y-0.3763 Z-0.631
N1270 G0 Z0.2
N1275 G1 X2.134 Y-0.3412 F300.
N1280 Z-0.5246 F12.5
N1285 Z-0.67
N1290 X2.1339 Y-0.3415 Z-0.6721 F50.
N1295 X2.1338 Y-0.3422 Z-0.674
N1300 X2.1335 Y-0.3435 Z-0.6757
N1305 X2.1332 Y-0.3451 Z-0.6769
N1310 X2.1329 Y-0.347 Z-0.6777
N1315 X2.1325 Y-0.3491 Z-0.678
N1320 X2.1309 Y-0.3569
N1325 X2.1308 Y-0.3583
N1330 X2.1309 Y-0.3597
N1335 G2 X2.1284 Y-0.6549 I-0.8809 J-0.1403 F37.5
N1340 G3 X2.1442 Y-0.6577 I0.0079 J-0.0014
N1345 Y-0.3423 I-0.8942 J0.1577
N1350 X2.1284 Y-0.3451 I-0.0079 J-0.0014
N1355 G2 X2.1309 Y-0.3597 I-0.8784 J-0.1549
N1360 G1 X2.1312 Y-0.361
N1365 X2.1318 Y-0.3623
N1370 X2.1357 Y-0.3693
N1375 X2.1367 Y-0.3711 Z-0.6777
N1380 X2.1376 Y-0.3728 Z-0.6769
N1385 X2.1384 Y-0.3742 Z-0.6757
N1390 X2.139 Y-0.3754 Z-0.674
N1395 X2.1394 Y-0.3761 Z-0.6721
N1400 X2.1396 Y-0.3763 Z-0.67
N1405 G0 Z0.2
N1410 G1 X2.134 Y-0.3412 F300.
N1415 Z-0.5636 F12.5
N1420 Z-0.678
N1425 X2.1339 Y-0.3415 Z-0.6801 F50.
N1430 X2.1338 Y-0.3422 Z-0.682
N1435 X2.1335 Y-0.3435 Z-0.6837
N1440 X2.1332 Y-0.3451 Z-0.6849
N1445 X2.1329 Y-0.347 Z-0.6857
N1450 X2.1325 Y-0.3491 Z-0.686
N1455 X2.1309 Y-0.3569
N1460 X2.1308 Y-0.3583
N1465 X2.1309 Y-0.3597
N1470 G2 X2.1284 Y-0.6549 I-0.8809 J-0.1403 F37.5
N1475 G3 X2.1442 Y-0.6577 I0.0079 J-0.0014
N1480 Y-0.3423 I-0.8942 J0.1577
N1485 X2.1284 Y-0.3451 I-0.0079 J-0.0014
N1490 G2 X2.1309 Y-0.3597 I-0.8784 J-0.1549
N1495 G1 X2.1312 Y-0.361
N1500 X2.1318 Y-0.3623
N1505 X2.1357 Y-0.3693
N1510 X2.1367 Y-0.3711 Z-0.6857
N1515 X2.1376 Y-0.3728 Z-0.6849
N1520 X2.1384 Y-0.3742 Z-0.6837
N1525 X2.139 Y-0.3754 Z-0.682
N1530 X2.1394 Y-0.3761 Z-0.6801
N1535 X2.1396 Y-0.3763 Z-0.678
N1540 G0 Z0.2
N1545 G1 X2.134 Y-0.3412 F300.
N1550 Z-0.5716 F12.5
N1555 Z-0.686
N1560 X2.1339 Y-0.3415 Z-0.6881 F50.
N1565 X2.1338 Y-0.3422 Z-0.69
N1570 X2.1335 Y-0.3435 Z-0.6917
N1575 X2.1332 Y-0.3451 Z-0.6929
N1580 X2.1329 Y-0.347 Z-0.6937
N1585 X2.1325 Y-0.3491 Z-0.694
N1590 X2.1309 Y-0.3569
N1595 X2.1308 Y-0.3583
N1600 X2.1309 Y-0.3597
N1605 G2 X2.1284 Y-0.6549 I-0.8809 J-0.1403 F37.5
N1610 G3 X2.1442 Y-0.6577 I0.0079 J-0.0014
N1615 Y-0.3423 I-0.8942 J0.1577
N1620 X2.1284 Y-0.3451 I-0.0079 J-0.0014
N1625 G2 X2.1309 Y-0.3597 I-0.8784 J-0.1549
N1630 G1 X2.1312 Y-0.361
N1635 X2.1318 Y-0.3623
N1640 X2.1357 Y-0.3693
N1645 X2.1367 Y-0.3711 Z-0.6937
N1650 X2.1376 Y-0.3728 Z-0.6929
N1655 X2.1384 Y-0.3742 Z-0.6917
N1660 X2.139 Y-0.3754 Z-0.69
N1665 X2.1394 Y-0.3761 Z-0.6881
N1670 X2.1396 Y-0.3763 Z-0.686
N1675 G0 Z0.6

(2D Contour2)
N1680 G1 X0.3647 Y-0.3259 F300.
N1685 G0 Z0.6
N1690 Z0.2
N1695 G1 Z0.1 F12.5
N1700 Z-0.067
N1705 X0.3646 Y-0.3261 Z-0.0691 F50.
N1710 X0.3642 Y-0.3268 Z-0.071
N1715 X0.3636 Y-0.3279 Z-0.0727
N1720 X0.3627 Y-0.3293 Z-0.0739
N1725 X0.3618 Y-0.331 Z-0.0747
N1730 X0.3607 Y-0.3328 Z-0.075
N1735 X0.3567 Y-0.3397
N1740 X0.3562 Y-0.341
N1745 X0.3558 Y-0.3423
N1750 G3 Y-0.6577 I0.8942 J-0.1577 F37.5
N1755 X0.3716 Y-0.6549 I0.0079 J0.0014
N1760 G2 Y-0.3451 I0.8784 J0.1549
N1765 G3 X0.3558 Y-0.3423 I-0.0079 J0.0014
N1770 G0 Z0.2
N1775 G1 X0.3647 Y-0.3259 F300.
N1780 Z0.025 F12.5
N1785 Z-0.142
N1790 X0.3646 Y-0.3261 Z-0.1441 F50.
N1795 X0.3642 Y-0.3268 Z-0.146
N1800 X0.3636 Y-0.3279 Z-0.1477
N1805 X0.3627 Y-0.3293 Z-0.1489
N1810 X0.3618 Y-0.331 Z-0.1497
N1815 X0.3607 Y-0.3328 Z-0.15
N1820 X0.3567 Y-0.3397
N1825 X0.3562 Y-0.341
N1830 X0.3558 Y-0.3423
N1835 G3 Y-0.6577 I0.8942 J-0.1577 F37.5
N1840 X0.3716 Y-0.6549 I0.0079 J0.0014
N1845 G2 Y-0.3451 I0.8784 J0.1549
N1850 G3 X0.3558 Y-0.3423 I-0.0079 J0.0014
N1855 G0 Z0.2
N1860 G1 X0.3647 Y-0.3259 F300.
N1865 Z-0.05 F12.5
N1870 Z-0.217
N1875 X0.3646 Y-0.3261 Z-0.2191 F50.
N1880 X0.3642 Y-0.3268 Z-0.221
N1885 X0.3636 Y-0.3279 Z-0.2227
N1890 X0.3627 Y-0.3293 Z-0.2239
N1895 X0.3618 Y-0.331 Z-0.2247
N1900 X0.3607 Y-0.3328 Z-0.225
N1905 X0.3567 Y-0.3397
N1910 X0.3562 Y-0.341
N1915 X0.3558 Y-0.3423
N1920 G3 Y-0.6577 I0.8942 J-0.1577 F37.5
N1925 X0.3716 Y-0.6549 I0.0079 J0.0014
N1930 G2 Y-0.3451 I0.8784 J0.1549
N1935 G3 X0.3558 Y-0.3423 I-0.0079 J0.0014
N1940 G0 Z0.2
N1945 G1 X0.3647 Y-0.3259 F300.
N1950 Z-0.125 F12.5
N1955 Z-0.292
N1960 X0.3646 Y-0.3261 Z-0.2941 F50.
N1965 X0.3642 Y-0.3268 Z-0.296
N1970 X0.3636 Y-0.3279 Z-0.2977
N1975 X0.3627 Y-0.3293 Z-0.2989
N1980 X0.3618 Y-0.331 Z-0.2997
N1985 X0.3607 Y-0.3328 Z-0.3
N1990 X0.3567 Y-0.3397
N1995 X0.3562 Y-0.341
N2000 X0.3558 Y-0.3423
N2005 G3 Y-0.6577 I0.8942 J-0.1577 F37.5
N2010 X0.3716 Y-0.6549 I0.0079 J0.0014
N2015 G2 Y-0.3451 I0.8784 J0.1549
N2020 G3 X0.3558 Y-0.3423 I-0.0079 J0.0014
N2025 G0 Z0.2
N2030 G1 X0.3647 Y-0.3259 F300.
N2035 Z-0.2 F12.5
N2040 Z-0.367
N2045 X0.3646 Y-0.3261 Z-0.3691 F50.
N2050 X0.3642 Y-0.3268 Z-0.371
N2055 X0.3636 Y-0.3279 Z-0.3727
N2060 X0.3627 Y-0.3293 Z-0.3739
N2065 X0.3618 Y-0.331 Z-0.3747
N2070 X0.3607 Y-0.3328 Z-0.375
N2075 X0.3567 Y-0.3397
N2080 X0.3562 Y-0.341
N2085 X0.3558 Y-0.3423
N2090 G3 Y-0.6577 I0.8942 J-0.1577 F37.5
N2095 X0.3716 Y-0.6549 I0.0079 J0.0014
N2100 G2 Y-0.3451 I0.8784 J0.1549
N2105 G3 X0.3558 Y-0.3423 I-0.0079 J0.0014
N2110 G0 Z0.2
N2115 G1 X0.3647 Y-0.3259 F300.
N2120 Z-0.275 F12.5
N2125 Z-0.442
N2130 X0.3646 Y-0.3261 Z-0.4441 F50.
N2135 X0.3642 Y-0.3268 Z-0.446
N2140 X0.3636 Y-0.3279 Z-0.4477
N2145 X0.3627 Y-0.3293 Z-0.4489
N2150 X0.3618 Y-0.331 Z-0.4497
N2155 X0.3607 Y-0.3328 Z-0.45
N2160 X0.3567 Y-0.3397
N2165 X0.3562 Y-0.341
N2170 X0.3558 Y-0.3423
N2175 G3 Y-0.6577 I0.8942 J-0.1577 F37.5
N2180 X0.3716 Y-0.6549 I0.0079 J0.0014
N2185 G2 Y-0.3451 I0.8784 J0.1549
N2190 G3 X0.3558 Y-0.3423 I-0.0079 J0.0014
N2195 G0 Z0.2
N2200 G1 X0.3647 Y-0.3259 F300.
N2205 Z-0.35 F12.5
N2210 Z-0.517
N2215 X0.3646 Y-0.3261 Z-0.5191 F50.
N2220 X0.3642 Y-0.3268 Z-0.521
N2225 X0.3636 Y-0.3279 Z-0.5227
N2230 X0.3627 Y-0.3293 Z-0.5239
N2235 X0.3618 Y-0.331 Z-0.5247
N2240 X0.3607 Y-0.3328 Z-0.525
N2245 X0.3567 Y-0.3397
N2250 X0.3562 Y-0.341
N2255 X0.3558 Y-0.3423
N2260 G3 Y-0.6577 I0.8942 J-0.1577 F37.5
N2265 X0.3716 Y-0.6549 I0.0079 J0.0014
N2270 G2 Y-0.3451 I0.8784 J0.1549
N2275 G3 X0.3558 Y-0.3423 I-0.0079 J0.0014
N2280 G0 Z0.2
N2285 G1 X0.3647 Y-0.3259 F300.
N2290 Z-0.425 F12.5
N2295 Z-0.592
N2300 X0.3646 Y-0.3261 Z-0.5941 F50.
N2305 X0.3642 Y-0.3268 Z-0.596
N2310 X0.3636 Y-0.3279 Z-0.5977
N2315 X0.3627 Y-0.3293 Z-0.5989
N2320 X0.3618 Y-0.331 Z-0.5997
N2325 X0.3607 Y-0.3328 Z-0.6
N2330 X0.3567 Y-0.3397
N2335 X0.3562 Y-0.341
N2340 X0.3558 Y-0.3423
N2345 G3 Y-0.6577 I0.8942 J-0.1577 F37.5
N2350 X0.3716 Y-0.6549 I0.0079 J0.0014
N2355 G2 Y-0.3451 I0.8784 J0.1549
N2360 G3 X0.3558 Y-0.3423 I-0.0079 J0.0014
N2365 G0 Z0.2
N2370 G1 X0.3647 Y-0.3259 F300.
N2375 Z-0.5 F12.5
N2380 Z-0.631
N2385 X0.3646 Y-0.3261 Z-0.6331 F50.
N2390 X0.3642 Y-0.3268 Z-0.635
N2395 X0.3636 Y-0.3279 Z-0.6367
N2400 X0.3627 Y-0.3293 Z-0.6379
N2405 X0.3618 Y-0.331 Z-0.6387
N2410 X0.3607 Y-0.3328 Z-0.639
N2415 X0.3567 Y-0.3397
N2420 X0.3562 Y-0.341
N2425 X0.3558 Y-0.3423
N2430 G3 Y-0.6577 I0.8942 J-0.1577 F37.5
N2435 X0.3716 Y-0.6549 I0.0079 J0.0014
N2440 G2 Y-0.3451 I0.8784 J0.1549
N2445 G3 X0.3558 Y-0.3423 I-0.0079 J0.0014
N2450 G0 Z0.2
N2455 G1 X0.3647 Y-0.3259 F300.
N2460 Z-0.539 F12.5
N2465 Z-0.67
N2470 X0.3646 Y-0.3261 Z-0.6721 F50.
N2475 X0.3642 Y-0.3268 Z-0.674
N2480 X0.3636 Y-0.3279 Z-0.6757
N2485 X0.3627 Y-0.3293 Z-0.6769
N2490 X0.3618 Y-0.331 Z-0.6777
N2495 X0.3607 Y-0.3328 Z-0.678
N2500 X0.3567 Y-0.3397
N2505 X0.3562 Y-0.341
N2510 X0.3558 Y-0.3423
N2515 G3 Y-0.6577 I0.8942 J-0.1577 F37.5
N2520 X0.3716 Y-0.6549 I0.0079 J0.0014
N2525 G2 Y-0.3451 I0.8784 J0.1549
N2530 G3 X0.3558 Y-0.3423 I-0.0079 J0.0014
N2535 G0 Z0.2
N2540 G1 X0.3647 Y-0.3259 F300.
N2545 Z-0.578 F12.5
N2550 Z-0.678
N2555 X0.3646 Y-0.3261 Z-0.6801 F50.
N2560 X0.3642 Y-0.3268 Z-0.682
N2565 X0.3636 Y-0.3279 Z-0.6837
N2570 X0.3627 Y-0.3293 Z-0.6849
N2575 X0.3618 Y-0.331 Z-0.6857
N2580 X0.3607 Y-0.3328 Z-0.686
N2585 X0.3567 Y-0.3397
N2590 X0.3562 Y-0.341
N2595 X0.3558 Y-0.3423
N2600 G3 Y-0.6577 I0.8942 J-0.1577 F37.5
N2605 X0.3716 Y-0.6549 I0.0079 J0.0014
N2610 G2 Y-0.3451 I0.8784 J0.1549
N2615 G3 X0.3558 Y-0.3423 I-0.0079 J0.0014
N2620 G0 Z0.2
N2625 G1 X0.3647 Y-0.3259 F300.
N2630 Z-0.586 F12.5
N2635 Z-0.686
N2640 X0.3646 Y-0.3261 Z-0.6881 F50.
N2645 X0.3642 Y-0.3268 Z-0.69
N2650 X0.3636 Y-0.3279 Z-0.6917
N2655 X0.3627 Y-0.3293 Z-0.6929
N2660 X0.3618 Y-0.331 Z-0.6937
N2665 X0.3607 Y-0.3328 Z-0.694
N2670 X0.3567 Y-0.3397
N2675 X0.3562 Y-0.341
N2680 X0.3558 Y-0.3423
N2685 G3 Y-0.6577 I0.8942 J-0.1577 F37.5
N2690 X0.3716 Y-0.6549 I0.0079 J0.0014
N2695 G2 Y-0.3451 I0.8784 J0.1549
N2700 G3 X0.3558 Y-0.3423 I-0.0079 J0.0014
N2705 G0 Z0.6

N2710 M5
N2715 M9
N2720 G53 G0 Z0.
N2725 X1.4375
N2730 G53 G0 Y0.
N2735 M2

%
