%
O01001
(Using high feed G1 F300. instead of G0.)
(T2 D=0.0937 CR=0. - ZMIN=3.6482 - flat end mill)
(T6 D=0.375 CR=0. - ZMIN=3.6679 - flat end mill)
(T17 D=0.1969 CR=0. TAPER=118deg - ZMIN=3.0773 - drill)
N10 G90 G94 G17
N15 G20
N20 G53 G0 Z0.

(Face1)
N25 T6 M6
N30 S7500 M3
N35 G54
N40 M8
N45 G1 X0.6032 Y-1.5907 F300.
N50 G0 G43 Z4.9041 H6
N55 T2
N60 G0 Z4.5104
N65 G1 Z4.2054 F90.
N70 G18 G3 X0.5657 Z4.1679 I-0.0375 K0.
N75 G1 X0.4771
N80 X-0.4771
N85 X-0.664
N90 G17 G2 Y-1.5125 I0. J0.0391
N95 G1 X0.664
N100 X0.8014
N105 G3 Y-1.4343 I0. J0.0391
N110 G1 X-0.8014
N115 X-0.9116
N120 G2 Y-1.3561 I0. J0.0391
N125 G1 X0.9116
N130 X1.0039
N135 G3 Y-1.2779 I0. J0.0391
N140 G1 X-1.0039
N145 X-1.0826
N150 G2 Y-1.1996 I0. J0.0391
N155 G1 X1.0826
N160 X1.1508
N165 G3 Y-1.1214 I0. J0.0391
N170 G1 X-1.1508
N175 X-1.2102
N180 G2 Y-1.0432 I0. J0.0391
N185 G1 X1.2102
N190 X1.2618
N195 G3 Y-0.965 I0. J0.0391
N200 G1 X-1.2618
N205 X-1.3067
N210 G2 Y-0.8868 I0. J0.0391
N215 G1 X1.3067
N220 X1.3457
N225 G3 Y-0.8086 I0. J0.0391
N230 G1 X-1.3457
N235 X-1.3791
N240 G2 Y-0.7303 I0. J0.0391
N245 G1 X1.3791
N250 X1.4075
N255 G3 Y-0.6521 I0. J0.0391
N260 G1 X0.2978
N265 G2 Y-0.5739 I0. J0.0391
N270 G1 X0.4625
N275 X1.4309
N280 X1.4497
N285 G3 Y-0.4957 I0. J0.0391
N290 G1 X0.5718
N295 G2 Y-0.4175 I0. J0.0391
N300 G1 X0.6541
N305 X1.4642
N310 X1.4743
N315 G3 Y-0.3392 I0. J0.0391
N320 G1 X0.7184
N325 G2 Y-0.261 I0. J0.0391
N330 G1 X0.7697
N335 X1.4802
N340 X1.4823
N345 G3 Y-0.1828 I0. J0.0391
N350 G1 X0.8102
N355 G2 Y-0.1046 I0. J0.0391
N360 G1 X0.8417
N365 X1.4823
N370 G3 Y-0.0264 I0. J0.0391
N375 G1 X0.8649
N380 X0.8581
N385 G2 Y0.0518 I0. J0.0391
N390 G1 X1.4823
N395 G3 Y0.1301 I0. J0.0391
N400 G1 X0.8324
N405 X0.7982
N410 G2 Y0.2083 I0. J0.0391
N415 G1 X1.4819
N420 G3 Y0.2865 I0. J0.0391
N425 G1 X1.4789
N430 X0.7542
N435 X0.6991
N440 G2 Y0.3647 I0. J0.0391
N445 G1 X1.4715
N450 G3 Y0.4429 I0. J0.0391
N455 G1 X1.4599
N460 X0.6296
N465 X0.5399
N470 G2 Y0.5211 I0. J0.0391
N475 G1 X1.4442
N480 G3 Y0.5994 I0. J0.0391
N485 G1 X1.4237
N490 X0.4177
N495 X0.2129
N500 G2 Y0.6776 I0. J0.0391
N505 G1 X1.3987
N510 G18 G2 X1.4362 Z4.2054 I0. K0.0375
N515 G0 Z4.5104
N520 G1 X-0.1707 Y-0.6521 F300.
N525 Z4.2054 F90.
N530 G3 X-0.2082 Z4.1679 I-0.0375 K0.
N535 G1 X-0.2978
N540 X-1.4075
N545 X-1.4309
N550 G17 G2 Y-0.5739 I0. J0.0391
N555 G1 X-0.4625
N560 G3 Y-0.4957 I0. J0.0391
N565 G1 X-0.5718
N570 X-1.4497
N575 X-1.4642
N580 G2 Y-0.4175 I0. J0.0391
N585 G1 X-0.6541
N590 G3 Y-0.3392 I0. J0.0391
N595 G1 X-0.7184
N600 X-1.4743
N605 X-1.4802
N610 G2 Y-0.261 I0. J0.0391
N615 G1 X-0.7697
N620 G3 Y-0.1828 I0. J0.0391
N625 G1 X-0.8102
N630 X-1.4823
N635 G2 Y-0.1046 I0. J0.0391
N640 G1 X-0.8417
N645 G3 Y-0.0264 I0. J0.0391
N650 G1 X-0.8649
N655 X-1.4823
N660 G2 Y0.0518 I0. J0.0391
N665 G1 X-0.8581
N670 X-0.8324
N675 G3 Y0.1301 I0. J0.0391
N680 G1 X-1.4823
N685 G2 Y0.2083 I0. J0.0391
N690 G1 X-1.4819
N695 X-0.7982
N700 X-0.7542
N705 G3 Y0.2865 I0. J0.0391
N710 G1 X-1.4789
N715 G2 Y0.3647 I0. J0.0391
N720 G1 X-1.4715
N725 X-0.6991
N730 X-0.6296
N735 G3 Y0.4429 I0. J0.0391
N740 G1 X-1.4599
N745 G2 Y0.5211 I0. J0.0391
N750 G1 X-1.4442
N755 X-0.5399
N760 X-0.4177
N765 G3 Y0.5994 I0. J0.0391
N770 G1 X-1.4237
N775 G2 Y0.6776 I0. J0.0391
N780 G1 X-1.3987
N785 X-0.2129
N790 G18 G2 X-0.1754 Z4.2054 I0. K0.0375
N795 G0 Z4.5104
N800 G1 X-1.5472 Y0.7558 F300.
N805 Z4.2054 F90.
N810 G2 X-1.5097 Z4.1679 I0.0375 K0.
N815 G1 X-1.3688
N820 X1.3688
N825 G17 G3 Y0.834 I0. J0.0391
N830 G1 X1.3338
N835 X-1.3338
N840 G2 Y0.9122 I0. J0.0391
N845 G1 X-1.2929
N850 X1.2929
N855 G3 Y0.9905 I0. J0.0391
N860 G1 X1.2458
N865 X-1.2458
N870 G2 Y1.0687 I0. J0.0391
N875 G1 X-1.1918
N880 X1.1918
N885 G3 Y1.1469 I0. J0.0391
N890 G1 X1.1298
N895 X-1.1298
N900 G2 Y1.2251 I0. J0.0391
N905 G1 X-1.0583
N910 X1.0583
N915 G3 Y1.3033 I0. J0.0391
N920 G1 X0.9754
N925 X-0.9754
N930 G18 G3 X-1.0129 Z4.2054 I0. K0.0375
N935 G0 Z4.5104
N940 G1 X-0.6032 Y-1.5907 F300.
N945 Z3.9554 F90.
N950 G2 X-0.5657 Z3.9179 I0.0375 K0.
N955 G1 X-0.4771
N960 X0.4771
N965 X0.664
N970 G17 G3 Y-1.5125 I0. J0.0391
N975 G1 X-0.664
N980 X-0.8014
N985 G2 Y-1.4343 I0. J0.0391
N990 G1 X0.8014
N995 X0.9116
N1000 G3 Y-1.3561 I0. J0.0391
N1005 G1 X-0.9116
N1010 X-1.0039
N1015 G2 Y-1.2779 I0. J0.0391
N1020 G1 X1.0039
N1025 X1.0826
N1030 G3 Y-1.1996 I0. J0.0391
N1035 G1 X-1.0826
N1040 X-1.1508
N1045 G2 Y-1.1214 I0. J0.0391
N1050 G1 X1.1508
N1055 X1.2102
N1060 G3 Y-1.0432 I0. J0.0391
N1065 G1 X-1.2102
N1070 X-1.2618
N1075 G2 Y-0.965 I0. J0.0391
N1080 G1 X1.2618
N1085 X1.3067
N1090 G3 Y-0.8868 I0. J0.0391
N1095 G1 X-1.3067
N1100 X-1.3457
N1105 G2 Y-0.8086 I0. J0.0391
N1110 G1 X1.3457
N1115 X1.3791
N1120 G3 Y-0.7303 I0. J0.0391
N1125 G1 X-1.3791
N1130 X-1.4075
N1135 G2 Y-0.6521 I0. J0.0391
N1140 G1 X-0.2978
N1145 G3 Y-0.5739 I0. J0.0391
N1150 G1 X-0.4625
N1155 X-1.4309
N1160 X-1.4497
N1165 G2 Y-0.4957 I0. J0.0391
N1170 G1 X-0.5718
N1175 G3 Y-0.4175 I0. J0.0391
N1180 G1 X-0.6541
N1185 X-1.4642
N1190 X-1.4743
N1195 G2 Y-0.3392 I0. J0.0391
N1200 G1 X-0.7184
N1205 G3 Y-0.261 I0. J0.0391
N1210 G1 X-0.7697
N1215 X-1.4802
N1220 X-1.4823
N1225 G2 Y-0.1828 I0. J0.0391
N1230 G1 X-0.8102
N1235 G3 Y-0.1046 I0. J0.0391
N1240 G1 X-0.8417
N1245 X-1.4823
N1250 G2 Y-0.0264 I0. J0.0391
N1255 G1 X-0.8649
N1260 X-0.8581
N1265 G3 Y0.0518 I0. J0.0391
N1270 G1 X-1.4823
N1275 G2 Y0.1301 I0. J0.0391
N1280 G1 X-0.8324
N1285 X-0.7982
N1290 G3 Y0.2083 I0. J0.0391
N1295 G1 X-1.4819
N1300 G2 Y0.2865 I0. J0.0391
N1305 G1 X-1.4789
N1310 X-0.7542
N1315 X-0.6991
N1320 G3 Y0.3647 I0. J0.0391
N1325 G1 X-1.4715
N1330 G2 Y0.4429 I0. J0.0391
N1335 G1 X-1.4599
N1340 X-0.6296
N1345 X-0.5399
N1350 G3 Y0.5211 I0. J0.0391
N1355 G1 X-1.4442
N1360 G2 Y0.5994 I0. J0.0391
N1365 G1 X-1.4237
N1370 X-0.4177
N1375 X-0.2129
N1380 G3 Y0.6776 I0. J0.0391
N1385 G1 X-1.3987
N1390 G18 G3 X-1.4362 Z3.9554 I0. K0.0375
N1395 G0 Z4.5104
N1400 G1 X0.1707 Y-0.6521 F300.
N1405 Z3.9554 F90.
N1410 G2 X0.2082 Z3.9179 I0.0375 K0.
N1415 G1 X0.2978
N1420 X1.4075
N1425 X1.4309
N1430 G17 G3 Y-0.5739 I0. J0.0391
N1435 G1 X0.4625
N1440 G2 Y-0.4957 I0. J0.0391
N1445 G1 X0.5718
N1450 X1.4497
N1455 X1.4642
N1460 G3 Y-0.4175 I0. J0.0391
N1465 G1 X0.6541
N1470 G2 Y-0.3392 I0. J0.0391
N1475 G1 X0.7184
N1480 X1.4743
N1485 X1.4802
N1490 G3 Y-0.261 I0. J0.0391
N1495 G1 X0.7697
N1500 G2 Y-0.1828 I0. J0.0391
N1505 G1 X0.8102
N1510 X1.4823
N1515 G3 Y-0.1046 I0. J0.0391
N1520 G1 X0.8417
N1525 G2 Y-0.0264 I0. J0.0391
N1530 G1 X0.8649
N1535 X1.4823
N1540 G3 Y0.0518 I0. J0.0391
N1545 G1 X0.8581
N1550 X0.8324
N1555 G2 Y0.1301 I0. J0.0391
N1560 G1 X1.4823
N1565 G3 Y0.2083 I0. J0.0391
N1570 G1 X1.4819
N1575 X0.7982
N1580 X0.7542
N1585 G2 Y0.2865 I0. J0.0391
N1590 G1 X1.4789
N1595 G3 Y0.3647 I0. J0.0391
N1600 G1 X1.4715
N1605 X0.6991
N1610 X0.6296
N1615 G2 Y0.4429 I0. J0.0391
N1620 G1 X1.4599
N1625 G3 Y0.5211 I0. J0.0391
N1630 G1 X1.4442
N1635 X0.5399
N1640 X0.4177
N1645 G2 Y0.5994 I0. J0.0391
N1650 G1 X1.4237
N1655 G3 Y0.6776 I0. J0.0391
N1660 G1 X1.3987
N1665 X0.2129
N1670 G18 G3 X0.1754 Z3.9554 I0. K0.0375
N1675 G0 Z4.5104
N1680 G1 X1.5472 Y0.7558 F300.
N1685 Z3.9554 F90.
N1690 G3 X1.5097 Z3.9179 I-0.0375 K0.
N1695 G1 X1.3688
N1700 X-1.3688
N1705 G17 G2 Y0.834 I0. J0.0391
N1710 G1 X-1.3338
N1715 X1.3338
N1720 G3 Y0.9122 I0. J0.0391
N1725 G1 X1.2929
N1730 X-1.2929
N1735 G2 Y0.9905 I0. J0.0391
N1740 G1 X-1.2458
N1745 X1.2458
N1750 G3 Y1.0687 I0. J0.0391
N1755 G1 X1.1918
N1760 X-1.1918
N1765 G2 Y1.1469 I0. J0.0391
N1770 G1 X-1.1298
N1775 X1.1298
N1780 G3 Y1.2251 I0. J0.0391
N1785 G1 X1.0583
N1790 X-1.0583
N1795 G2 Y1.3033 I0. J0.0391
N1800 G1 X-0.9754
N1805 X0.9754
N1810 G18 G2 X1.0129 Z3.9554 I0. K0.0375
N1815 G0 Z4.5104
N1820 G1 X0.6032 Y-1.5907 F300.
N1825 Z3.7054 F90.
N1830 G3 X0.5657 Z3.6679 I-0.0375 K0.
N1835 G1 X0.4771
N1840 X-0.4771
N1845 X-0.664
N1850 G17 G2 Y-1.5125 I0. J0.0391
N1855 G1 X0.664
N1860 X0.8014
N1865 G3 Y-1.4343 I0. J0.0391
N1870 G1 X-0.8014
N1875 X-0.9116
N1880 G2 Y-1.3561 I0. J0.0391
N1885 G1 X0.9116
N1890 X1.0039
N1895 G3 Y-1.2779 I0. J0.0391
N1900 G1 X-1.0039
N1905 X-1.0826
N1910 G2 Y-1.1996 I0. J0.0391
N1915 G1 X1.0826
N1920 X1.1508
N1925 G3 Y-1.1214 I0. J0.0391
N1930 G1 X-1.1508
N1935 X-1.2102
N1940 G2 Y-1.0432 I0. J0.0391
N1945 G1 X1.2102
N1950 X1.2618
N1955 G3 Y-0.965 I0. J0.0391
N1960 G1 X-1.2618
N1965 X-1.3067
N1970 G2 Y-0.8868 I0. J0.0391
N1975 G1 X1.3067
N1980 X1.3457
N1985 G3 Y-0.8086 I0. J0.0391
N1990 G1 X-1.3457
N1995 X-1.3791
N2000 G2 Y-0.7303 I0. J0.0391
N2005 G1 X1.3791
N2010 X1.4075
N2015 G3 Y-0.6521 I0. J0.0391
N2020 G1 X0.2978
N2025 G2 Y-0.5739 I0. J0.0391
N2030 G1 X0.4625
N2035 X1.4309
N2040 X1.4497
N2045 G3 Y-0.4957 I0. J0.0391
N2050 G1 X0.5718
N2055 G2 Y-0.4175 I0. J0.0391
N2060 G1 X0.6541
N2065 X1.4642
N2070 X1.4743
N2075 G3 Y-0.3392 I0. J0.0391
N2080 G1 X0.7184
N2085 G2 Y-0.261 I0. J0.0391
N2090 G1 X0.7697
N2095 X1.4802
N2100 X1.4823
N2105 G3 Y-0.1828 I0. J0.0391
N2110 G1 X0.8102
N2115 G2 Y-0.1046 I0. J0.0391
N2120 G1 X0.8417
N2125 X1.4823
N2130 G3 Y-0.0264 I0. J0.0391
N2135 G1 X0.8649
N2140 X0.8581
N2145 G2 Y0.0518 I0. J0.0391
N2150 G1 X1.4823
N2155 G3 Y0.1301 I0. J0.0391
N2160 G1 X0.8324
N2165 X0.7982
N2170 G2 Y0.2083 I0. J0.0391
N2175 G1 X1.4819
N2180 G3 Y0.2865 I0. J0.0391
N2185 G1 X1.4789
N2190 X0.7542
N2195 X0.6991
N2200 G2 Y0.3647 I0. J0.0391
N2205 G1 X1.4715
N2210 G3 Y0.4429 I0. J0.0391
N2215 G1 X1.4599
N2220 X0.6296
N2225 X0.5399
N2230 G2 Y0.5211 I0. J0.0391
N2235 G1 X1.4442
N2240 G3 Y0.5994 I0. J0.0391
N2245 G1 X1.4237
N2250 X0.4177
N2255 X0.2129
N2260 G2 Y0.6776 I0. J0.0391
N2265 G1 X1.3987
N2270 G18 G2 X1.4362 Z3.7054 I0. K0.0375
N2275 G0 Z4.5104
N2280 G1 X-0.1707 Y-0.6521 F300.
N2285 Z3.7054 F90.
N2290 G3 X-0.2082 Z3.6679 I-0.0375 K0.
N2295 G1 X-0.2978
N2300 X-1.4075
N2305 X-1.4309
N2310 G17 G2 Y-0.5739 I0. J0.0391
N2315 G1 X-0.4625
N2320 G3 Y-0.4957 I0. J0.0391
N2325 G1 X-0.5718
N2330 X-1.4497
N2335 X-1.4642
N2340 G2 Y-0.4175 I0. J0.0391
N2345 G1 X-0.6541
N2350 G3 Y-0.3392 I0. J0.0391
N2355 G1 X-0.7184
N2360 X-1.4743
N2365 X-1.4802
N2370 G2 Y-0.261 I0. J0.0391
N2375 G1 X-0.7697
N2380 G3 Y-0.1828 I0. J0.0391
N2385 G1 X-0.8102
N2390 X-1.4823
N2395 G2 Y-0.1046 I0. J0.0391
N2400 G1 X-0.8417
N2405 G3 Y-0.0264 I0. J0.0391
N2410 G1 X-0.8649
N2415 X-1.4823
N2420 G2 Y0.0518 I0. J0.0391
N2425 G1 X-0.8581
N2430 X-0.8324
N2435 G3 Y0.1301 I0. J0.0391
N2440 G1 X-1.4823
N2445 G2 Y0.2083 I0. J0.0391
N2450 G1 X-1.4819
N2455 X-0.7982
N2460 X-0.7542
N2465 G3 Y0.2865 I0. J0.0391
N2470 G1 X-1.4789
N2475 G2 Y0.3647 I0. J0.0391
N2480 G1 X-1.4715
N2485 X-0.6991
N2490 X-0.6296
N2495 G3 Y0.4429 I0. J0.0391
N2500 G1 X-1.4599
N2505 G2 Y0.5211 I0. J0.0391
N2510 G1 X-1.4442
N2515 X-0.5399
N2520 X-0.4177
N2525 G3 Y0.5994 I0. J0.0391
N2530 G1 X-1.4237
N2535 G2 Y0.6776 I0. J0.0391
N2540 G1 X-1.3987
N2545 X-0.2129
N2550 G18 G2 X-0.1754 Z3.7054 I0. K0.0375
N2555 G0 Z4.5104
N2560 G1 X-1.5472 Y0.7558 F300.
N2565 Z3.7054 F90.
N2570 G2 X-1.5097 Z3.6679 I0.0375 K0.
N2575 G1 X-1.3688
N2580 X1.3688
N2585 G17 G3 Y0.834 I0. J0.0391
N2590 G1 X1.3338
N2595 X-1.3338
N2600 G2 Y0.9122 I0. J0.0391
N2605 G1 X-1.2929
N2610 X1.2929
N2615 G3 Y0.9905 I0. J0.0391
N2620 G1 X1.2458
N2625 X-1.2458
N2630 G2 Y1.0687 I0. J0.0391
N2635 G1 X-1.1918
N2640 X1.1918
N2645 G3 Y1.1469 I0. J0.0391
N2650 G1 X1.1298
N2655 X-1.1298
N2660 G2 Y1.2251 I0. J0.0391
N2665 G1 X-1.0583
N2670 X1.0583
N2675 G3 Y1.3033 I0. J0.0391
N2680 G1 X0.9754
N2685 X-0.9754
N2690 G18 G3 X-1.0129 Z3.7054 I0. K0.0375
N2695 G0 Z4.9041
N2700 M9
N2705 M5
N2710 G53 G0 Z0.

(2D Contour3)
N2715 M1
N2720 T2 M6
N2725 S5000 M3
N2730 G54
N2735 M8
N2740 G17
N2745 G1 X0.9875 Y-0.0094 F300.
N2750 G0 G43 Z4.9041 H2
N2755 T17
N2760 G0 Z4.5104
N2765 G1 Z4.3922 F13.333
N2770 Z3.6576
N2775 G18 G2 X0.9969 Z3.6482 I0.0094 K0. F40.
N2780 G1 X1.0063
N2785 G17 G3 X1.0156 Y0. I0. J0.0094
N2790 X-1.0156 I-1.0156 J0.
N2795 X1.0156 I1.0156 J0.
N2800 X1.0063 Y0.0094 I-0.0094 J0.
N2805 G1 X0.9969
N2810 G18 G3 X0.9875 Z3.6576 I0. K0.0094
N2815 G0 Z4.9041
N2820 M9
N2825 M5
N2830 G53 G0 Z0.

(Drill5)
N2835 M1
N2840 T17 M6
N2845 S5820 M3
N2850 G54
N2855 G17
N2860 G1 X1.0615 Y-0.6129 F300.
N2865 G0 G43 Z4.9041 H17
N2870 T6
N2875 G0 Z4.5104
N2880 G98 G83 X1.0615 Y-0.6129 Z3.0773 R3.8647 Q0.0492 F28.661
N2885 X0. Y-1.2257
N2890 X-1.0615 Y-0.6129
N2895 Y0.6129
N2900 X0. Y1.2257
N2905 X1.0615 Y0.6129
N2910 G80
N2915 G0 Z4.9041

N2920 M5
N2925 G53 G0 Z0.
N2930 X0.
N2935 G53 G0 Y0.
N2940 M2

%
