%
O01002
(Using high feed G1 F300. instead of G0.)
(T17 D=0.1969 CR=0. TAPER=118deg - ZMIN=-0.5906 - drill)
N10 G90 G94 G17
N15 G20
N20 G53 G0 Z0.

(Drill6)
N25 T17 M6
N30 S5820 M3
N35 G54
N40 G1 X1.2257 Y0. F300.
N45 G0 G43 Z0.5906 H17
N50 G0 Z0.1969
N55 G98 G83 X1.2257 Y0. Z-0.5906 R0.1969 Q0.0492 F28.661
N60 X0. Y-1.2257
N65 X-1.2257 Y0.
N70 X0. Y1.2257
N75 G80
N80 G0 Z0.5906

N85 M5
N90 G53 G0 Z0.
N95 X0.
N100 G53 G0 Y0.
N105 M2

%
