%
O01004
(Using high feed G1 F300. instead of G0.)
(T5 D=0.25 CR=0. - ZMIN=-0.2691 - flat end mill)
(T6 D=0.375 CR=0. - ZMIN=-0.4673 - flat end mill)
(T14 D=2. CR=0. - ZMIN=-0.0329 - face mill)
(T17 D=0.2598 CR=0. TAPER=118deg - ZMIN=-0.4873 - drill)
N10 G90 G17
N15 G20
N20 G53 G0 Z0.

(Face1)
N25 T14 M6
N30 S5000 M3
N35 G54
N40 G17 G90
N45 M8
N50 G1 X3.925 Y-2.7816 F300.
N55 G0 G43 Z0.6 H14
N60 T6
N65 G0 Z0.2
N70 G1 Z0.1671 F13.123
N75 G18 G3 X3.725 Z-0.0329 I-0.2 K0. F39.37
N80 G1 X3.6254
N85 X-3.6254
N90 G17 G2 Y-1.5772 I0. J0.6022
N95 G1 X3.6254
N100 G3 Y-0.3728 I0. J0.6022
N105 G1 X-3.6254
N110 G2 Y0.8316 I0. J0.6022
N115 G1 X3.6254
N120 G3 Y2.036 I0. J0.6022
N125 G1 X-3.6254
N130 G18 G3 X-3.8254 Z0.1671 I0. K0.2
N135 G0 Z0.6
N140 M9
N145 M5
N150 G53 G0 Z0.

(2D Pocket1)
N155 M1
N160 T6 M6
N165 S5000 M3
N170 G54
N175 G17 G90
N180 M8
N185 G1 X0.0211 Y0.0305 F300.
N190 G0 G43 Z0.6 H6
N195 T5
N200 G0 Z0.2
N205 G1 Z0.1375 F13.123
N210 X0.0209 Y0.0293 Z0.128
N215 X0.0203 Y0.0257 Z0.1191
N220 X0.0196 Y0.0201 Z0.1114
N225 X0.0189 Y0.0126 Z0.1054
N230 X0.0185 Y0.0039 Z0.1016
N235 Y-0.0055 Z0.1
N240 G3 X0.0187 Y0.01 Z0.0615 I0.178 J0.0055
N245 X0.0203 Y0.0255 Z0.0229 I0.1778 J-0.01
N250 X0.0232 Y0.0407 Z-0.0156 I0.1763 J-0.0255
N255 X0.0274 Y0.0557 Z-0.0542 I0.1734 J-0.0407
N260 X0.0329 Y0.0702 Z-0.0927 I0.1692 J-0.0557
N265 X0.0396 Y0.0842 Z-0.1312 I0.1637 J-0.0702
N270 X0.0476 Y0.0976 Z-0.1698 I0.157 J-0.0842
N275 X0.3747 Y0. Z-0.1929 I0.149 J-0.0976
N280 X0.0735 I-0.1506 J0.
N285 X0.1515 I0.039 J0. F39.37
N290 X-0.1515 I-0.1515 J0.
N295 X0.3765 I0.264 J0.
N300 X-0.3765 I-0.3765 J0.
N305 X0.3765 I0.3765 J0.
N310 G1 X0.3762 Y0.0048 Z-0.1923
N315 X0.3753 Y0.0096 Z-0.1917
N320 X0.3738 Y0.0139 Z-0.1898
N325 X0.3719 Y0.018 Z-0.1879
N330 X0.3699 Y0.0213 Z-0.1849
N335 X0.3675 Y0.0244 Z-0.1819
N340 X0.3655 Y0.0265 Z-0.1781
N345 X0.3633 Y0.0286 Z-0.1742
N350 X0.3603 Y0.0308 Z-0.1651
N355 X0.3593 Y0.0316 Z-0.1554
N360 G0 Z0.6
N365 M9
N370 M5
N375 G53 G0 Z0.

(Pocket1)
N380 M1
N385 T5 M6
N390 S5000 M3
N395 G54
N400 G17 G90
N405 M8
N410 G1 X-0.0589 Y1.34 F300.
N415 G0 G43 Z0.6 H5
N420 T6
N425 G0 Z0.0787
N430 G1 Z0.0512 F13.123
N435 X-0.0583 Y1.3403 Z0.0458
N440 X-0.0568 Y1.3411 Z0.0406
N445 X-0.0543 Y1.3425 Z0.0359
N450 X-0.0508 Y1.3442 Z0.032
N455 X-0.0467 Y1.346 Z0.029
N460 X-0.0419 Y1.348 Z0.027
N465 X-0.0368 Y1.3498 Z0.0263
N470 G2 X-0.0465 Y1.3461 Z0.0016 I0.0368 J-0.1129
N475 X0.0238 Y1.1205 Z-0.0117 I0.0465 J-0.1093
N480 X-0.0001 Y1.3556 Z-0.025 I-0.0238 J0.1163
N485 G1 X0.0609 F39.37
N490 X0.1729 Y1.3453
N495 X0.1625 Y1.317
N500 X0.1161 Y1.1899
N505 X0.0999 Y1.1582
N510 X0.0807 Y1.1362
N515 X0.0563 Y1.1191
N520 X0.0296 Y1.1089
N525 X0. Y1.1052
N530 X-0.0296 Y1.1089
N535 X-0.0563 Y1.1191
N540 X-0.0807 Y1.1362
N545 X-0.0999 Y1.1582
N550 X-0.1111 Y1.1802
N555 X-0.1173 Y1.1928
N560 X-0.1729 Y1.3453
N565 X-0.0642 Y1.3555
N570 X-0.0001 Y1.3556
N575 G2 X0.0766 Y1.2794 I0.0001 J-0.0766
N580 X0.0038 Y1.1995 I-0.0798 J-0.0005
N585 X-0.042 Y1.2286 I-0.0039 J0.0444
N590 X-0.0113 Y1.2725 I0.0307 J0.0112
N595 G1 X0.0112
N600 G2 X0.0418 Y1.2288 I0. J-0.0326
N605 X0.0038 Y1.1995 I-0.0419 J0.0151
N610 X-0.0673 Y1.2696 Z-0.0288 I-0.0057 J0.0653 F13.123
N615 G1 X-0.0654 Y1.2949 Z-0.0296
N620 G2 X-0.0001 Y1.3556 Z-0.0329 I0.0654 J-0.0048
N625 G1 X0.0609 F39.37
N630 X0.1729 Y1.3453
N635 X0.1625 Y1.317
N640 X0.1161 Y1.1899
N645 X0.0999 Y1.1582
N650 X0.0807 Y1.1362
N655 X0.0563 Y1.1191
N660 X0.0296 Y1.1089
N665 X0. Y1.1052
N670 X-0.0296 Y1.1089
N675 X-0.0563 Y1.1191
N680 X-0.0807 Y1.1362
N685 X-0.0999 Y1.1582
N690 X-0.1111 Y1.1802
N695 X-0.1173 Y1.1928
N700 X-0.1729 Y1.3453
N705 X-0.0642 Y1.3555
N710 X-0.0001 Y1.3556
N715 G2 X0.0766 Y1.2794 I0.0001 J-0.0766
N720 X0.0038 Y1.1995 I-0.0798 J-0.0005
N725 X-0.042 Y1.2286 I-0.0039 J0.0444
N730 X-0.0113 Y1.2725 I0.0307 J0.0112
N735 G1 X0.0112
N740 G2 X0.0418 Y1.2288 I0. J-0.0326
N745 X0.0038 Y1.1995 I-0.0419 J0.0151
N750 X-0.0089 Y1.2166 I-0.0011 J0.0125
N755 G1 X0.0387 Y1.3345
N760 G3 X0.0306 Y1.3512 I-0.0116 J0.0047
N765 X-0.0154 Y1.1387 Z-0.0454 I-0.0306 J-0.1046 F13.123
N770 X-0.0001 Y1.3556 Z-0.0579 I0.0154 J0.1079
N775 G1 X-0.0642 Y1.3555 F39.37
N780 X-0.1526 Y1.3472
N785 X-0.099 Y1.1999
N790 X-0.0835 Y1.1694
N795 X-0.0674 Y1.1509
N800 X-0.0473 Y1.1368
N805 X-0.0244 Y1.128
N810 X0. Y1.125
N815 X0.0244 Y1.128
N820 X0.0473 Y1.1368
N825 X0.0672 Y1.1507
N830 X0.0685 Y1.1522
N835 X0.0835 Y1.1694
N840 X0.099 Y1.1999
N845 X0.1526 Y1.3472
N850 X0.0609 Y1.3556
N855 X-0.0001
N860 X-0.0016 Y1.3553
N865 X-0.0029 Y1.3546
N870 X-0.0039 Y1.3534
N875 X-0.0045 Y1.352
N880 X-0.0046 Y1.3505
N885 X-0.0041 Y1.3491
N890 X-0.0032 Y1.3478
N895 X-0.002 Y1.347
N900 X0.0121 Y1.3405
N905 X0.0134 Y1.3401
N910 X0.0147
N915 X0.03 Y1.3424
N920 X0.0315 Y1.3429
N925 X0.0327 Y1.3438
N930 X0.0335 Y1.3451
N935 X0.0339 Y1.3466
N940 X0.0337 Y1.3481
N945 X0.0331 Y1.3495
N950 X0.032 Y1.3505
N955 X0.0306 Y1.3512
N960 G3 X-0.0154 Y1.1387 Z-0.0704 I-0.0306 J-0.1046 F13.123
N965 X-0.0001 Y1.3556 Z-0.0829 I0.0154 J0.1079
N970 G1 X-0.0642 Y1.3555 F39.37
N975 X-0.1526 Y1.3472
N980 X-0.099 Y1.1999
N985 X-0.0835 Y1.1694
N990 X-0.0674 Y1.1509
N995 X-0.0473 Y1.1368
N1000 X-0.0244 Y1.128
N1005 X0. Y1.125
N1010 X0.0244 Y1.128
N1015 X0.0473 Y1.1368
N1020 X0.0672 Y1.1507
N1025 X0.0685 Y1.1522
N1030 X0.0835 Y1.1694
N1035 X0.099 Y1.1999
N1040 X0.1526 Y1.3472
N1045 X0.0609 Y1.3556
N1050 X-0.0001
N1055 X-0.0016 Y1.3553
N1060 X-0.0029 Y1.3546
N1065 X-0.0039 Y1.3534
N1070 X-0.0045 Y1.352
N1075 X-0.0046 Y1.3505
N1080 X-0.0041 Y1.3491
N1085 X-0.0032 Y1.3478
N1090 X-0.002 Y1.347
N1095 X0.0121 Y1.3405
N1100 X0.0134 Y1.3401
N1105 X0.0147
N1110 X0.03 Y1.3424
N1115 X0.0315 Y1.3429
N1120 X0.0327 Y1.3438
N1125 X0.0335 Y1.3451
N1130 X0.0339 Y1.3466
N1135 X0.0337 Y1.3481
N1140 X0.0331 Y1.3495
N1145 X0.032 Y1.3505
N1150 X0.0306 Y1.3512
N1155 G3 X-0.0154 Y1.1387 Z-0.0954 I-0.0306 J-0.1046 F13.123
N1160 X-0.0001 Y1.3556 Z-0.1079 I0.0154 J0.1079
N1165 G1 X-0.0642 Y1.3555 F39.37
N1170 X-0.1526 Y1.3472
N1175 X-0.099 Y1.1999
N1180 X-0.0835 Y1.1694
N1185 X-0.0674 Y1.1509
N1190 X-0.0473 Y1.1368
N1195 X-0.0244 Y1.128
N1200 X0. Y1.125
N1205 X0.0244 Y1.128
N1210 X0.0473 Y1.1368
N1215 X0.0672 Y1.1507
N1220 X0.0685 Y1.1522
N1225 X0.0835 Y1.1694
N1230 X0.099 Y1.1999
N1235 X0.1526 Y1.3472
N1240 X0.0609 Y1.3556
N1245 X-0.0001
N1250 X-0.0016 Y1.3553
N1255 X-0.0029 Y1.3546
N1260 X-0.0039 Y1.3534
N1265 X-0.0045 Y1.352
N1270 X-0.0046 Y1.3505
N1275 X-0.0041 Y1.3491
N1280 X-0.0032 Y1.3478
N1285 X-0.002 Y1.347
N1290 X0.0121 Y1.3405
N1295 X0.0134 Y1.3401
N1300 X0.0147
N1305 X0.03 Y1.3424
N1310 X0.0315 Y1.3429
N1315 X0.0327 Y1.3438
N1320 X0.0335 Y1.3451
N1325 X0.0339 Y1.3466
N1330 X0.0337 Y1.3481
N1335 X0.0331 Y1.3495
N1340 X0.032 Y1.3505
N1345 X0.0306 Y1.3512
N1350 G3 X-0.0154 Y1.1387 Z-0.1204 I-0.0306 J-0.1046 F13.123
N1355 X-0.0001 Y1.3556 Z-0.1329 I0.0154 J0.1079
N1360 G1 X-0.0642 Y1.3555 F39.37
N1365 X-0.1526 Y1.3472
N1370 X-0.099 Y1.1999
N1375 X-0.0835 Y1.1694
N1380 X-0.0674 Y1.1509
N1385 X-0.0473 Y1.1368
N1390 X-0.0244 Y1.128
N1395 X0. Y1.125
N1400 X0.0244 Y1.128
N1405 X0.0473 Y1.1368
N1410 X0.0672 Y1.1507
N1415 X0.0685 Y1.1522
N1420 X0.0835 Y1.1694
N1425 X0.099 Y1.1999
N1430 X0.1526 Y1.3472
N1435 X0.0609 Y1.3556
N1440 X-0.0001
N1445 X-0.0016 Y1.3553
N1450 X-0.0029 Y1.3546
N1455 X-0.0039 Y1.3534
N1460 X-0.0045 Y1.352
N1465 X-0.0046 Y1.3505
N1470 X-0.0041 Y1.3491
N1475 X-0.0032 Y1.3478
N1480 X-0.002 Y1.347
N1485 X0.0121 Y1.3405
N1490 X0.0134 Y1.3401
N1495 X0.0147
N1500 X0.03 Y1.3424
N1505 X0.0315 Y1.3429
N1510 X0.0327 Y1.3438
N1515 X0.0335 Y1.3451
N1520 X0.0339 Y1.3466
N1525 X0.0337 Y1.3481
N1530 X0.0331 Y1.3495
N1535 X0.032 Y1.3505
N1540 X0.0306 Y1.3512
N1545 G3 X-0.0154 Y1.1387 Z-0.1454 I-0.0306 J-0.1046 F13.123
N1550 X-0.0001 Y1.3556 Z-0.1579 I0.0154 J0.1079
N1555 G1 X-0.0642 Y1.3555 F39.37
N1560 X-0.1526 Y1.3472
N1565 X-0.099 Y1.1999
N1570 X-0.0835 Y1.1694
N1575 X-0.0674 Y1.1509
N1580 X-0.0473 Y1.1368
N1585 X-0.0244 Y1.128
N1590 X0. Y1.125
N1595 X0.0244 Y1.128
N1600 X0.0473 Y1.1368
N1605 X0.0672 Y1.1507
N1610 X0.0685 Y1.1522
N1615 X0.0835 Y1.1694
N1620 X0.099 Y1.1999
N1625 X0.1526 Y1.3472
N1630 X0.0609 Y1.3556
N1635 X-0.0001
N1640 X-0.0016 Y1.3553
N1645 X-0.0029 Y1.3546
N1650 X-0.0039 Y1.3534
N1655 X-0.0045 Y1.352
N1660 X-0.0046 Y1.3505
N1665 X-0.0041 Y1.3491
N1670 X-0.0032 Y1.3478
N1675 X-0.002 Y1.347
N1680 X0.0121 Y1.3405
N1685 X0.0134 Y1.3401
N1690 X0.0147
N1695 X0.03 Y1.3424
N1700 X0.0315 Y1.3429
N1705 X0.0327 Y1.3438
N1710 X0.0335 Y1.3451
N1715 X0.0339 Y1.3466
N1720 X0.0337 Y1.3481
N1725 X0.0331 Y1.3495
N1730 X0.032 Y1.3505
N1735 X0.0306 Y1.3512
N1740 G3 X-0.0154 Y1.1387 Z-0.1704 I-0.0306 J-0.1046 F13.123
N1745 X-0.0001 Y1.3556 Z-0.1829 I0.0154 J0.1079
N1750 G1 X-0.0642 Y1.3555 F39.37
N1755 X-0.1526 Y1.3472
N1760 X-0.099 Y1.1999
N1765 X-0.0835 Y1.1694
N1770 X-0.0674 Y1.1509
N1775 X-0.0473 Y1.1368
N1780 X-0.0244 Y1.128
N1785 X0. Y1.125
N1790 X0.0244 Y1.128
N1795 X0.0473 Y1.1368
N1800 X0.0672 Y1.1507
N1805 X0.0685 Y1.1522
N1810 X0.0835 Y1.1694
N1815 X0.099 Y1.1999
N1820 X0.1526 Y1.3472
N1825 X0.0609 Y1.3556
N1830 X-0.0001
N1835 G3 X-0.0121 Y1.3396 I0. J-0.0125
N1840 G1 X0.0136 Y1.2502
N1845 X0.0354 Y1.1597
N1850 G3 X0.0537 Y1.1518 I0.0122 J0.0029
N1855 X-0.0001 Y1.3556 Z-0.1929 I-0.0537 J0.0949 F13.123
N1860 G1 X-0.0642 Y1.3555 F39.37
N1865 X-0.1526 Y1.3472
N1870 X-0.099 Y1.1999
N1875 X-0.0835 Y1.1694
N1880 X-0.0674 Y1.1509
N1885 X-0.0473 Y1.1368
N1890 X-0.0244 Y1.128
N1895 X0. Y1.125
N1900 X0.0244 Y1.128
N1905 X0.0473 Y1.1368
N1910 X0.0672 Y1.1507
N1915 X0.0685 Y1.1522
N1920 X0.0835 Y1.1694
N1925 X0.099 Y1.1999
N1930 X0.1526 Y1.3472
N1935 X0.0609 Y1.3556
N1940 X-0.0001
N1945 X-0.0016 Y1.3553
N1950 X-0.0029 Y1.3546
N1955 X-0.0039 Y1.3534
N1960 X-0.0045 Y1.352
N1965 X-0.0046 Y1.3505
N1970 X-0.0041 Y1.3491
N1975 X-0.0032 Y1.3478
N1980 X-0.002 Y1.347
N1985 X0.0121 Y1.3405
N1990 X0.0134 Y1.3401
N1995 X0.0147
N2000 X0.03 Y1.3424
N2005 X0.0315 Y1.3429
N2010 X0.0327 Y1.3438
N2015 X0.0335 Y1.3451
N2020 X0.0339 Y1.3466
N2025 X0.0337 Y1.3481
N2030 X0.0331 Y1.3495
N2035 X0.032 Y1.3505
N2040 X0.0306 Y1.3512
N2045 G3 X-0.0154 Y1.1387 Z-0.2054 I-0.0306 J-0.1046 F13.123
N2050 X-0.0001 Y1.3556 Z-0.2179 I0.0154 J0.1079
N2055 G1 X-0.0642 Y1.3555 F39.37
N2060 X-0.1526 Y1.3472
N2065 X-0.099 Y1.1999
N2070 X-0.0835 Y1.1694
N2075 X-0.0674 Y1.1509
N2080 X-0.0473 Y1.1368
N2085 X-0.0244 Y1.128
N2090 X0. Y1.125
N2095 X0.0244 Y1.128
N2100 X0.0473 Y1.1368
N2105 X0.0672 Y1.1507
N2110 X0.0685 Y1.1522
N2115 X0.0835 Y1.1694
N2120 X0.099 Y1.1999
N2125 X0.1526 Y1.3472
N2130 X0.0609 Y1.3556
N2135 X-0.0001
N2140 X-0.0016 Y1.3553
N2145 X-0.0029 Y1.3546
N2150 X-0.0039 Y1.3534
N2155 X-0.0045 Y1.352
N2160 X-0.0046 Y1.3505
N2165 X-0.0041 Y1.3491
N2170 X-0.0032 Y1.3478
N2175 X-0.002 Y1.347
N2180 X0.0121 Y1.3405
N2185 X0.0134 Y1.3401
N2190 X0.0147
N2195 X0.03 Y1.3424
N2200 X0.0315 Y1.3429
N2205 X0.0327 Y1.3438
N2210 X0.0335 Y1.3451
N2215 X0.0339 Y1.3466
N2220 X0.0337 Y1.3481
N2225 X0.0331 Y1.3495
N2230 X0.032 Y1.3505
N2235 X0.0306 Y1.3512
N2240 G3 X-0.0154 Y1.1387 Z-0.2304 I-0.0306 J-0.1046 F13.123
N2245 X-0.0001 Y1.3556 Z-0.2429 I0.0154 J0.1079
N2250 G1 X-0.0642 Y1.3555 F39.37
N2255 X-0.1526 Y1.3472
N2260 X-0.099 Y1.1999
N2265 X-0.0835 Y1.1694
N2270 X-0.0674 Y1.1509
N2275 X-0.0473 Y1.1368
N2280 X-0.0244 Y1.128
N2285 X0. Y1.125
N2290 X0.0244 Y1.128
N2295 X0.0473 Y1.1368
N2300 X0.0672 Y1.1507
N2305 X0.0685 Y1.1522
N2310 X0.0835 Y1.1694
N2315 X0.099 Y1.1999
N2320 X0.1526 Y1.3472
N2325 X0.0609 Y1.3556
N2330 X-0.0001
N2335 G3 X-0.0126 Y1.3425 I0. J-0.0125
N2340 G1 X-0.0081 Y1.2503
N2345 X-0.0082 Y1.2479
N2350 X-0.0088 Y1.2454
N2355 X-0.0405 Y1.1588
N2360 G3 X-0.0324 Y1.1426 I0.0117 J-0.0043
N2365 X-0.0001 Y1.3556 Z-0.256 I0.0324 J0.104 F13.123
N2370 G1 X-0.0642 Y1.3555 F39.37
N2375 X-0.1526 Y1.3472
N2380 X-0.099 Y1.1999
N2385 X-0.0835 Y1.1694
N2390 X-0.0674 Y1.1509
N2395 X-0.0473 Y1.1368
N2400 X-0.0244 Y1.128
N2405 X0. Y1.125
N2410 X0.0244 Y1.128
N2415 X0.0473 Y1.1368
N2420 X0.0672 Y1.1507
N2425 X0.0685 Y1.1522
N2430 X0.0835 Y1.1694
N2435 X0.099 Y1.1999
N2440 X0.1526 Y1.3472
N2445 X0.0609 Y1.3556
N2450 X-0.0001
N2455 G3 X-0.0126 Y1.3425 I0. J-0.0125
N2460 G1 X-0.0081 Y1.2503
N2465 X-0.0082 Y1.2479
N2470 X-0.0088 Y1.2454
N2475 X-0.0405 Y1.1588
N2480 G3 X-0.0324 Y1.1426 I0.0117 J-0.0043
N2485 X-0.0001 Y1.3556 Z-0.2691 I0.0324 J0.104 F13.123
N2490 G1 X-0.0642 Y1.3555 F39.37
N2495 X-0.1526 Y1.3472
N2500 X-0.099 Y1.1999
N2505 X-0.0835 Y1.1694
N2510 X-0.0674 Y1.1509
N2515 X-0.0473 Y1.1368
N2520 X-0.0244 Y1.128
N2525 X0. Y1.125
N2530 X0.0244 Y1.128
N2535 X0.0473 Y1.1368
N2540 X0.0672 Y1.1507
N2545 X0.0685 Y1.1522
N2550 X0.0835 Y1.1694
N2555 X0.099 Y1.1999
N2560 X0.1526 Y1.3472
N2565 X0.0609 Y1.3556
N2570 X-0.0001
N2575 X-0.0029 Y1.3554 Z-0.2688
N2580 X-0.0056 Y1.355 Z-0.2685
N2585 X-0.0082 Y1.3543 Z-0.2676
N2590 X-0.0106 Y1.3533 Z-0.2667
N2595 X-0.0127 Y1.3522 Z-0.2652
N2600 X-0.0147 Y1.3509 Z-0.2637
N2605 X-0.0177 Y1.3483 Z-0.2597
N2610 X-0.0197 Y1.3461 Z-0.255
N2615 X-0.0208 Y1.3446 Z-0.2497
N2620 X-0.0211 Y1.3441 Z-0.2441
N2625 G0 Z0.2
N2630 G1 X-1.0098 Y0.7242 F300.
N2635 G0 Z0.0512
N2640 G1 X-1.0092 Y0.7239 Z0.0458 F13.123
N2645 X-1.0077 Y0.7231 Z0.0406
N2650 X-1.0052 Y0.7217 Z0.0359
N2655 X-1.0019 Y0.7197 Z0.032
N2660 X-0.998 Y0.7173 Z0.029
N2665 X-0.9938 Y0.7143 Z0.027
N2670 X-0.9896 Y0.711 Z0.0263
N2675 G2 X-0.9979 Y0.7172 Z0.0016 I-0.0746 J-0.0924
N2680 X-1.1488 Y0.5353 Z-0.0117 I-0.0663 J-0.0985
N2685 X-0.9647 Y0.6834 Z-0.025 I0.0846 J0.0833
N2690 G1 X-0.9532 Y0.6658 F39.37
N2695 X-0.9436 Y0.6377
N2700 X-0.9411 Y0.6083
N2705 X-0.9456 Y0.5796
N2710 X-0.9571 Y0.5526
N2715 X-0.9748 Y0.5291
N2720 X-0.9976 Y0.5106
N2725 X-1.0243 Y0.4982
N2730 X-1.053 Y0.4926
N2735 X-1.0904 Y0.4946
N2740 X-1.2515 Y0.523
N2745 X-1.2057 Y0.623
N2750 X-1.1425 Y0.7325
N2755 X-1.0787 Y0.8224
N2760 X-0.9736 Y0.6972
N2765 X-0.9647 Y0.6834
N2770 G2 X-0.9939 Y0.647 I-0.0206 J-0.0134
N2775 G3 X-1.0326 Y0.6209 I-0.0101 J-0.0268
N2780 G2 X-1.0851 Y0.578 I-0.0447 J0.0011
N2785 X-1.1077 Y0.6265 I0.0057 J0.0322
N2790 G1 X-1.0964 Y0.6461
N2795 G2 X-1.0431 Y0.6508 I0.0283 J-0.0163
N2800 X-1.0326 Y0.6209 I-0.0342 J-0.0288
N2805 X-1.1098 Y0.6749 Z-0.0298 I-0.0565 J0.0014 F13.123
N2810 G1 X-1.0327 Y0.7052 Z-0.0314
N2815 G2 X-0.9647 Y0.6834 Z-0.0329 I0.0207 J-0.0526
N2820 G1 X-0.9532 Y0.6658 F39.37
N2825 X-0.9436 Y0.6377
N2830 X-0.9411 Y0.6083
N2835 X-0.9456 Y0.5796
N2840 X-0.9571 Y0.5526
N2845 X-0.9748 Y0.5291
N2850 X-0.9976 Y0.5106
N2855 X-1.0243 Y0.4982
N2860 X-1.053 Y0.4926
N2865 X-1.0904 Y0.4946
N2870 X-1.2515 Y0.523
N2875 X-1.2057 Y0.623
N2880 X-1.1425 Y0.7325
N2885 X-1.0787 Y0.8224
N2890 X-0.9736 Y0.6972
N2895 X-0.9647 Y0.6834
N2900 G2 X-0.9939 Y0.647 I-0.0206 J-0.0134
N2905 G3 X-1.0326 Y0.6209 I-0.0101 J-0.0268
N2910 G2 X-1.0851 Y0.578 I-0.0447 J0.0011
N2915 X-1.1077 Y0.6265 I0.0057 J0.0322
N2920 G1 X-1.0964 Y0.6461
N2925 G2 X-1.0431 Y0.6508 I0.0283 J-0.0163
N2930 X-1.0326 Y0.6209 I-0.0342 J-0.0288
N2935 G3 X-1.0099 Y0.6134 I0.0125 J-0.0003
N2940 G1 X-0.981 Y0.6547
N2945 G3 X-0.9797 Y0.6669 I-0.0102 J0.0072
N2950 X-1.1723 Y0.566 Z-0.0454 I-0.0999 J-0.0435 F13.123
N2955 X-0.9962 Y0.6934 Z-0.0579 I0.0926 J0.0574
N2960 G1 X-1.0905 Y0.8058 F39.37
N2965 X-1.1425 Y0.7325
N2970 X-1.2057 Y0.623
N2975 X-1.243 Y0.5415
N2980 X-1.0871 Y0.5141
N2985 X-1.0546 Y0.5124
N2990 X-1.03 Y0.5172
N2995 X-1.0085 Y0.5272
N3000 X-0.989 Y0.543
N3005 X-0.9743 Y0.5625
N3010 X-0.9646 Y0.5853
N3015 X-0.9608 Y0.6093
N3020 X-0.9631 Y0.6342
N3025 X-0.9709 Y0.657
N3030 X-0.9896 Y0.6856
N3035 X-0.9962 Y0.6934
N3040 X-0.9973 Y0.6944
N3045 X-0.9988 Y0.695
N3050 X-1.0003
N3055 X-1.0017 Y0.6945
N3060 X-1.003 Y0.6936
N3065 X-1.0038 Y0.6923
N3070 X-1.0042 Y0.6908
N3075 X-1.004 Y0.6893
N3080 X-0.9999 Y0.6743
N3085 X-0.9994 Y0.6731
N3090 X-0.9986 Y0.672
N3095 X-0.9869 Y0.6617
N3100 X-0.9856 Y0.6609
N3105 X-0.9841 Y0.6605
N3110 X-0.9826 Y0.6607
N3115 X-0.9812 Y0.6614
N3120 X-0.9802 Y0.6625
N3125 X-0.9795 Y0.6639
N3130 X-0.9794 Y0.6654
N3135 X-0.9797 Y0.6669
N3140 G3 X-1.1723 Y0.566 Z-0.0704 I-0.0999 J-0.0435 F13.123
N3145 X-0.9962 Y0.6934 Z-0.0829 I0.0926 J0.0574
N3150 G1 X-1.0905 Y0.8058 F39.37
N3155 X-1.1425 Y0.7325
N3160 X-1.2057 Y0.623
N3165 X-1.243 Y0.5415
N3170 X-1.0871 Y0.5141
N3175 X-1.0546 Y0.5124
N3180 X-1.03 Y0.5172
N3185 X-1.0085 Y0.5272
N3190 X-0.989 Y0.543
N3195 X-0.9743 Y0.5625
N3200 X-0.9646 Y0.5853
N3205 X-0.9608 Y0.6093
N3210 X-0.9631 Y0.6342
N3215 X-0.9709 Y0.657
N3220 X-0.9896 Y0.6856
N3225 X-0.9962 Y0.6934
N3230 G3 X-1.0088 Y0.6843 I-0.006 J-0.005
N3235 G1 X-0.9935 Y0.6597
N3240 G3 X-0.9797 Y0.6669 I0.0066 J0.0041
N3245 X-1.1723 Y0.566 Z-0.0954 I-0.0999 J-0.0435 F13.123
N3250 X-0.9962 Y0.6934 Z-0.1079 I0.0926 J0.0574
N3255 G1 X-1.0905 Y0.8058 F39.37
N3260 X-1.1425 Y0.7325
N3265 X-1.2057 Y0.623
N3270 X-1.243 Y0.5415
N3275 X-1.0871 Y0.5141
N3280 X-1.0546 Y0.5124
N3285 X-1.03 Y0.5172
N3290 X-1.0085 Y0.5272
N3295 X-0.989 Y0.543
N3300 X-0.9743 Y0.5625
N3305 X-0.9646 Y0.5853
N3310 X-0.9608 Y0.6093
N3315 X-0.9631 Y0.6342
N3320 X-0.9709 Y0.657
N3325 X-0.9896 Y0.6856
N3330 X-0.9962 Y0.6934
N3335 X-0.9973 Y0.6944
N3340 X-0.9988 Y0.695
N3345 X-1.0003
N3350 X-1.0017 Y0.6945
N3355 X-1.003 Y0.6936
N3360 X-1.0038 Y0.6923
N3365 X-1.0042 Y0.6908
N3370 X-1.004 Y0.6893
N3375 X-0.9999 Y0.6743
N3380 X-0.9994 Y0.6731
N3385 X-0.9986 Y0.672
N3390 X-0.9869 Y0.6617
N3395 X-0.9856 Y0.6609
N3400 X-0.9841 Y0.6605
N3405 X-0.9826 Y0.6607
N3410 X-0.9812 Y0.6614
N3415 X-0.9802 Y0.6625
N3420 X-0.9795 Y0.6639
N3425 X-0.9794 Y0.6654
N3430 X-0.9797 Y0.6669
N3435 G3 X-1.1723 Y0.566 Z-0.1204 I-0.0999 J-0.0435 F13.123
N3440 X-0.9962 Y0.6934 Z-0.1329 I0.0926 J0.0574
N3445 G1 X-1.0905 Y0.8058 F39.37
N3450 X-1.1425 Y0.7325
N3455 X-1.2057 Y0.623
N3460 X-1.243 Y0.5415
N3465 X-1.0871 Y0.5141
N3470 X-1.0546 Y0.5124
N3475 X-1.03 Y0.5172
N3480 X-1.0085 Y0.5272
N3485 X-0.989 Y0.543
N3490 X-0.9743 Y0.5625
N3495 X-0.9646 Y0.5853
N3500 X-0.9608 Y0.6093
N3505 X-0.9631 Y0.6342
N3510 X-0.9709 Y0.657
N3515 X-0.9896 Y0.6856
N3520 X-0.9962 Y0.6934
N3525 X-0.9973 Y0.6944
N3530 X-0.9988 Y0.695
N3535 X-1.0003
N3540 X-1.0017 Y0.6945
N3545 X-1.003 Y0.6936
N3550 X-1.0038 Y0.6923
N3555 X-1.0042 Y0.6908
N3560 X-1.004 Y0.6893
N3565 X-0.9999 Y0.6743
N3570 X-0.9994 Y0.6731
N3575 X-0.9986 Y0.672
N3580 X-0.9869 Y0.6617
N3585 X-0.9856 Y0.6609
N3590 X-0.9841 Y0.6605
N3595 X-0.9826 Y0.6607
N3600 X-0.9812 Y0.6614
N3605 X-0.9802 Y0.6625
N3610 X-0.9795 Y0.6639
N3615 X-0.9794 Y0.6654
N3620 X-0.9797 Y0.6669
N3625 G3 X-1.1723 Y0.566 Z-0.1454 I-0.0999 J-0.0435 F13.123
N3630 X-0.9962 Y0.6934 Z-0.1579 I0.0926 J0.0574
N3635 G1 X-1.0905 Y0.8058 F39.37
N3640 X-1.1425 Y0.7325
N3645 X-1.2057 Y0.623
N3650 X-1.243 Y0.5415
N3655 X-1.0871 Y0.5141
N3660 X-1.0546 Y0.5124
N3665 X-1.03 Y0.5172
N3670 X-1.0085 Y0.5272
N3675 X-0.989 Y0.543
N3680 X-0.9743 Y0.5625
N3685 X-0.9646 Y0.5853
N3690 X-0.9608 Y0.6093
N3695 X-0.9631 Y0.6342
N3700 X-0.9709 Y0.657
N3705 X-0.9896 Y0.6856
N3710 X-0.9962 Y0.6934
N3715 X-0.9973 Y0.6944
N3720 X-0.9988 Y0.695
N3725 X-1.0003
N3730 X-1.0017 Y0.6945
N3735 X-1.003 Y0.6936
N3740 X-1.0038 Y0.6923
N3745 X-1.0042 Y0.6908
N3750 X-1.004 Y0.6893
N3755 X-0.9999 Y0.6743
N3760 X-0.9994 Y0.6731
N3765 X-0.9986 Y0.672
N3770 X-0.9869 Y0.6617
N3775 X-0.9856 Y0.6609
N3780 X-0.9841 Y0.6605
N3785 X-0.9826 Y0.6607
N3790 X-0.9812 Y0.6614
N3795 X-0.9802 Y0.6625
N3800 X-0.9795 Y0.6639
N3805 X-0.9794 Y0.6654
N3810 X-0.9797 Y0.6669
N3815 G3 X-1.1723 Y0.566 Z-0.1704 I-0.0999 J-0.0435 F13.123
N3820 X-0.9962 Y0.6934 Z-0.1829 I0.0926 J0.0574
N3825 G1 X-1.0905 Y0.8058 F39.37
N3830 X-1.1425 Y0.7325
N3835 X-1.2057 Y0.623
N3840 X-1.243 Y0.5415
N3845 X-1.0871 Y0.5141
N3850 X-1.0546 Y0.5124
N3855 X-1.03 Y0.5172
N3860 X-1.0085 Y0.5272
N3865 X-0.989 Y0.543
N3870 X-0.9743 Y0.5625
N3875 X-0.9646 Y0.5853
N3880 X-0.9608 Y0.6093
N3885 X-0.9631 Y0.6342
N3890 X-0.9709 Y0.657
N3895 X-0.9896 Y0.6856
N3900 X-0.9962 Y0.6934
N3905 G3 X-1.1631 Y0.5533 Z-0.1879 I-0.0835 J-0.07 F13.123
N3910 X-0.9962 Y0.6934 Z-0.1929 I0.0835 J0.07
N3915 G1 X-1.0905 Y0.8058 F39.37
N3920 X-1.1425 Y0.7325
N3925 X-1.2057 Y0.623
N3930 X-1.243 Y0.5415
N3935 X-1.0871 Y0.5141
N3940 X-1.0546 Y0.5124
N3945 X-1.03 Y0.5172
N3950 X-1.0085 Y0.5272
N3955 X-0.989 Y0.543
N3960 X-0.9743 Y0.5625
N3965 X-0.9646 Y0.5853
N3970 X-0.9608 Y0.6093
N3975 X-0.9631 Y0.6342
N3980 X-0.9709 Y0.657
N3985 X-0.9896 Y0.6856
N3990 X-0.9962 Y0.6934
N3995 X-0.9973 Y0.6944
N4000 X-0.9988 Y0.695
N4005 X-1.0003
N4010 X-1.0017 Y0.6945
N4015 X-1.003 Y0.6936
N4020 X-1.0038 Y0.6923
N4025 X-1.0042 Y0.6908
N4030 X-1.004 Y0.6893
N4035 X-0.9999 Y0.6743
N4040 X-0.9994 Y0.6731
N4045 X-0.9986 Y0.672
N4050 X-0.9869 Y0.6617
N4055 X-0.9856 Y0.6609
N4060 X-0.9841 Y0.6605
N4065 X-0.9826 Y0.6607
N4070 X-0.9812 Y0.6614
N4075 X-0.9802 Y0.6625
N4080 X-0.9795 Y0.6639
N4085 X-0.9794 Y0.6654
N4090 X-0.9797 Y0.6669
N4095 G3 X-1.1723 Y0.566 Z-0.2054 I-0.0999 J-0.0435 F13.123
N4100 X-0.9962 Y0.6934 Z-0.2179 I0.0926 J0.0574
N4105 G1 X-1.0905 Y0.8058 F39.37
N4110 X-1.1425 Y0.7325
N4115 X-1.2057 Y0.623
N4120 X-1.243 Y0.5415
N4125 X-1.0871 Y0.5141
N4130 X-1.0546 Y0.5124
N4135 X-1.03 Y0.5172
N4140 X-1.0085 Y0.5272
N4145 X-0.989 Y0.543
N4150 X-0.9743 Y0.5625
N4155 X-0.9646 Y0.5853
N4160 X-0.9608 Y0.6093
N4165 X-0.9631 Y0.6342
N4170 X-0.9709 Y0.657
N4175 X-0.9896 Y0.6856
N4180 X-0.9962 Y0.6934
N4185 X-0.9973 Y0.6944
N4190 X-0.9988 Y0.695
N4195 X-1.0003
N4200 X-1.0017 Y0.6945
N4205 X-1.003 Y0.6936
N4210 X-1.0038 Y0.6923
N4215 X-1.0042 Y0.6908
N4220 X-1.004 Y0.6893
N4225 X-0.9999 Y0.6743
N4230 X-0.9994 Y0.6731
N4235 X-0.9986 Y0.672
N4240 X-0.9869 Y0.6617
N4245 X-0.9856 Y0.6609
N4250 X-0.9841 Y0.6605
N4255 X-0.9826 Y0.6607
N4260 X-0.9812 Y0.6614
N4265 X-0.9802 Y0.6625
N4270 X-0.9795 Y0.6639
N4275 X-0.9794 Y0.6654
N4280 X-0.9797 Y0.6669
N4285 G3 X-1.1723 Y0.566 Z-0.2304 I-0.0999 J-0.0435 F13.123
N4290 X-0.9962 Y0.6934 Z-0.2429 I0.0926 J0.0574
N4295 G1 X-1.0905 Y0.8058 F39.37
N4300 X-1.1425 Y0.7325
N4305 X-1.2057 Y0.623
N4310 X-1.243 Y0.5415
N4315 X-1.0871 Y0.5141
N4320 X-1.0546 Y0.5124
N4325 X-1.03 Y0.5172
N4330 X-1.0085 Y0.5272
N4335 X-0.989 Y0.543
N4340 X-0.9743 Y0.5625
N4345 X-0.9646 Y0.5853
N4350 X-0.9608 Y0.6093
N4355 X-0.9631 Y0.6342
N4360 X-0.9709 Y0.657
N4365 X-0.9896 Y0.6856
N4370 X-0.9962 Y0.6934
N4375 G3 X-1.1631 Y0.5533 Z-0.2495 I-0.0835 J-0.07 F13.123
N4380 X-0.9962 Y0.6934 Z-0.256 I0.0835 J0.07
N4385 G1 X-1.0905 Y0.8058 F39.37
N4390 X-1.1425 Y0.7325
N4395 X-1.2057 Y0.623
N4400 X-1.243 Y0.5415
N4405 X-1.0871 Y0.5141
N4410 X-1.0546 Y0.5124
N4415 X-1.03 Y0.5172
N4420 X-1.0085 Y0.5272
N4425 X-0.989 Y0.543
N4430 X-0.9743 Y0.5625
N4435 X-0.9646 Y0.5853
N4440 X-0.9608 Y0.6093
N4445 X-0.9631 Y0.6342
N4450 X-0.9709 Y0.657
N4455 X-0.9896 Y0.6856
N4460 X-0.9962 Y0.6934
N4465 G3 X-1.1631 Y0.5533 Z-0.2626 I-0.0835 J-0.07 F13.123
N4470 X-0.9962 Y0.6934 Z-0.2691 I0.0835 J0.07
N4475 G1 X-1.0905 Y0.8058 F39.37
N4480 X-1.1425 Y0.7325
N4485 X-1.2057 Y0.623
N4490 X-1.243 Y0.5415
N4495 X-1.0871 Y0.5141
N4500 X-1.0546 Y0.5124
N4505 X-1.03 Y0.5172
N4510 X-1.0085 Y0.5272
N4515 X-0.989 Y0.543
N4520 X-0.9743 Y0.5625
N4525 X-0.9646 Y0.5853
N4530 X-0.9608 Y0.6093
N4535 X-0.9631 Y0.6342
N4540 X-0.9709 Y0.657
N4545 X-0.9896 Y0.6856
N4550 X-0.9962 Y0.6934
N4555 X-0.9981 Y0.6954 Z-0.2688
N4560 X-1.0002 Y0.6972 Z-0.2685
N4565 X-1.0024 Y0.6987 Z-0.2676
N4570 X-1.0047 Y0.7 Z-0.2667
N4575 X-1.0069 Y0.7009 Z-0.2652
N4580 X-1.0091 Y0.7016 Z-0.2637
N4585 X-1.013 Y0.7022 Z-0.2597
N4590 X-1.016 Y0.7023 Z-0.255
N4595 X-1.0179 Y0.7022 Z-0.2497
N4600 X-1.0185 Y0.7021 Z-0.2441
N4605 G0 Z0.2
N4610 G1 X-1.1319 Y-0.5123 F300.
N4615 G0 Z0.0512
N4620 G1 X-1.1314 Y-0.512 Z0.0458 F13.123
N4625 X-1.1299 Y-0.5111 Z0.0406
N4630 X-1.1275 Y-0.5096 Z0.0359
N4635 X-1.1242 Y-0.5077 Z0.032
N4640 X-1.1201 Y-0.5056 Z0.029
N4645 X-1.1154 Y-0.5035 Z0.027
N4650 X-1.1104 Y-0.5014 Z0.0263
N4655 G2 X-1.1199 Y-0.5056 Z0.0016 I0.0426 J-0.1108
N4660 X-1.0381 Y-0.7272 Z-0.0117 I0.0521 J-0.1067
N4665 X-1.0741 Y-0.4937 Z-0.025 I-0.0298 J0.115
N4670 G1 X-1.053 Y-0.4926 F39.37
N4675 X-1.0243 Y-0.4982
N4680 X-0.9976 Y-0.5106
N4685 X-0.9748 Y-0.5291
N4690 X-0.9571 Y-0.5526
N4695 X-0.9456 Y-0.5796
N4700 X-0.9411 Y-0.6083
N4705 X-0.9436 Y-0.6377
N4710 X-0.9532 Y-0.6658
N4715 X-0.9736 Y-0.6972
N4720 X-1.0787 Y-0.8224
N4725 X-1.1425 Y-0.7325
N4730 X-1.2057 Y-0.623
N4735 X-1.2515 Y-0.523
N4740 X-1.0904 Y-0.4946
N4745 X-1.0741 Y-0.4937
N4750 G2 X-0.9925 Y-0.5704 I0.0041 J-0.0774
N4755 X-1.0584 Y-0.661 I-0.0939 J-0.0009
N4760 X-1.0964 Y-0.6461 I-0.0097 J0.0312
N4765 G1 X-1.1077 Y-0.6265
N4770 G2 X-1.0851 Y-0.578 I0.0283 J0.0163
N4775 X-1.0635 Y-0.5765 I0.0181 J-0.1024
N4780 X-1.0427 Y-0.5828 I-0.0015 J-0.0419
N4785 X-1.0274 Y-0.6169 I-0.0178 J-0.0284
N4790 X-1.0431 Y-0.6508 I-0.0704 J0.012
N4795 X-1.0584 Y-0.661 I-0.025 J0.021
N4800 X-1.1479 Y-0.559 Z-0.0299 I-0.0221 J0.0708 F13.123
N4805 G1 X-1.1375 Y-0.5367 Z-0.0306
N4810 G2 X-1.0741 Y-0.4937 Z-0.0329 I0.0674 J-0.0311
N4815 G1 X-1.053 Y-0.4926 F39.37
N4820 X-1.0243 Y-0.4982
N4825 X-0.9976 Y-0.5106
N4830 X-0.9748 Y-0.5291
N4835 X-0.9571 Y-0.5526
N4840 X-0.9456 Y-0.5796
N4845 X-0.9411 Y-0.6083
N4850 X-0.9436 Y-0.6377
N4855 X-0.9532 Y-0.6658
N4860 X-0.9736 Y-0.6972
N4865 X-1.0787 Y-0.8224
N4870 X-1.1425 Y-0.7325
N4875 X-1.2057 Y-0.623
N4880 X-1.2515 Y-0.523
N4885 X-1.0904 Y-0.4946
N4890 X-1.0741 Y-0.4937
N4895 G2 X-0.9925 Y-0.5704 I0.0041 J-0.0774
N4900 X-1.0584 Y-0.661 I-0.0939 J-0.0009
N4905 X-1.0964 Y-0.6461 I-0.0097 J0.0312
N4910 G1 X-1.1077 Y-0.6265
N4915 G2 X-1.0851 Y-0.578 I0.0283 J0.0163
N4920 X-1.0635 Y-0.5765 I0.0181 J-0.1024
N4925 X-1.0427 Y-0.5828 I-0.0015 J-0.0419
N4930 X-1.0274 Y-0.6169 I-0.0178 J-0.0284
N4935 X-1.0431 Y-0.6508 I-0.0704 J0.012
N4940 X-1.0584 Y-0.661 I-0.025 J0.021
N4945 X-1.0745 Y-0.6471 I-0.0037 J0.0119
N4950 G1 X-1.0561 Y-0.5295
N4955 G3 X-1.067 Y-0.5152 I-0.0124 J0.0019
N4960 X-1.0766 Y-0.7322 Z-0.0454 I-0.0127 J-0.1081 F13.123
N4965 X-1.0986 Y-0.5161 Z-0.0579 I-0.0031 J0.1088
N4970 G1 X-1.243 Y-0.5415 F39.37
N4975 X-1.2057 Y-0.623
N4980 X-1.1425 Y-0.7325
N4985 X-1.0905 Y-0.8058
N4990 X-0.9883 Y-0.6838
N4995 X-0.971 Y-0.6571
N5000 X-0.9631 Y-0.6342
N5005 X-0.9608 Y-0.6093
N5010 X-0.9646 Y-0.5854
N5015 X-0.9743 Y-0.5624
N5020 X-0.989 Y-0.5429
N5025 X-1.0085 Y-0.5272
N5030 X-1.03 Y-0.5172
N5035 X-1.0546 Y-0.5124
N5040 X-1.0871 Y-0.5141
N5045 X-1.0986 Y-0.5161
N5050 G3 X-1.097 Y-0.5318 I0.0014 J-0.0078
N5055 G1 X-1.0677 Y-0.5309
N5060 G3 X-1.067 Y-0.5152 I-0.0002 J0.0079
N5065 X-1.0766 Y-0.7322 Z-0.0704 I-0.0127 J-0.1081 F13.123
N5070 X-1.0986 Y-0.5161 Z-0.0829 I-0.0031 J0.1088
N5075 G1 X-1.243 Y-0.5415 F39.37
N5080 X-1.2057 Y-0.623
N5085 X-1.1425 Y-0.7325
N5090 X-1.0905 Y-0.8058
N5095 X-0.9883 Y-0.6838
N5100 X-0.971 Y-0.6571
N5105 X-0.9631 Y-0.6342
N5110 X-0.9608 Y-0.6093
N5115 X-0.9646 Y-0.5854
N5120 X-0.9743 Y-0.5624
N5125 X-0.989 Y-0.5429
N5130 X-1.0085 Y-0.5272
N5135 X-1.03 Y-0.5172
N5140 X-1.0546 Y-0.5124
N5145 X-1.0871 Y-0.5141
N5150 X-1.0986 Y-0.5161
N5155 X-1.1001 Y-0.5166
N5160 X-1.1013 Y-0.5176
N5165 X-1.1021 Y-0.5189
N5170 X-1.1024 Y-0.5204
N5175 X-1.1022 Y-0.522
N5180 X-1.1015 Y-0.5233
N5185 X-1.1004 Y-0.5244
N5190 X-1.099 Y-0.5251
N5195 X-1.0837 Y-0.5291
N5200 X-1.0824 Y-0.5293
N5205 X-1.0811 Y-0.5291
N5210 X-1.0661 Y-0.5241
N5215 X-1.0647 Y-0.5234
N5220 X-1.0637 Y-0.5223
N5225 X-1.0631 Y-0.5208
N5230 X-1.063 Y-0.5193
N5235 X-1.0634 Y-0.5178
N5240 X-1.0643 Y-0.5165
N5245 X-1.0655 Y-0.5156
N5250 X-1.067 Y-0.5152
N5255 G3 X-1.0766 Y-0.7322 Z-0.0954 I-0.0127 J-0.1081 F13.123
N5260 X-1.0986 Y-0.5161 Z-0.1079 I-0.0031 J0.1088
N5265 G1 X-1.243 Y-0.5415 F39.37
N5270 X-1.2057 Y-0.623
N5275 X-1.1425 Y-0.7325
N5280 X-1.0905 Y-0.8058
N5285 X-0.9883 Y-0.6838
N5290 X-0.971 Y-0.6571
N5295 X-0.9631 Y-0.6342
N5300 X-0.9608 Y-0.6093
N5305 X-0.9646 Y-0.5854
N5310 X-0.9743 Y-0.5624
N5315 X-0.989 Y-0.5429
N5320 X-1.0085 Y-0.5272
N5325 X-1.03 Y-0.5172
N5330 X-1.0546 Y-0.5124
N5335 X-1.0871 Y-0.5141
N5340 X-1.0986 Y-0.5161
N5345 X-1.1001 Y-0.5166
N5350 X-1.1013 Y-0.5176
N5355 X-1.1021 Y-0.5189
N5360 X-1.1024 Y-0.5204
N5365 X-1.1022 Y-0.522
N5370 X-1.1015 Y-0.5233
N5375 X-1.1004 Y-0.5244
N5380 X-1.099 Y-0.5251
N5385 X-1.0837 Y-0.5291
N5390 X-1.0824 Y-0.5293
N5395 X-1.0811 Y-0.5291
N5400 X-1.0661 Y-0.5241
N5405 X-1.0647 Y-0.5234
N5410 X-1.0637 Y-0.5223
N5415 X-1.0631 Y-0.5208
N5420 X-1.063 Y-0.5193
N5425 X-1.0634 Y-0.5178
N5430 X-1.0643 Y-0.5165
N5435 X-1.0655 Y-0.5156
N5440 X-1.067 Y-0.5152
N5445 G3 X-1.0766 Y-0.7322 Z-0.1204 I-0.0127 J-0.1081 F13.123
N5450 X-1.0986 Y-0.5161 Z-0.1329 I-0.0031 J0.1088
N5455 G1 X-1.243 Y-0.5415 F39.37
N5460 X-1.2057 Y-0.623
N5465 X-1.1425 Y-0.7325
N5470 X-1.0905 Y-0.8058
N5475 X-0.9883 Y-0.6838
N5480 X-0.971 Y-0.6571
N5485 X-0.9631 Y-0.6342
N5490 X-0.9608 Y-0.6093
N5495 X-0.9646 Y-0.5854
N5500 X-0.9743 Y-0.5624
N5505 X-0.989 Y-0.5429
N5510 X-1.0085 Y-0.5272
N5515 X-1.03 Y-0.5172
N5520 X-1.0546 Y-0.5124
N5525 X-1.0871 Y-0.5141
N5530 X-1.0986 Y-0.5161
N5535 X-1.1001 Y-0.5166
N5540 X-1.1013 Y-0.5176
N5545 X-1.1021 Y-0.5189
N5550 X-1.1024 Y-0.5204
N5555 X-1.1022 Y-0.522
N5560 X-1.1015 Y-0.5233
N5565 X-1.1004 Y-0.5244
N5570 X-1.099 Y-0.5251
N5575 X-1.0837 Y-0.5291
N5580 X-1.0824 Y-0.5293
N5585 X-1.0811 Y-0.5291
N5590 X-1.0661 Y-0.5241
N5595 X-1.0647 Y-0.5234
N5600 X-1.0637 Y-0.5223
N5605 X-1.0631 Y-0.5208
N5610 X-1.063 Y-0.5193
N5615 X-1.0634 Y-0.5178
N5620 X-1.0643 Y-0.5165
N5625 X-1.0655 Y-0.5156
N5630 X-1.067 Y-0.5152
N5635 G3 X-1.0766 Y-0.7322 Z-0.1454 I-0.0127 J-0.1081 F13.123
N5640 X-1.0986 Y-0.5161 Z-0.1579 I-0.0031 J0.1088
N5645 G1 X-1.243 Y-0.5415 F39.37
N5650 X-1.2057 Y-0.623
N5655 X-1.1425 Y-0.7325
N5660 X-1.0905 Y-0.8058
N5665 X-0.9883 Y-0.6838
N5670 X-0.971 Y-0.6571
N5675 X-0.9631 Y-0.6342
N5680 X-0.9608 Y-0.6093
N5685 X-0.9646 Y-0.5854
N5690 X-0.9743 Y-0.5624
N5695 X-0.989 Y-0.5429
N5700 X-1.0085 Y-0.5272
N5705 X-1.03 Y-0.5172
N5710 X-1.0546 Y-0.5124
N5715 X-1.0871 Y-0.5141
N5720 X-1.0986 Y-0.5161
N5725 X-1.1001 Y-0.5166
N5730 X-1.1013 Y-0.5176
N5735 X-1.1021 Y-0.5189
N5740 X-1.1024 Y-0.5204
N5745 X-1.1022 Y-0.522
N5750 X-1.1015 Y-0.5233
N5755 X-1.1004 Y-0.5244
N5760 X-1.099 Y-0.5251
N5765 X-1.0837 Y-0.5291
N5770 X-1.0824 Y-0.5293
N5775 X-1.0811 Y-0.5291
N5780 X-1.0661 Y-0.5241
N5785 X-1.0647 Y-0.5234
N5790 X-1.0637 Y-0.5223
N5795 X-1.0631 Y-0.5208
N5800 X-1.063 Y-0.5193
N5805 X-1.0634 Y-0.5178
N5810 X-1.0643 Y-0.5165
N5815 X-1.0655 Y-0.5156
N5820 X-1.067 Y-0.5152
N5825 G3 X-1.0766 Y-0.7322 Z-0.1704 I-0.0127 J-0.1081 F13.123
N5830 X-1.0986 Y-0.5161 Z-0.1829 I-0.0031 J0.1088
N5835 G1 X-1.243 Y-0.5415 F39.37
N5840 X-1.2057 Y-0.623
N5845 X-1.1425 Y-0.7325
N5850 X-1.0905 Y-0.8058
N5855 X-0.9883 Y-0.6838
N5860 X-0.971 Y-0.6571
N5865 X-0.9631 Y-0.6342
N5870 X-0.9608 Y-0.6093
N5875 X-0.9646 Y-0.5854
N5880 X-0.9743 Y-0.5624
N5885 X-0.989 Y-0.5429
N5890 X-1.0085 Y-0.5272
N5895 X-1.03 Y-0.5172
N5900 X-1.0546 Y-0.5124
N5905 X-1.0871 Y-0.5141
N5910 X-1.0986 Y-0.5161
N5915 G3 X-1.0609 Y-0.7306 Z-0.1879 I0.0189 J-0.1072 F13.123
N5920 X-1.0986 Y-0.5161 Z-0.1929 I-0.0189 J0.1072
N5925 G1 X-1.243 Y-0.5415 F39.37
N5930 X-1.2057 Y-0.623
N5935 X-1.1425 Y-0.7325
N5940 X-1.0905 Y-0.8058
N5945 X-0.9883 Y-0.6838
N5950 X-0.971 Y-0.6571
N5955 X-0.9631 Y-0.6342
N5960 X-0.9608 Y-0.6093
N5965 X-0.9646 Y-0.5854
N5970 X-0.9743 Y-0.5624
N5975 X-0.989 Y-0.5429
N5980 X-1.0085 Y-0.5272
N5985 X-1.03 Y-0.5172
N5990 X-1.0546 Y-0.5124
N5995 X-1.0871 Y-0.5141
N6000 X-1.0986 Y-0.5161
N6005 X-1.1001 Y-0.5166
N6010 X-1.1013 Y-0.5176
N6015 X-1.1021 Y-0.5189
N6020 X-1.1024 Y-0.5204
N6025 X-1.1022 Y-0.522
N6030 X-1.1015 Y-0.5233
N6035 X-1.1004 Y-0.5244
N6040 X-1.099 Y-0.5251
N6045 X-1.0837 Y-0.5291
N6050 X-1.0824 Y-0.5293
N6055 X-1.0811 Y-0.5291
N6060 X-1.0661 Y-0.5241
N6065 X-1.0647 Y-0.5234
N6070 X-1.0637 Y-0.5223
N6075 X-1.0631 Y-0.5208
N6080 X-1.063 Y-0.5193
N6085 X-1.0634 Y-0.5178
N6090 X-1.0643 Y-0.5165
N6095 X-1.0655 Y-0.5156
N6100 X-1.067 Y-0.5152
N6105 G3 X-1.0766 Y-0.7322 Z-0.2054 I-0.0127 J-0.1081 F13.123
N6110 X-1.0986 Y-0.5161 Z-0.2179 I-0.0031 J0.1088
N6115 G1 X-1.243 Y-0.5415 F39.37
N6120 X-1.2057 Y-0.623
N6125 X-1.1425 Y-0.7325
N6130 X-1.0905 Y-0.8058
N6135 X-0.9883 Y-0.6838
N6140 X-0.971 Y-0.6571
N6145 X-0.9631 Y-0.6342
N6150 X-0.9608 Y-0.6093
N6155 X-0.9646 Y-0.5854
N6160 X-0.9743 Y-0.5624
N6165 X-0.989 Y-0.5429
N6170 X-1.0085 Y-0.5272
N6175 X-1.03 Y-0.5172
N6180 X-1.0546 Y-0.5124
N6185 X-1.0871 Y-0.5141
N6190 X-1.0986 Y-0.5161
N6195 X-1.1001 Y-0.5166
N6200 X-1.1013 Y-0.5176
N6205 X-1.1021 Y-0.5189
N6210 X-1.1024 Y-0.5204
N6215 X-1.1022 Y-0.522
N6220 X-1.1015 Y-0.5233
N6225 X-1.1004 Y-0.5244
N6230 X-1.099 Y-0.5251
N6235 X-1.0837 Y-0.5291
N6240 X-1.0824 Y-0.5293
N6245 X-1.0811 Y-0.5291
N6250 X-1.0661 Y-0.5241
N6255 X-1.0647 Y-0.5234
N6260 X-1.0637 Y-0.5223
N6265 X-1.0631 Y-0.5208
N6270 X-1.063 Y-0.5193
N6275 X-1.0634 Y-0.5178
N6280 X-1.0643 Y-0.5165
N6285 X-1.0655 Y-0.5156
N6290 X-1.067 Y-0.5152
N6295 G3 X-1.0766 Y-0.7322 Z-0.2304 I-0.0127 J-0.1081 F13.123
N6300 X-1.0986 Y-0.5161 Z-0.2429 I-0.0031 J0.1088
N6305 G1 X-1.243 Y-0.5415 F39.37
N6310 X-1.2057 Y-0.623
N6315 X-1.1425 Y-0.7325
N6320 X-1.0905 Y-0.8058
N6325 X-0.9883 Y-0.6838
N6330 X-0.971 Y-0.6571
N6335 X-0.9631 Y-0.6342
N6340 X-0.9608 Y-0.6093
N6345 X-0.9646 Y-0.5854
N6350 X-0.9743 Y-0.5624
N6355 X-0.989 Y-0.5429
N6360 X-1.0085 Y-0.5272
N6365 X-1.03 Y-0.5172
N6370 X-1.0546 Y-0.5124
N6375 X-1.0871 Y-0.5141
N6380 X-1.0986 Y-0.5161
N6385 G3 X-1.0609 Y-0.7306 Z-0.2495 I0.0189 J-0.1072 F13.123
N6390 X-1.0986 Y-0.5161 Z-0.256 I-0.0189 J0.1072
N6395 G1 X-1.243 Y-0.5415 F39.37
N6400 X-1.2057 Y-0.623
N6405 X-1.1425 Y-0.7325
N6410 X-1.0905 Y-0.8058
N6415 X-0.9883 Y-0.6838
N6420 X-0.971 Y-0.6571
N6425 X-0.9631 Y-0.6342
N6430 X-0.9608 Y-0.6093
N6435 X-0.9646 Y-0.5854
N6440 X-0.9743 Y-0.5624
N6445 X-0.989 Y-0.5429
N6450 X-1.0085 Y-0.5272
N6455 X-1.03 Y-0.5172
N6460 X-1.0546 Y-0.5124
N6465 X-1.0871 Y-0.5141
N6470 X-1.0986 Y-0.5161
N6475 G3 X-1.0609 Y-0.7306 Z-0.2626 I0.0189 J-0.1072 F13.123
N6480 X-1.0986 Y-0.5161 Z-0.2691 I-0.0189 J0.1072
N6485 G1 X-1.243 Y-0.5415 F39.37
N6490 X-1.2057 Y-0.623
N6495 X-1.1425 Y-0.7325
N6500 X-1.0905 Y-0.8058
N6505 X-0.9883 Y-0.6838
N6510 X-0.971 Y-0.6571
N6515 X-0.9631 Y-0.6342
N6520 X-0.9608 Y-0.6093
N6525 X-0.9646 Y-0.5854
N6530 X-0.9743 Y-0.5624
N6535 X-0.989 Y-0.5429
N6540 X-1.0085 Y-0.5272
N6545 X-1.03 Y-0.5172
N6550 X-1.0546 Y-0.5124
N6555 X-1.0871 Y-0.5141
N6560 X-1.0986 Y-0.5161
N6565 X-1.1013 Y-0.5167 Z-0.2688
N6570 X-1.1039 Y-0.5176 Z-0.2685
N6575 X-1.1063 Y-0.5188 Z-0.2676
N6580 X-1.1085 Y-0.5202 Z-0.2667
N6585 X-1.1104 Y-0.5216 Z-0.2652
N6590 X-1.1122 Y-0.5232 Z-0.2637
N6595 X-1.1147 Y-0.5263 Z-0.2597
N6600 X-1.1163 Y-0.5288 Z-0.255
N6605 X-1.1171 Y-0.5305 Z-0.2497
N6610 X-1.1173 Y-0.531 Z-0.2441
N6615 G0 Z0.2
N6620 G1 X0.0688 Y-1.1316 F300.
N6625 G0 Z0.0512
N6630 G1 X0.0693 Y-1.1319 Z0.0458 F13.123
N6635 X0.0708 Y-1.1329 Z0.0406
N6640 X0.0731 Y-1.1345 Z0.0359
N6645 X0.0762 Y-1.1368 Z0.032
N6650 X0.0797 Y-1.1397 Z0.029
N6655 X0.0836 Y-1.143 Z0.027
N6660 X0.0875 Y-1.1468 Z0.0263
N6665 G2 X0.0799 Y-1.1398 Z0.0016 I-0.0839 J-0.0841
N6670 X-0.0892 Y-1.3049 Z-0.0117 I-0.0762 J-0.0911
N6675 X0.1094 Y-1.1768 Z-0.025 I0.0928 J0.0741
N6680 G1 X0.1111 Y-1.1802 F39.37
N6685 X0.1173 Y-1.1928
N6690 X0.1729 Y-1.3453
N6695 X0.0642 Y-1.3555
N6700 X-0.0609 Y-1.3556
N6705 X-0.1729 Y-1.3453
N6710 X-0.1625 Y-1.317
N6715 X-0.1161 Y-1.1899
N6720 X-0.0999 Y-1.1582
N6725 X-0.0807 Y-1.1362
N6730 X-0.0563 Y-1.1191
N6735 X-0.0296 Y-1.1089
N6740 X0. Y-1.1052
N6745 X0.0296 Y-1.1089
N6750 X0.0563 Y-1.1191
N6755 X0.0807 Y-1.1362
N6760 X0.0999 Y-1.1582
N6765 X0.1094 Y-1.1768
N6770 G2 X0.0744 Y-1.2814 I-0.0688 J-0.0352
N6775 X-0.0344 Y-1.2629 I-0.0414 J0.0852
N6780 X-0.0418 Y-1.2288 I0.0232 J0.0229
N6785 X0.042 Y-1.2286 I0.0419 J-0.0151
N6790 X0.0113 Y-1.2725 I-0.0307 J-0.0112
N6795 G1 X-0.0112
N6800 G2 X-0.0344 Y-1.2629 I0. J0.0326
N6805 X0.0178 Y-1.1366 Z-0.0299 I0.0527 J0.0521 F13.123
N6810 G1 X0.0429 Y-1.1364 Z-0.0306
N6815 G2 X0.1094 Y-1.1768 Z-0.0329 I0.0005 J-0.0741
N6820 G1 X0.1111 Y-1.1802 F39.37
N6825 X0.1173 Y-1.1928
N6830 X0.1729 Y-1.3453
N6835 X0.0642 Y-1.3555
N6840 X-0.0609 Y-1.3556
N6845 X-0.1729 Y-1.3453
N6850 X-0.1625 Y-1.317
N6855 X-0.1161 Y-1.1899
N6860 X-0.0999 Y-1.1582
N6865 X-0.0807 Y-1.1362
N6870 X-0.0563 Y-1.1191
N6875 X-0.0296 Y-1.1089
N6880 X0. Y-1.1052
N6885 X0.0296 Y-1.1089
N6890 X0.0563 Y-1.1191
N6895 X0.0807 Y-1.1362
N6900 X0.0999 Y-1.1582
N6905 X0.1094 Y-1.1768
N6910 G2 X0.0744 Y-1.2814 I-0.0688 J-0.0352
N6915 X-0.0344 Y-1.2629 I-0.0414 J0.0852
N6920 X-0.0418 Y-1.2288 I0.0232 J0.0229
N6925 X0.042 Y-1.2286 I0.0419 J-0.0151
N6930 X0.0113 Y-1.2725 I-0.0307 J-0.0112
N6935 G1 X-0.0112
N6940 G2 X-0.0344 Y-1.2629 I0. J0.0326
N6945 X-0.0243 Y-1.2416 I0.0089 J0.0088
N6950 G1 X0.0951 Y-1.2529
N6955 G3 X0.1088 Y-1.2397 I0.0012 J0.0124
N6960 X-0.1067 Y-1.2689 Z-0.0454 I-0.1088 J-0.0069 F13.123
N6965 X0.1024 Y-1.2093 Z-0.0579 I0.1067 J0.0223
N6970 G1 X0.099 Y-1.1999 F39.37
N6975 X0.0835 Y-1.1694
N6980 X0.0674 Y-1.1509
N6985 X0.0473 Y-1.1368
N6990 X0.0244 Y-1.128
N6995 X0. Y-1.125
N7000 X-0.0244 Y-1.128
N7005 X-0.0473 Y-1.1368
N7010 X-0.0672 Y-1.1507
N7015 X-0.0685 Y-1.1522
N7020 X-0.0835 Y-1.1694
N7025 X-0.099 Y-1.1999
N7030 X-0.1526 Y-1.3472
N7035 X-0.0609 Y-1.3556
N7040 X0.0642 Y-1.3555
N7045 X0.1526 Y-1.3472
N7050 X0.1024 Y-1.2093
N7055 G3 X0.0875 Y-1.2136 I-0.0073 J-0.0027
N7060 G1 X0.0934 Y-1.2418
N7065 G3 X0.1088 Y-1.2397 I0.0076 J0.0016
N7070 X-0.1067 Y-1.2689 Z-0.0704 I-0.1088 J-0.0069 F13.123
N7075 X0.1024 Y-1.2093 Z-0.0829 I0.1067 J0.0223
N7080 G1 X0.099 Y-1.1999 F39.37
N7085 X0.0835 Y-1.1694
N7090 X0.0674 Y-1.1509
N7095 X0.0473 Y-1.1368
N7100 X0.0244 Y-1.128
N7105 X0. Y-1.125
N7110 X-0.0244 Y-1.128
N7115 X-0.0473 Y-1.1368
N7120 X-0.0672 Y-1.1507
N7125 X-0.0685 Y-1.1522
N7130 X-0.0835 Y-1.1694
N7135 X-0.099 Y-1.1999
N7140 X-0.1526 Y-1.3472
N7145 X-0.0609 Y-1.3556
N7150 X0.0642 Y-1.3555
N7155 X0.1526 Y-1.3472
N7160 X0.1024 Y-1.2093
N7165 X0.1017 Y-1.208
N7170 X0.1005 Y-1.207
N7175 X0.0991 Y-1.2065
N7180 X0.0976 Y-1.2064
N7185 X0.0961 Y-1.2068
N7190 X0.0949 Y-1.2078
N7195 X0.094 Y-1.209
N7200 X0.0936 Y-1.2105
N7205 X0.0924 Y-1.226
N7210 Y-1.2273
N7215 X0.0929 Y-1.2285
N7220 X0.1003 Y-1.2421
N7225 X0.1012 Y-1.2433
N7230 X0.1025 Y-1.2442
N7235 X0.104 Y-1.2445
N7240 X0.1055 Y-1.2443
N7245 X0.1069 Y-1.2437
N7250 X0.1079 Y-1.2426
N7255 X0.1086 Y-1.2412
N7260 X0.1088 Y-1.2397
N7265 G3 X-0.1067 Y-1.2689 Z-0.0954 I-0.1088 J-0.0069 F13.123
N7270 X0.1024 Y-1.2093 Z-0.1079 I0.1067 J0.0223
N7275 G1 X0.099 Y-1.1999 F39.37
N7280 X0.0835 Y-1.1694
N7285 X0.0674 Y-1.1509
N7290 X0.0473 Y-1.1368
N7295 X0.0244 Y-1.128
N7300 X0. Y-1.125
N7305 X-0.0244 Y-1.128
N7310 X-0.0473 Y-1.1368
N7315 X-0.0672 Y-1.1507
N7320 X-0.0685 Y-1.1522
N7325 X-0.0835 Y-1.1694
N7330 X-0.099 Y-1.1999
N7335 X-0.1526 Y-1.3472
N7340 X-0.0609 Y-1.3556
N7345 X0.0642 Y-1.3555
N7350 X0.1526 Y-1.3472
N7355 X0.1024 Y-1.2093
N7360 X0.1017 Y-1.208
N7365 X0.1005 Y-1.207
N7370 X0.0991 Y-1.2065
N7375 X0.0976 Y-1.2064
N7380 X0.0961 Y-1.2068
N7385 X0.0949 Y-1.2078
N7390 X0.094 Y-1.209
N7395 X0.0936 Y-1.2105
N7400 X0.0924 Y-1.226
N7405 Y-1.2273
N7410 X0.0929 Y-1.2285
N7415 X0.1003 Y-1.2421
N7420 X0.1012 Y-1.2433
N7425 X0.1025 Y-1.2442
N7430 X0.104 Y-1.2445
N7435 X0.1055 Y-1.2443
N7440 X0.1069 Y-1.2437
N7445 X0.1079 Y-1.2426
N7450 X0.1086 Y-1.2412
N7455 X0.1088 Y-1.2397
N7460 G3 X-0.1067 Y-1.2689 Z-0.1204 I-0.1088 J-0.0069 F13.123
N7465 X0.1024 Y-1.2093 Z-0.1329 I0.1067 J0.0223
N7470 G1 X0.099 Y-1.1999 F39.37
N7475 X0.0835 Y-1.1694
N7480 X0.0674 Y-1.1509
N7485 X0.0473 Y-1.1368
N7490 X0.0244 Y-1.128
N7495 X0. Y-1.125
N7500 X-0.0244 Y-1.128
N7505 X-0.0473 Y-1.1368
N7510 X-0.0672 Y-1.1507
N7515 X-0.0685 Y-1.1522
N7520 X-0.0835 Y-1.1694
N7525 X-0.099 Y-1.1999
N7530 X-0.1526 Y-1.3472
N7535 X-0.0609 Y-1.3556
N7540 X0.0642 Y-1.3555
N7545 X0.1526 Y-1.3472
N7550 X0.1024 Y-1.2093
N7555 X0.1017 Y-1.208
N7560 X0.1005 Y-1.207
N7565 X0.0991 Y-1.2065
N7570 X0.0976 Y-1.2064
N7575 X0.0961 Y-1.2068
N7580 X0.0949 Y-1.2078
N7585 X0.094 Y-1.209
N7590 X0.0936 Y-1.2105
N7595 X0.0924 Y-1.226
N7600 Y-1.2273
N7605 X0.0929 Y-1.2285
N7610 X0.1003 Y-1.2421
N7615 X0.1012 Y-1.2433
N7620 X0.1025 Y-1.2442
N7625 X0.104 Y-1.2445
N7630 X0.1055 Y-1.2443
N7635 X0.1069 Y-1.2437
N7640 X0.1079 Y-1.2426
N7645 X0.1086 Y-1.2412
N7650 X0.1088 Y-1.2397
N7655 G3 X-0.1067 Y-1.2689 Z-0.1454 I-0.1088 J-0.0069 F13.123
N7660 X0.1024 Y-1.2093 Z-0.1579 I0.1067 J0.0223
N7665 G1 X0.099 Y-1.1999 F39.37
N7670 X0.0835 Y-1.1694
N7675 X0.0674 Y-1.1509
N7680 X0.0473 Y-1.1368
N7685 X0.0244 Y-1.128
N7690 X0. Y-1.125
N7695 X-0.0244 Y-1.128
N7700 X-0.0473 Y-1.1368
N7705 X-0.0672 Y-1.1507
N7710 X-0.0685 Y-1.1522
N7715 X-0.0835 Y-1.1694
N7720 X-0.099 Y-1.1999
N7725 X-0.1526 Y-1.3472
N7730 X-0.0609 Y-1.3556
N7735 X0.0642 Y-1.3555
N7740 X0.1526 Y-1.3472
N7745 X0.1024 Y-1.2093
N7750 X0.1017 Y-1.208
N7755 X0.1005 Y-1.207
N7760 X0.0991 Y-1.2065
N7765 X0.0976 Y-1.2064
N7770 X0.0961 Y-1.2068
N7775 X0.0949 Y-1.2078
N7780 X0.094 Y-1.209
N7785 X0.0936 Y-1.2105
N7790 X0.0924 Y-1.226
N7795 Y-1.2273
N7800 X0.0929 Y-1.2285
N7805 X0.1003 Y-1.2421
N7810 X0.1012 Y-1.2433
N7815 X0.1025 Y-1.2442
N7820 X0.104 Y-1.2445
N7825 X0.1055 Y-1.2443
N7830 X0.1069 Y-1.2437
N7835 X0.1079 Y-1.2426
N7840 X0.1086 Y-1.2412
N7845 X0.1088 Y-1.2397
N7850 G3 X-0.1067 Y-1.2689 Z-0.1704 I-0.1088 J-0.0069 F13.123
N7855 X0.1024 Y-1.2093 Z-0.1829 I0.1067 J0.0223
N7860 G1 X0.099 Y-1.1999 F39.37
N7865 X0.0835 Y-1.1694
N7870 X0.0674 Y-1.1509
N7875 X0.0473 Y-1.1368
N7880 X0.0244 Y-1.128
N7885 X0. Y-1.125
N7890 X-0.0244 Y-1.128
N7895 X-0.0473 Y-1.1368
N7900 X-0.0672 Y-1.1507
N7905 X-0.0685 Y-1.1522
N7910 X-0.0835 Y-1.1694
N7915 X-0.099 Y-1.1999
N7920 X-0.1526 Y-1.3472
N7925 X-0.0609 Y-1.3556
N7930 X0.0642 Y-1.3555
N7935 X0.1526 Y-1.3472
N7940 X0.1024 Y-1.2093
N7945 G3 X-0.1024 Y-1.2839 Z-0.1879 I-0.1024 J-0.0373 F13.123
N7950 X0.1024 Y-1.2093 Z-0.1929 I0.1024 J0.0373
N7955 G1 X0.099 Y-1.1999 F39.37
N7960 X0.0835 Y-1.1694
N7965 X0.0674 Y-1.1509
N7970 X0.0473 Y-1.1368
N7975 X0.0244 Y-1.128
N7980 X0. Y-1.125
N7985 X-0.0244 Y-1.128
N7990 X-0.0473 Y-1.1368
N7995 X-0.0672 Y-1.1507
N8000 X-0.0685 Y-1.1522
N8005 X-0.0835 Y-1.1694
N8010 X-0.099 Y-1.1999
N8015 X-0.1526 Y-1.3472
N8020 X-0.0609 Y-1.3556
N8025 X0.0642 Y-1.3555
N8030 X0.1526 Y-1.3472
N8035 X0.1024 Y-1.2093
N8040 G3 X0.0875 Y-1.2136 I-0.0073 J-0.0027
N8045 G1 X0.0934 Y-1.2418
N8050 G3 X0.1088 Y-1.2397 I0.0076 J0.0016
N8055 X-0.1067 Y-1.2689 Z-0.2054 I-0.1088 J-0.0069 F13.123
N8060 X0.1024 Y-1.2093 Z-0.2179 I0.1067 J0.0223
N8065 G1 X0.099 Y-1.1999 F39.37
N8070 X0.0835 Y-1.1694
N8075 X0.0674 Y-1.1509
N8080 X0.0473 Y-1.1368
N8085 X0.0244 Y-1.128
N8090 X0. Y-1.125
N8095 X-0.0244 Y-1.128
N8100 X-0.0473 Y-1.1368
N8105 X-0.0672 Y-1.1507
N8110 X-0.0685 Y-1.1522
N8115 X-0.0835 Y-1.1694
N8120 X-0.099 Y-1.1999
N8125 X-0.1526 Y-1.3472
N8130 X-0.0609 Y-1.3556
N8135 X0.0642 Y-1.3555
N8140 X0.1526 Y-1.3472
N8145 X0.1024 Y-1.2093
N8150 X0.1017 Y-1.208
N8155 X0.1005 Y-1.207
N8160 X0.0991 Y-1.2065
N8165 X0.0976 Y-1.2064
N8170 X0.0961 Y-1.2068
N8175 X0.0949 Y-1.2078
N8180 X0.094 Y-1.209
N8185 X0.0936 Y-1.2105
N8190 X0.0924 Y-1.226
N8195 Y-1.2273
N8200 X0.0929 Y-1.2285
N8205 X0.1003 Y-1.2421
N8210 X0.1012 Y-1.2433
N8215 X0.1025 Y-1.2442
N8220 X0.104 Y-1.2445
N8225 X0.1055 Y-1.2443
N8230 X0.1069 Y-1.2437
N8235 X0.1079 Y-1.2426
N8240 X0.1086 Y-1.2412
N8245 X0.1088 Y-1.2397
N8250 G3 X-0.1067 Y-1.2689 Z-0.2304 I-0.1088 J-0.0069 F13.123
N8255 X0.1024 Y-1.2093 Z-0.2429 I0.1067 J0.0223
N8260 G1 X0.099 Y-1.1999 F39.37
N8265 X0.0835 Y-1.1694
N8270 X0.0674 Y-1.1509
N8275 X0.0473 Y-1.1368
N8280 X0.0244 Y-1.128
N8285 X0. Y-1.125
N8290 X-0.0244 Y-1.128
N8295 X-0.0473 Y-1.1368
N8300 X-0.0672 Y-1.1507
N8305 X-0.0685 Y-1.1522
N8310 X-0.0835 Y-1.1694
N8315 X-0.099 Y-1.1999
N8320 X-0.1526 Y-1.3472
N8325 X-0.0609 Y-1.3556
N8330 X0.0642 Y-1.3555
N8335 X0.1526 Y-1.3472
N8340 X0.1024 Y-1.2093
N8345 G3 X-0.1024 Y-1.2839 Z-0.2495 I-0.1024 J-0.0373 F13.123
N8350 X0.1024 Y-1.2093 Z-0.256 I0.1024 J0.0373
N8355 G1 X0.099 Y-1.1999 F39.37
N8360 X0.0835 Y-1.1694
N8365 X0.0674 Y-1.1509
N8370 X0.0473 Y-1.1368
N8375 X0.0244 Y-1.128
N8380 X0. Y-1.125
N8385 X-0.0244 Y-1.128
N8390 X-0.0473 Y-1.1368
N8395 X-0.0672 Y-1.1507
N8400 X-0.0685 Y-1.1522
N8405 X-0.0835 Y-1.1694
N8410 X-0.099 Y-1.1999
N8415 X-0.1526 Y-1.3472
N8420 X-0.0609 Y-1.3556
N8425 X0.0642 Y-1.3555
N8430 X0.1526 Y-1.3472
N8435 X0.1024 Y-1.2093
N8440 G3 X-0.1024 Y-1.2839 Z-0.2626 I-0.1024 J-0.0373 F13.123
N8445 X0.1024 Y-1.2093 Z-0.2691 I0.1024 J0.0373
N8450 G1 X0.099 Y-1.1999 F39.37
N8455 X0.0835 Y-1.1694
N8460 X0.0674 Y-1.1509
N8465 X0.0473 Y-1.1368
N8470 X0.0244 Y-1.128
N8475 X0. Y-1.125
N8480 X-0.0244 Y-1.128
N8485 X-0.0473 Y-1.1368
N8490 X-0.0672 Y-1.1507
N8495 X-0.0685 Y-1.1522
N8500 X-0.0835 Y-1.1694
N8505 X-0.099 Y-1.1999
N8510 X-0.1526 Y-1.3472
N8515 X-0.0609 Y-1.3556
N8520 X0.0642 Y-1.3555
N8525 X0.1526 Y-1.3472
N8530 X0.1024 Y-1.2093
N8535 X0.1013 Y-1.2068 Z-0.2688
N8540 X0.0999 Y-1.2044 Z-0.2685
N8545 X0.0984 Y-1.2022 Z-0.2676
N8550 X0.0966 Y-1.2002 Z-0.2667
N8555 X0.0949 Y-1.1987 Z-0.2652
N8560 X0.093 Y-1.1972 Z-0.2637
N8565 X0.0896 Y-1.1953 Z-0.2597
N8570 X0.0868 Y-1.1942 Z-0.255
N8575 X0.085 Y-1.1936 Z-0.2497
N8580 X0.0844 Y-1.1935 Z-0.2441
N8585 G0 Z0.2
N8590 G1 X1.0146 Y-0.5061 F300.
N8595 G0 Z0.0512
N8600 G1 X1.0151 Y-0.5059 Z0.0458 F13.123
N8605 X1.0167 Y-0.5051 Z0.0406
N8610 X1.0193 Y-0.5039 Z0.0359
N8615 X1.0228 Y-0.5024 Z0.032
N8620 X1.0271 Y-0.5007 Z0.029
N8625 X1.0319 Y-0.4991 Z0.027
N8630 X1.0371 Y-0.4976 Z0.0263
N8635 G2 X1.0273 Y-0.5007 Z0.0016 I0.0307 J-0.1147
N8640 X1.0853 Y-0.7297 Z-0.0117 I0.0406 J-0.1116
N8645 X1.0741 Y-0.4937 Z-0.025 I-0.0175 J0.1175
N8650 G1 X1.0904 Y-0.4946 F39.37
N8655 X1.2515 Y-0.523
N8660 X1.2057 Y-0.623
N8665 X1.1425 Y-0.7325
N8670 X1.0787 Y-0.8224
N8675 X0.9736 Y-0.6972
N8680 X0.9531 Y-0.6657
N8685 X0.9474 Y-0.649
N8690 X0.9436 Y-0.6378
N8695 X0.9411 Y-0.6083
N8700 X0.9456 Y-0.5796
N8705 X0.9571 Y-0.5526
N8710 X0.9748 Y-0.5291
N8715 X0.9976 Y-0.5106
N8720 X1.0243 Y-0.4982
N8725 X1.053 Y-0.4926
N8730 X1.0741 Y-0.4937
N8735 G2 X1.1469 Y-0.5764 I-0.0041 J-0.077
N8740 X1.0766 Y-0.6613 I-0.095 J0.0071
N8745 X1.0431 Y-0.6508 I-0.0085 J0.0315
N8750 X1.0851 Y-0.578 I0.0342 J0.0288
N8755 X1.1077 Y-0.6265 I-0.0057 J-0.0322
N8760 G1 X1.0964 Y-0.6461
N8765 G2 X1.0766 Y-0.6613 I-0.0283 J0.0163
N8770 X0.9933 Y-0.5521 Z-0.0299 I-0.0192 J0.0717 F13.123
N8775 G1 X1.0062 Y-0.5303 Z-0.0306
N8780 G2 X1.0741 Y-0.4937 Z-0.0329 I0.064 J-0.0375
N8785 G1 X1.0904 Y-0.4946 F39.37
N8790 X1.2515 Y-0.523
N8795 X1.2057 Y-0.623
N8800 X1.1425 Y-0.7325
N8805 X1.0787 Y-0.8224
N8810 X0.9736 Y-0.6972
N8815 X0.9531 Y-0.6657
N8820 X0.9474 Y-0.649
N8825 X0.9436 Y-0.6378
N8830 X0.9411 Y-0.6083
N8835 X0.9456 Y-0.5796
N8840 X0.9571 Y-0.5526
N8845 X0.9748 Y-0.5291
N8850 X0.9976 Y-0.5106
N8855 X1.0243 Y-0.4982
N8860 X1.053 Y-0.4926
N8865 X1.0741 Y-0.4937
N8870 G2 X1.1469 Y-0.5764 I-0.0041 J-0.077
N8875 X1.0766 Y-0.6613 I-0.095 J0.0071
N8880 X1.0431 Y-0.6508 I-0.0085 J0.0315
N8885 X1.0851 Y-0.578 I0.0342 J0.0288
N8890 X1.1077 Y-0.6265 I-0.0057 J-0.0322
N8895 G1 X1.0964 Y-0.6461
N8900 G2 X1.0766 Y-0.6613 I-0.0283 J0.0163
N8905 X1.0632 Y-0.642 I-0.0032 J0.0121
N8910 G1 X1.1327 Y-0.5443
N8915 G3 X1.1281 Y-0.5258 I-0.0102 J0.0072
N8920 X1.0456 Y-0.7269 Z-0.0454 I-0.0485 J-0.0976 F13.123
N8925 X1.0985 Y-0.5161 Z-0.0579 I0.034 J0.1035
N8930 G1 X1.0871 Y-0.5141 F39.37
N8935 X1.0546 Y-0.5124
N8940 X1.03 Y-0.5172
N8945 X1.0085 Y-0.5272
N8950 X0.989 Y-0.543
N8955 X0.9743 Y-0.5625
N8960 X0.9646 Y-0.5853
N8965 X0.9608 Y-0.6093
N8970 X0.9631 Y-0.6342
N8975 X0.9709 Y-0.657
N8980 X0.9896 Y-0.6856
N8985 X1.0905 Y-0.8058
N8990 X1.1425 Y-0.7325
N8995 X1.2057 Y-0.623
N9000 X1.243 Y-0.5415
N9005 X1.0985 Y-0.5161
N9010 X1.097
N9015 X1.0955 Y-0.5166
N9020 X1.0943 Y-0.5175
N9025 X1.0935 Y-0.5188
N9030 X1.0932 Y-0.5203
N9035 X1.0934 Y-0.5218
N9040 X1.094 Y-0.5232
N9045 X1.0951 Y-0.5243
N9050 X1.1079 Y-0.5332
N9055 X1.1091 Y-0.5338
N9060 X1.1104 Y-0.534
N9065 X1.126 Y-0.5344
N9070 X1.1275 Y-0.5342
N9075 X1.1288 Y-0.5335
N9080 X1.1299 Y-0.5324
N9085 X1.1305 Y-0.531
N9090 X1.1306 Y-0.5295
N9095 X1.1302 Y-0.528
N9100 X1.1294 Y-0.5267
N9105 X1.1281 Y-0.5258
N9110 G3 X1.0456 Y-0.7269 Z-0.0704 I-0.0485 J-0.0976 F13.123
N9115 X1.0985 Y-0.5161 Z-0.0829 I0.034 J0.1035
N9120 G1 X1.0871 Y-0.5141 F39.37
N9125 X1.0546 Y-0.5124
N9130 X1.03 Y-0.5172
N9135 X1.0085 Y-0.5272
N9140 X0.989 Y-0.543
N9145 X0.9743 Y-0.5625
N9150 X0.9646 Y-0.5853
N9155 X0.9608 Y-0.6093
N9160 X0.9631 Y-0.6342
N9165 X0.9709 Y-0.657
N9170 X0.9896 Y-0.6856
N9175 X1.0905 Y-0.8058
N9180 X1.1425 Y-0.7325
N9185 X1.2057 Y-0.623
N9190 X1.243 Y-0.5415
N9195 X1.0985 Y-0.5161
N9200 X1.097
N9205 X1.0955 Y-0.5166
N9210 X1.0943 Y-0.5175
N9215 X1.0935 Y-0.5188
N9220 X1.0932 Y-0.5203
N9225 X1.0934 Y-0.5218
N9230 X1.094 Y-0.5232
N9235 X1.0951 Y-0.5243
N9240 X1.1079 Y-0.5332
N9245 X1.1091 Y-0.5338
N9250 X1.1104 Y-0.534
N9255 X1.126 Y-0.5344
N9260 X1.1275 Y-0.5342
N9265 X1.1288 Y-0.5335
N9270 X1.1299 Y-0.5324
N9275 X1.1305 Y-0.531
N9280 X1.1306 Y-0.5295
N9285 X1.1302 Y-0.528
N9290 X1.1294 Y-0.5267
N9295 X1.1281 Y-0.5258
N9300 G3 X1.0456 Y-0.7269 Z-0.0954 I-0.0485 J-0.0976 F13.123
N9305 X1.0985 Y-0.5161 Z-0.1079 I0.034 J0.1035
N9310 G1 X1.0871 Y-0.5141 F39.37
N9315 X1.0546 Y-0.5124
N9320 X1.03 Y-0.5172
N9325 X1.0085 Y-0.5272
N9330 X0.989 Y-0.543
N9335 X0.9743 Y-0.5625
N9340 X0.9646 Y-0.5853
N9345 X0.9608 Y-0.6093
N9350 X0.9631 Y-0.6342
N9355 X0.9709 Y-0.657
N9360 X0.9896 Y-0.6856
N9365 X1.0905 Y-0.8058
N9370 X1.1425 Y-0.7325
N9375 X1.2057 Y-0.623
N9380 X1.243 Y-0.5415
N9385 X1.0985 Y-0.5161
N9390 X1.097
N9395 X1.0955 Y-0.5166
N9400 X1.0943 Y-0.5175
N9405 X1.0935 Y-0.5188
N9410 X1.0932 Y-0.5203
N9415 X1.0934 Y-0.5218
N9420 X1.094 Y-0.5232
N9425 X1.0951 Y-0.5243
N9430 X1.1079 Y-0.5332
N9435 X1.1091 Y-0.5338
N9440 X1.1104 Y-0.534
N9445 X1.126 Y-0.5344
N9450 X1.1275 Y-0.5342
N9455 X1.1288 Y-0.5335
N9460 X1.1299 Y-0.5324
N9465 X1.1305 Y-0.531
N9470 X1.1306 Y-0.5295
N9475 X1.1302 Y-0.528
N9480 X1.1294 Y-0.5267
N9485 X1.1281 Y-0.5258
N9490 G3 X1.0456 Y-0.7269 Z-0.1204 I-0.0485 J-0.0976 F13.123
N9495 X1.0985 Y-0.5161 Z-0.1329 I0.034 J0.1035
N9500 G1 X1.0871 Y-0.5141 F39.37
N9505 X1.0546 Y-0.5124
N9510 X1.03 Y-0.5172
N9515 X1.0085 Y-0.5272
N9520 X0.989 Y-0.543
N9525 X0.9743 Y-0.5625
N9530 X0.9646 Y-0.5853
N9535 X0.9608 Y-0.6093
N9540 X0.9631 Y-0.6342
N9545 X0.9709 Y-0.657
N9550 X0.9896 Y-0.6856
N9555 X1.0905 Y-0.8058
N9560 X1.1425 Y-0.7325
N9565 X1.2057 Y-0.623
N9570 X1.243 Y-0.5415
N9575 X1.0985 Y-0.5161
N9580 X1.097
N9585 X1.0955 Y-0.5166
N9590 X1.0943 Y-0.5175
N9595 X1.0935 Y-0.5188
N9600 X1.0932 Y-0.5203
N9605 X1.0934 Y-0.5218
N9610 X1.094 Y-0.5232
N9615 X1.0951 Y-0.5243
N9620 X1.1079 Y-0.5332
N9625 X1.1091 Y-0.5338
N9630 X1.1104 Y-0.534
N9635 X1.126 Y-0.5344
N9640 X1.1275 Y-0.5342
N9645 X1.1288 Y-0.5335
N9650 X1.1299 Y-0.5324
N9655 X1.1305 Y-0.531
N9660 X1.1306 Y-0.5295
N9665 X1.1302 Y-0.528
N9670 X1.1294 Y-0.5267
N9675 X1.1281 Y-0.5258
N9680 G3 X1.0456 Y-0.7269 Z-0.1454 I-0.0485 J-0.0976 F13.123
N9685 X1.0985 Y-0.5161 Z-0.1579 I0.034 J0.1035
N9690 G1 X1.0871 Y-0.5141 F39.37
N9695 X1.0546 Y-0.5124
N9700 X1.03 Y-0.5172
N9705 X1.0085 Y-0.5272
N9710 X0.989 Y-0.543
N9715 X0.9743 Y-0.5625
N9720 X0.9646 Y-0.5853
N9725 X0.9608 Y-0.6093
N9730 X0.9631 Y-0.6342
N9735 X0.9709 Y-0.657
N9740 X0.9896 Y-0.6856
N9745 X1.0905 Y-0.8058
N9750 X1.1425 Y-0.7325
N9755 X1.2057 Y-0.623
N9760 X1.243 Y-0.5415
N9765 X1.0985 Y-0.5161
N9770 X1.097
N9775 X1.0955 Y-0.5166
N9780 X1.0943 Y-0.5175
N9785 X1.0935 Y-0.5188
N9790 X1.0932 Y-0.5203
N9795 X1.0934 Y-0.5218
N9800 X1.094 Y-0.5232
N9805 X1.0951 Y-0.5243
N9810 X1.1079 Y-0.5332
N9815 X1.1091 Y-0.5338
N9820 X1.1104 Y-0.534
N9825 X1.126 Y-0.5344
N9830 X1.1275 Y-0.5342
N9835 X1.1288 Y-0.5335
N9840 X1.1299 Y-0.5324
N9845 X1.1305 Y-0.531
N9850 X1.1306 Y-0.5295
N9855 X1.1302 Y-0.528
N9860 X1.1294 Y-0.5267
N9865 X1.1281 Y-0.5258
N9870 G3 X1.0456 Y-0.7269 Z-0.1704 I-0.0485 J-0.0976 F13.123
N9875 X1.0985 Y-0.5161 Z-0.1829 I0.034 J0.1035
N9880 G1 X1.0871 Y-0.5141 F39.37
N9885 X1.0546 Y-0.5124
N9890 X1.03 Y-0.5172
N9895 X1.0085 Y-0.5272
N9900 X0.989 Y-0.543
N9905 X0.9743 Y-0.5625
N9910 X0.9646 Y-0.5853
N9915 X0.9608 Y-0.6093
N9920 X0.9631 Y-0.6342
N9925 X0.9709 Y-0.657
N9930 X0.9896 Y-0.6856
N9935 X1.0905 Y-0.8058
N9940 X1.1425 Y-0.7325
N9945 X1.2057 Y-0.623
N9950 X1.243 Y-0.5415
N9955 X1.0985 Y-0.5161
N9960 G3 X1.0607 Y-0.7307 Z-0.1879 I-0.0189 J-0.1073 F13.123
N9965 X1.0985 Y-0.5161 Z-0.1929 I0.0189 J0.1073
N9970 G1 X1.0871 Y-0.5141 F39.37
N9975 X1.0546 Y-0.5124
N9980 X1.03 Y-0.5172
N9985 X1.0085 Y-0.5272
N9990 X0.989 Y-0.543
N9995 X0.9743 Y-0.5625
N10000 X0.9646 Y-0.5853
N10005 X0.9608 Y-0.6093
N10010 X0.9631 Y-0.6342
N10015 X0.9709 Y-0.657
N10020 X0.9896 Y-0.6856
N10025 X1.0905 Y-0.8058
N10030 X1.1425 Y-0.7325
N10035 X1.2057 Y-0.623
N10040 X1.243 Y-0.5415
N10045 X1.0985 Y-0.5161
N10050 X1.097
N10055 X1.0955 Y-0.5166
N10060 X1.0943 Y-0.5175
N10065 X1.0935 Y-0.5188
N10070 X1.0932 Y-0.5203
N10075 X1.0934 Y-0.5218
N10080 X1.094 Y-0.5232
N10085 X1.0951 Y-0.5243
N10090 X1.1079 Y-0.5332
N10095 X1.1091 Y-0.5338
N10100 X1.1104 Y-0.534
N10105 X1.126 Y-0.5344
N10110 X1.1275 Y-0.5342
N10115 X1.1288 Y-0.5335
N10120 X1.1299 Y-0.5324
N10125 X1.1305 Y-0.531
N10130 X1.1306 Y-0.5295
N10135 X1.1302 Y-0.528
N10140 X1.1294 Y-0.5267
N10145 X1.1281 Y-0.5258
N10150 G3 X1.0456 Y-0.7269 Z-0.2054 I-0.0485 J-0.0976 F13.123
N10155 X1.0985 Y-0.5161 Z-0.2179 I0.034 J0.1035
N10160 G1 X1.0871 Y-0.5141 F39.37
N10165 X1.0546 Y-0.5124
N10170 X1.03 Y-0.5172
N10175 X1.0085 Y-0.5272
N10180 X0.989 Y-0.543
N10185 X0.9743 Y-0.5625
N10190 X0.9646 Y-0.5853
N10195 X0.9608 Y-0.6093
N10200 X0.9631 Y-0.6342
N10205 X0.9709 Y-0.657
N10210 X0.9896 Y-0.6856
N10215 X1.0905 Y-0.8058
N10220 X1.1425 Y-0.7325
N10225 X1.2057 Y-0.623
N10230 X1.243 Y-0.5415
N10235 X1.0985 Y-0.5161
N10240 X1.097
N10245 X1.0955 Y-0.5166
N10250 X1.0943 Y-0.5175
N10255 X1.0935 Y-0.5188
N10260 X1.0932 Y-0.5203
N10265 X1.0934 Y-0.5218
N10270 X1.094 Y-0.5232
N10275 X1.0951 Y-0.5243
N10280 X1.1079 Y-0.5332
N10285 X1.1091 Y-0.5338
N10290 X1.1104 Y-0.534
N10295 X1.126 Y-0.5344
N10300 X1.1275 Y-0.5342
N10305 X1.1288 Y-0.5335
N10310 X1.1299 Y-0.5324
N10315 X1.1305 Y-0.531
N10320 X1.1306 Y-0.5295
N10325 X1.1302 Y-0.528
N10330 X1.1294 Y-0.5267
N10335 X1.1281 Y-0.5258
N10340 G3 X1.0456 Y-0.7269 Z-0.2304 I-0.0485 J-0.0976 F13.123
N10345 X1.0985 Y-0.5161 Z-0.2429 I0.034 J0.1035
N10350 G1 X1.0871 Y-0.5141 F39.37
N10355 X1.0546 Y-0.5124
N10360 X1.03 Y-0.5172
N10365 X1.0085 Y-0.5272
N10370 X0.989 Y-0.543
N10375 X0.9743 Y-0.5625
N10380 X0.9646 Y-0.5853
N10385 X0.9608 Y-0.6093
N10390 X0.9631 Y-0.6342
N10395 X0.9709 Y-0.657
N10400 X0.9896 Y-0.6856
N10405 X1.0905 Y-0.8058
N10410 X1.1425 Y-0.7325
N10415 X1.2057 Y-0.623
N10420 X1.243 Y-0.5415
N10425 X1.0985 Y-0.5161
N10430 G3 X1.0607 Y-0.7307 Z-0.2495 I-0.0189 J-0.1073 F13.123
N10435 X1.0985 Y-0.5161 Z-0.256 I0.0189 J0.1073
N10440 G1 X1.0871 Y-0.5141 F39.37
N10445 X1.0546 Y-0.5124
N10450 X1.03 Y-0.5172
N10455 X1.0085 Y-0.5272
N10460 X0.989 Y-0.543
N10465 X0.9743 Y-0.5625
N10470 X0.9646 Y-0.5853
N10475 X0.9608 Y-0.6093
N10480 X0.9631 Y-0.6342
N10485 X0.9709 Y-0.657
N10490 X0.9896 Y-0.6856
N10495 X1.0905 Y-0.8058
N10500 X1.1425 Y-0.7325
N10505 X1.2057 Y-0.623
N10510 X1.243 Y-0.5415
N10515 X1.0985 Y-0.5161
N10520 G3 X1.0607 Y-0.7307 Z-0.2626 I-0.0189 J-0.1073 F13.123
N10525 X1.0985 Y-0.5161 Z-0.2691 I0.0189 J0.1073
N10530 G1 X1.0871 Y-0.5141 F39.37
N10535 X1.0546 Y-0.5124
N10540 X1.03 Y-0.5172
N10545 X1.0085 Y-0.5272
N10550 X0.989 Y-0.543
N10555 X0.9743 Y-0.5625
N10560 X0.9646 Y-0.5853
N10565 X0.9608 Y-0.6093
N10570 X0.9631 Y-0.6342
N10575 X0.9709 Y-0.657
N10580 X0.9896 Y-0.6856
N10585 X1.0905 Y-0.8058
N10590 X1.1425 Y-0.7325
N10595 X1.2057 Y-0.623
N10600 X1.243 Y-0.5415
N10605 X1.0985 Y-0.5161
N10610 X1.0957 Y-0.5157 Z-0.2688
N10615 X1.093 Z-0.2685
N10620 X1.0903 Y-0.516 Z-0.2676
N10625 X1.0877 Y-0.5165 Z-0.2667
N10630 X1.0855 Y-0.5172 Z-0.2652
N10635 X1.0833 Y-0.5182 Z-0.2637
N10640 X1.0799 Y-0.5202 Z-0.2597
N10645 X1.0776 Y-0.522 Z-0.255
N10650 X1.0762 Y-0.5233 Z-0.2497
N10655 X1.0758 Y-0.5237 Z-0.2441
N10660 G0 Z0.2
N10665 G1 X1.1312 Y0.7209 F300.
N10670 G0 Z0.0512
N10675 G1 X1.1317 Y0.7206 Z0.0458 F13.123
N10680 X1.1332 Y0.7197 Z0.0406
N10685 X1.1356 Y0.7182 Z0.0359
N10690 X1.1388 Y0.7161 Z0.032
N10695 X1.1425 Y0.7134 Z0.029
N10700 X1.1465 Y0.7102 Z0.027
N10705 X1.1506 Y0.7067 Z0.0263
N10710 G2 X1.1427 Y0.7133 Z0.0016 I-0.0795 J-0.0882
N10715 X0.9822 Y0.5398 Z-0.0117 I-0.0715 J-0.0948
N10720 X1.174 Y0.6778 Z-0.025 I0.089 J0.0787
N10725 G1 X1.2057 Y0.623 F39.37
N10730 X1.2515 Y0.523
N10735 X1.0904 Y0.4946
N10740 X1.053 Y0.4926
N10745 X1.0243 Y0.4982
N10750 X0.9976 Y0.5106
N10755 X0.9748 Y0.5291
N10760 X0.9571 Y0.5526
N10765 X0.9456 Y0.5796
N10770 X0.9411 Y0.6083
N10775 X0.9436 Y0.6377
N10780 X0.9532 Y0.6658
N10785 X0.9736 Y0.6972
N10790 X1.0787 Y0.8224
N10795 X1.1425 Y0.7325
N10800 X1.174 Y0.6778
N10805 G2 X1.1464 Y0.5734 I-0.0664 J-0.0383
N10810 X1.0408 Y0.5962 I-0.0403 J0.0689
N10815 X1.0431 Y0.6508 I0.0365 J0.0258
N10820 X1.0964 Y0.6461 I0.025 J-0.021
N10825 G1 X1.1077 Y0.6265
N10830 G2 X1.0851 Y0.578 I-0.0283 J-0.0163
N10835 X1.0408 Y0.5962 I-0.0077 J0.0441
N10840 X1.0634 Y0.6877 Z-0.0286 I0.051 J0.036 F13.123
N10845 G1 X1.0916 Y0.7022 Z-0.0297
N10850 G2 X1.174 Y0.6778 Z-0.0329 I0.0284 J-0.0555
N10855 G1 X1.2057 Y0.623 F39.37
N10860 X1.2515 Y0.523
N10865 X1.0904 Y0.4946
N10870 X1.053 Y0.4926
N10875 X1.0243 Y0.4982
N10880 X0.9976 Y0.5106
N10885 X0.9748 Y0.5291
N10890 X0.9571 Y0.5526
N10895 X0.9456 Y0.5796
N10900 X0.9411 Y0.6083
N10905 X0.9436 Y0.6377
N10910 X0.9532 Y0.6658
N10915 X0.9736 Y0.6972
N10920 X1.0787 Y0.8224
N10925 X1.1425 Y0.7325
N10930 X1.174 Y0.6778
N10935 G2 X1.1464 Y0.5734 I-0.0664 J-0.0383
N10940 X1.0408 Y0.5962 I-0.0403 J0.0689
N10945 X1.0431 Y0.6508 I0.0365 J0.0258
N10950 X1.0964 Y0.6461 I0.025 J-0.021
N10955 G1 X1.1077 Y0.6265
N10960 G2 X1.0851 Y0.578 I-0.0283 J-0.0163
N10965 X1.0408 Y0.5962 I-0.0077 J0.0441
N10970 X1.0493 Y0.6158 I0.0102 J0.0072
N10975 G1 X1.1752 Y0.6331
N10980 G3 X1.1857 Y0.6484 I-0.0017 J0.0124
N10985 X0.9785 Y0.5832 Z-0.0454 I-0.106 J-0.025 F13.123
N10990 X1.174 Y0.6778 Z-0.0579 I0.1012 J0.0402
N10995 G1 X1.1425 Y0.7325 F39.37
N11000 X1.0905 Y0.8058
N11005 X0.9883 Y0.6838
N11010 X0.971 Y0.6571
N11015 X0.9631 Y0.6342
N11020 X0.9608 Y0.6093
N11025 X0.9646 Y0.5853
N11030 X0.9726 Y0.5664
N11035 X0.9743 Y0.5625
N11040 X0.989 Y0.5429
N11045 X1.0085 Y0.5272
N11050 X1.03 Y0.5172
N11055 X1.0546 Y0.5124
N11060 X1.0871 Y0.5141
N11065 X1.243 Y0.5415
N11070 X1.2057 Y0.623
N11075 X1.174 Y0.6778
N11080 X1.1731 Y0.6789
N11085 X1.1717 Y0.6797
N11090 X1.1702 Y0.6801
N11095 X1.1687 Y0.6798
N11100 X1.1673 Y0.6791
N11105 X1.1662 Y0.678
N11110 X1.1656 Y0.6766
N11115 X1.1655 Y0.6751
N11120 X1.1669 Y0.6593
N11125 X1.1672 Y0.658
N11130 X1.1678 Y0.6569
N11135 X1.1776 Y0.6445
N11140 X1.1788 Y0.6434
N11145 X1.1802 Y0.6428
N11150 X1.1817 Y0.6427
N11155 X1.1832 Y0.6432
N11160 X1.1845 Y0.6441
N11165 X1.1854 Y0.6453
N11170 X1.1858 Y0.6468
N11175 X1.1857 Y0.6484
N11180 G3 X0.9785 Y0.5832 Z-0.0704 I-0.106 J-0.025 F13.123
N11185 X1.174 Y0.6778 Z-0.0829 I0.1012 J0.0402
N11190 G1 X1.1425 Y0.7325 F39.37
N11195 X1.0905 Y0.8058
N11200 X0.9883 Y0.6838
N11205 X0.971 Y0.6571
N11210 X0.9631 Y0.6342
N11215 X0.9608 Y0.6093
N11220 X0.9646 Y0.5853
N11225 X0.9726 Y0.5664
N11230 X0.9743 Y0.5625
N11235 X0.989 Y0.5429
N11240 X1.0085 Y0.5272
N11245 X1.03 Y0.5172
N11250 X1.0546 Y0.5124
N11255 X1.0871 Y0.5141
N11260 X1.243 Y0.5415
N11265 X1.2057 Y0.623
N11270 X1.174 Y0.6778
N11275 X1.1731 Y0.6789
N11280 X1.1717 Y0.6797
N11285 X1.1702 Y0.6801
N11290 X1.1687 Y0.6798
N11295 X1.1673 Y0.6791
N11300 X1.1662 Y0.678
N11305 X1.1656 Y0.6766
N11310 X1.1655 Y0.6751
N11315 X1.1669 Y0.6593
N11320 X1.1672 Y0.658
N11325 X1.1678 Y0.6569
N11330 X1.1776 Y0.6445
N11335 X1.1788 Y0.6434
N11340 X1.1802 Y0.6428
N11345 X1.1817 Y0.6427
N11350 X1.1832 Y0.6432
N11355 X1.1845 Y0.6441
N11360 X1.1854 Y0.6453
N11365 X1.1858 Y0.6468
N11370 X1.1857 Y0.6484
N11375 G3 X0.9785 Y0.5832 Z-0.0954 I-0.106 J-0.025 F13.123
N11380 X1.174 Y0.6778 Z-0.1079 I0.1012 J0.0402
N11385 G1 X1.1425 Y0.7325 F39.37
N11390 X1.0905 Y0.8058
N11395 X0.9883 Y0.6838
N11400 X0.971 Y0.6571
N11405 X0.9631 Y0.6342
N11410 X0.9608 Y0.6093
N11415 X0.9646 Y0.5853
N11420 X0.9726 Y0.5664
N11425 X0.9743 Y0.5625
N11430 X0.989 Y0.5429
N11435 X1.0085 Y0.5272
N11440 X1.03 Y0.5172
N11445 X1.0546 Y0.5124
N11450 X1.0871 Y0.5141
N11455 X1.243 Y0.5415
N11460 X1.2057 Y0.623
N11465 X1.174 Y0.6778
N11470 X1.1731 Y0.6789
N11475 X1.1717 Y0.6797
N11480 X1.1702 Y0.6801
N11485 X1.1687 Y0.6798
N11490 X1.1673 Y0.6791
N11495 X1.1662 Y0.678
N11500 X1.1656 Y0.6766
N11505 X1.1655 Y0.6751
N11510 X1.1669 Y0.6593
N11515 X1.1672 Y0.658
N11520 X1.1678 Y0.6569
N11525 X1.1776 Y0.6445
N11530 X1.1788 Y0.6434
N11535 X1.1802 Y0.6428
N11540 X1.1817 Y0.6427
N11545 X1.1832 Y0.6432
N11550 X1.1845 Y0.6441
N11555 X1.1854 Y0.6453
N11560 X1.1858 Y0.6468
N11565 X1.1857 Y0.6484
N11570 G3 X0.9785 Y0.5832 Z-0.1204 I-0.106 J-0.025 F13.123
N11575 X1.174 Y0.6778 Z-0.1329 I0.1012 J0.0402
N11580 G1 X1.1425 Y0.7325 F39.37
N11585 X1.0905 Y0.8058
N11590 X0.9883 Y0.6838
N11595 X0.971 Y0.6571
N11600 X0.9631 Y0.6342
N11605 X0.9608 Y0.6093
N11610 X0.9646 Y0.5853
N11615 X0.9726 Y0.5664
N11620 X0.9743 Y0.5625
N11625 X0.989 Y0.5429
N11630 X1.0085 Y0.5272
N11635 X1.03 Y0.5172
N11640 X1.0546 Y0.5124
N11645 X1.0871 Y0.5141
N11650 X1.243 Y0.5415
N11655 X1.2057 Y0.623
N11660 X1.174 Y0.6778
N11665 X1.1731 Y0.6789
N11670 X1.1717 Y0.6797
N11675 X1.1702 Y0.6801
N11680 X1.1687 Y0.6798
N11685 X1.1673 Y0.6791
N11690 X1.1662 Y0.678
N11695 X1.1656 Y0.6766
N11700 X1.1655 Y0.6751
N11705 X1.1669 Y0.6593
N11710 X1.1672 Y0.658
N11715 X1.1678 Y0.6569
N11720 X1.1776 Y0.6445
N11725 X1.1788 Y0.6434
N11730 X1.1802 Y0.6428
N11735 X1.1817 Y0.6427
N11740 X1.1832 Y0.6432
N11745 X1.1845 Y0.6441
N11750 X1.1854 Y0.6453
N11755 X1.1858 Y0.6468
N11760 X1.1857 Y0.6484
N11765 G3 X0.9785 Y0.5832 Z-0.1454 I-0.106 J-0.025 F13.123
N11770 X1.174 Y0.6778 Z-0.1579 I0.1012 J0.0402
N11775 G1 X1.1425 Y0.7325 F39.37
N11780 X1.0905 Y0.8058
N11785 X0.9883 Y0.6838
N11790 X0.971 Y0.6571
N11795 X0.9631 Y0.6342
N11800 X0.9608 Y0.6093
N11805 X0.9646 Y0.5853
N11810 X0.9726 Y0.5664
N11815 X0.9743 Y0.5625
N11820 X0.989 Y0.5429
N11825 X1.0085 Y0.5272
N11830 X1.03 Y0.5172
N11835 X1.0546 Y0.5124
N11840 X1.0871 Y0.5141
N11845 X1.243 Y0.5415
N11850 X1.2057 Y0.623
N11855 X1.174 Y0.6778
N11860 X1.1731 Y0.6789
N11865 X1.1717 Y0.6797
N11870 X1.1702 Y0.6801
N11875 X1.1687 Y0.6798
N11880 X1.1673 Y0.6791
N11885 X1.1662 Y0.678
N11890 X1.1656 Y0.6766
N11895 X1.1655 Y0.6751
N11900 X1.1669 Y0.6593
N11905 X1.1672 Y0.658
N11910 X1.1678 Y0.6569
N11915 X1.1776 Y0.6445
N11920 X1.1788 Y0.6434
N11925 X1.1802 Y0.6428
N11930 X1.1817 Y0.6427
N11935 X1.1832 Y0.6432
N11940 X1.1845 Y0.6441
N11945 X1.1854 Y0.6453
N11950 X1.1858 Y0.6468
N11955 X1.1857 Y0.6484
N11960 G3 X0.9785 Y0.5832 Z-0.1704 I-0.106 J-0.025 F13.123
N11965 X1.174 Y0.6778 Z-0.1829 I0.1012 J0.0402
N11970 G1 X1.1425 Y0.7325 F39.37
N11975 X1.0905 Y0.8058
N11980 X0.9883 Y0.6838
N11985 X0.971 Y0.6571
N11990 X0.9631 Y0.6342
N11995 X0.9608 Y0.6093
N12000 X0.9646 Y0.5853
N12005 X0.9726 Y0.5664
N12010 X0.9743 Y0.5625
N12015 X0.989 Y0.5429
N12020 X1.0085 Y0.5272
N12025 X1.03 Y0.5172
N12030 X1.0546 Y0.5124
N12035 X1.0871 Y0.5141
N12040 X1.243 Y0.5415
N12045 X1.2057 Y0.623
N12050 X1.174 Y0.6778
N12055 G3 X0.9854 Y0.5689 Z-0.1879 I-0.0943 J-0.0544 F13.123
N12060 X1.174 Y0.6778 Z-0.1929 I0.0943 J0.0544
N12065 G1 X1.1425 Y0.7325 F39.37
N12070 X1.0905 Y0.8058
N12075 X0.9883 Y0.6838
N12080 X0.971 Y0.6571
N12085 X0.9631 Y0.6342
N12090 X0.9608 Y0.6093
N12095 X0.9646 Y0.5853
N12100 X0.9726 Y0.5664
N12105 X0.9743 Y0.5625
N12110 X0.989 Y0.5429
N12115 X1.0085 Y0.5272
N12120 X1.03 Y0.5172
N12125 X1.0546 Y0.5124
N12130 X1.0871 Y0.5141
N12135 X1.243 Y0.5415
N12140 X1.2057 Y0.623
N12145 X1.174 Y0.6778
N12150 X1.1731 Y0.6789
N12155 X1.1717 Y0.6797
N12160 X1.1702 Y0.6801
N12165 X1.1687 Y0.6798
N12170 X1.1673 Y0.6791
N12175 X1.1662 Y0.678
N12180 X1.1656 Y0.6766
N12185 X1.1655 Y0.6751
N12190 X1.1669 Y0.6593
N12195 X1.1672 Y0.658
N12200 X1.1678 Y0.6569
N12205 X1.1776 Y0.6445
N12210 X1.1788 Y0.6434
N12215 X1.1802 Y0.6428
N12220 X1.1817 Y0.6427
N12225 X1.1832 Y0.6432
N12230 X1.1845 Y0.6441
N12235 X1.1854 Y0.6453
N12240 X1.1858 Y0.6468
N12245 X1.1857 Y0.6484
N12250 G3 X0.9785 Y0.5832 Z-0.2054 I-0.106 J-0.025 F13.123
N12255 X1.174 Y0.6778 Z-0.2179 I0.1012 J0.0402
N12260 G1 X1.1425 Y0.7325 F39.37
N12265 X1.0905 Y0.8058
N12270 X0.9883 Y0.6838
N12275 X0.971 Y0.6571
N12280 X0.9631 Y0.6342
N12285 X0.9608 Y0.6093
N12290 X0.9646 Y0.5853
N12295 X0.9726 Y0.5664
N12300 X0.9743 Y0.5625
N12305 X0.989 Y0.5429
N12310 X1.0085 Y0.5272
N12315 X1.03 Y0.5172
N12320 X1.0546 Y0.5124
N12325 X1.0871 Y0.5141
N12330 X1.243 Y0.5415
N12335 X1.2057 Y0.623
N12340 X1.174 Y0.6778
N12345 X1.1731 Y0.6789
N12350 X1.1717 Y0.6797
N12355 X1.1702 Y0.6801
N12360 X1.1687 Y0.6798
N12365 X1.1673 Y0.6791
N12370 X1.1662 Y0.678
N12375 X1.1656 Y0.6766
N12380 X1.1655 Y0.6751
N12385 X1.1669 Y0.6593
N12390 X1.1672 Y0.658
N12395 X1.1678 Y0.6569
N12400 X1.1776 Y0.6445
N12405 X1.1788 Y0.6434
N12410 X1.1802 Y0.6428
N12415 X1.1817 Y0.6427
N12420 X1.1832 Y0.6432
N12425 X1.1845 Y0.6441
N12430 X1.1854 Y0.6453
N12435 X1.1858 Y0.6468
N12440 X1.1857 Y0.6484
N12445 G3 X0.9785 Y0.5832 Z-0.2304 I-0.106 J-0.025 F13.123
N12450 X1.174 Y0.6778 Z-0.2429 I0.1012 J0.0402
N12455 G1 X1.1425 Y0.7325 F39.37
N12460 X1.0905 Y0.8058
N12465 X0.9883 Y0.6838
N12470 X0.971 Y0.6571
N12475 X0.9631 Y0.6342
N12480 X0.9608 Y0.6093
N12485 X0.9646 Y0.5853
N12490 X0.9726 Y0.5664
N12495 X0.9743 Y0.5625
N12500 X0.989 Y0.5429
N12505 X1.0085 Y0.5272
N12510 X1.03 Y0.5172
N12515 X1.0546 Y0.5124
N12520 X1.0871 Y0.5141
N12525 X1.243 Y0.5415
N12530 X1.2057 Y0.623
N12535 X1.174 Y0.6778
N12540 G3 X0.9854 Y0.5689 Z-0.2495 I-0.0943 J-0.0544 F13.123
N12545 X1.174 Y0.6778 Z-0.256 I0.0943 J0.0544
N12550 G1 X1.1425 Y0.7325 F39.37
N12555 X1.0905 Y0.8058
N12560 X0.9883 Y0.6838
N12565 X0.971 Y0.6571
N12570 X0.9631 Y0.6342
N12575 X0.9608 Y0.6093
N12580 X0.9646 Y0.5853
N12585 X0.9726 Y0.5664
N12590 X0.9743 Y0.5625
N12595 X0.989 Y0.5429
N12600 X1.0085 Y0.5272
N12605 X1.03 Y0.5172
N12610 X1.0546 Y0.5124
N12615 X1.0871 Y0.5141
N12620 X1.243 Y0.5415
N12625 X1.2057 Y0.623
N12630 X1.174 Y0.6778
N12635 G3 X0.9854 Y0.5689 Z-0.2626 I-0.0943 J-0.0544 F13.123
N12640 X1.174 Y0.6778 Z-0.2691 I0.0943 J0.0544
N12645 G1 X1.1425 Y0.7325 F39.37
N12650 X1.0905 Y0.8058
N12655 X0.9883 Y0.6838
N12660 X0.971 Y0.6571
N12665 X0.9631 Y0.6342
N12670 X0.9608 Y0.6093
N12675 X0.9646 Y0.5853
N12680 X0.9726 Y0.5664
N12685 X0.9743 Y0.5625
N12690 X0.989 Y0.5429
N12695 X1.0085 Y0.5272
N12700 X1.03 Y0.5172
N12705 X1.0546 Y0.5124
N12710 X1.0871 Y0.5141
N12715 X1.243 Y0.5415
N12720 X1.2057 Y0.623
N12725 X1.174 Y0.6778
N12730 X1.1725 Y0.6801 Z-0.2688
N12735 X1.1708 Y0.6822 Z-0.2685
N12740 X1.1689 Y0.6841 Z-0.2676
N12745 X1.1668 Y0.6857 Z-0.2667
N12750 X1.1648 Y0.687 Z-0.2652
N12755 X1.1627 Y0.688 Z-0.2637
N12760 X1.159 Y0.6894 Z-0.2597
N12765 X1.156 Y0.69 Z-0.255
N12770 X1.1542 Y0.6902 Z-0.2497
N12775 X1.1536 Z-0.2441
N12780 G0 Z0.6
N12785 M9
N12790 M5
N12795 G53 G0 Z0.

(2D Contour2)
N12800 M1
N12805 T6 M6
N12810 S5000 M3
N12815 G54
N12820 G17 G90
N12825 M8
N12830 G1 X0.0721 Y-1.5803 F300.
N12835 G0 G43 Z0.6 H6
N12840 T17
N12845 G0 Z0.2
N12850 G1 Z0.0394 F13.123
N12855 Z-0.2316
N12860 X0.0724 Y-1.5802 Z-0.2362 F39.37
N12865 X0.0732 Y-1.5799 Z-0.2406
N12870 X0.0744 Y-1.5794 Z-0.2449
N12875 X0.0762 Y-1.5788 Z-0.2491
N12880 X0.0784 Y-1.578 Z-0.253
N12885 X0.081 Y-1.5771 Z-0.2565
N12890 X0.084 Y-1.576 Z-0.2597
N12895 X0.0874 Y-1.5747 Z-0.2625
N12900 X0.091 Y-1.5734 Z-0.2649
N12905 X0.0949 Y-1.572 Z-0.2667
N12910 X0.099 Y-1.5705 Z-0.2681
N12915 X0.1031 Y-1.569 Z-0.2689
N12920 X0.1074 Y-1.5675 Z-0.2691
N12925 X0.1426 Y-1.5546
N12930 G3 X0.165 Y-1.5066 I-0.0128 J0.0352
N12935 G1 X0.0555 Y-1.2056
N12940 G3 X-0.0555 I-0.0555 J-0.0202
N12945 G1 X-0.165 Y-1.5066
N12950 G3 X-0.1426 Y-1.5546 I0.0352 J-0.0128
N12955 G1 X-0.1074 Y-1.5675
N12960 X-0.1031 Y-1.569 Z-0.2689
N12965 X-0.099 Y-1.5705 Z-0.2681
N12970 X-0.0949 Y-1.572 Z-0.2667
N12975 X-0.091 Y-1.5734 Z-0.2649
N12980 X-0.0874 Y-1.5747 Z-0.2625
N12985 X-0.084 Y-1.576 Z-0.2597
N12990 X-0.081 Y-1.5771 Z-0.2565
N12995 X-0.0784 Y-1.578 Z-0.253
N13000 X-0.0762 Y-1.5788 Z-0.2491
N13005 X-0.0744 Y-1.5794 Z-0.2449
N13010 X-0.0732 Y-1.5799 Z-0.2406
N13015 X-0.0724 Y-1.5802 Z-0.2362
N13020 X-0.0721 Y-1.5803 Z-0.2316
N13025 G0 Z0.2
N13030 G1 X-1.3325 Y-0.8526 F300.
N13035 Z0.0394 F13.123
N13040 Z-0.2316
N13045 X-1.3323 Y-0.8528 Z-0.2362 F39.37
N13050 X-1.3317 Y-0.8533 Z-0.2406
N13055 X-1.3306 Y-0.8542 Z-0.2449
N13060 X-1.3292 Y-0.8554 Z-0.2491
N13065 X-1.3274 Y-0.8569 Z-0.253
N13070 X-1.3253 Y-0.8587 Z-0.2565
N13075 X-1.3228 Y-0.8607 Z-0.2597
N13080 X-1.3201 Y-0.863 Z-0.2625
N13085 X-1.3171 Y-0.8655 Z-0.2649
N13090 X-1.314 Y-0.8682 Z-0.2667
N13095 X-1.3106 Y-0.871 Z-0.2681
N13100 X-1.3072 Y-0.8738 Z-0.2689
N13105 X-1.3038 Y-0.8767 Z-0.2691
N13110 X-1.275 Y-0.9008
N13115 G3 X-1.2222 Y-0.8962 I0.0241 J0.0287
N13120 G1 X-1.0163 Y-0.6508
N13125 G3 X-1.0718 Y-0.5547 I-0.0452 J0.0379
N13130 G1 X-1.3872 Y-0.6104
N13135 G3 X-1.4177 Y-0.6538 I0.0065 J-0.0369
N13140 G1 X-1.4111 Y-0.6907
N13145 X-1.4104 Y-0.6952 Z-0.2689
N13150 X-1.4096 Y-0.6996 Z-0.2681
N13155 X-1.4088 Y-0.7038 Z-0.2667
N13160 X-1.4081 Y-0.7079 Z-0.2649
N13165 X-1.4075 Y-0.7117 Z-0.2625
N13170 X-1.4068 Y-0.7152 Z-0.2597
N13175 X-1.4063 Y-0.7184 Z-0.2565
N13180 X-1.4058 Y-0.7211 Z-0.253
N13185 X-1.4054 Y-0.7234 Z-0.2491
N13190 X-1.4051 Y-0.7253 Z-0.2449
N13195 X-1.4048 Y-0.7266 Z-0.2406
N13200 X-1.4047 Y-0.7274 Z-0.2362
N13205 X-1.4046 Y-0.7277 Z-0.2316
N13210 G0 Z0.2
N13215 Y0.7277
N13220 G1 Z0.0394 F13.123
N13225 Z-0.2316
N13230 X-1.4047 Y0.7274 Z-0.2362 F39.37
N13235 X-1.4048 Y0.7266 Z-0.2406
N13240 X-1.4051 Y0.7253 Z-0.2449
N13245 X-1.4054 Y0.7234 Z-0.2491
N13250 X-1.4058 Y0.7211 Z-0.253
N13255 X-1.4063 Y0.7184 Z-0.2565
N13260 X-1.4068 Y0.7152 Z-0.2597
N13265 X-1.4075 Y0.7117 Z-0.2625
N13270 X-1.4081 Y0.7079 Z-0.2649
N13275 X-1.4088 Y0.7038 Z-0.2667
N13280 X-1.4096 Y0.6996 Z-0.2681
N13285 X-1.4104 Y0.6952 Z-0.2689
N13290 X-1.4111 Y0.6907 Z-0.2691
N13295 X-1.4177 Y0.6538
N13300 G3 X-1.3872 Y0.6104 I0.0369 J-0.0065
N13305 G1 X-1.0718 Y0.5547
N13310 G3 X-1.0163 Y0.6508 I0.0103 J0.0581
N13315 G1 X-1.2222 Y0.8962
N13320 G3 X-1.275 Y0.9008 I-0.0287 J-0.0241
N13325 G1 X-1.3038 Y0.8767
N13330 X-1.3072 Y0.8738 Z-0.2689
N13335 X-1.3106 Y0.871 Z-0.2681
N13340 X-1.314 Y0.8682 Z-0.2667
N13345 X-1.3171 Y0.8655 Z-0.2649
N13350 X-1.3201 Y0.863 Z-0.2625
N13355 X-1.3228 Y0.8607 Z-0.2597
N13360 X-1.3253 Y0.8587 Z-0.2565
N13365 X-1.3274 Y0.8569 Z-0.253
N13370 X-1.3292 Y0.8554 Z-0.2491
N13375 X-1.3306 Y0.8542 Z-0.2449
N13380 X-1.3317 Y0.8533 Z-0.2406
N13385 X-1.3323 Y0.8528 Z-0.2362
N13390 X-1.3325 Y0.8526 Z-0.2316
N13395 G0 Z0.2
N13400 G1 X-0.0721 Y1.5803 F300.
N13405 Z0.0394 F13.123
N13410 Z-0.2316
N13415 X-0.0724 Y1.5802 Z-0.2362 F39.37
N13420 X-0.0732 Y1.5799 Z-0.2406
N13425 X-0.0744 Y1.5794 Z-0.2449
N13430 X-0.0762 Y1.5788 Z-0.2491
N13435 X-0.0784 Y1.578 Z-0.253
N13440 X-0.081 Y1.5771 Z-0.2565
N13445 X-0.084 Y1.576 Z-0.2597
N13450 X-0.0874 Y1.5747 Z-0.2625
N13455 X-0.091 Y1.5734 Z-0.2649
N13460 X-0.0949 Y1.572 Z-0.2667
N13465 X-0.099 Y1.5705 Z-0.2681
N13470 X-0.1031 Y1.569 Z-0.2689
N13475 X-0.1074 Y1.5675 Z-0.2691
N13480 X-0.1426 Y1.5546
N13485 G3 X-0.165 Y1.5066 I0.0128 J-0.0352
N13490 G1 X-0.0555 Y1.2056
N13495 G3 X0.0555 I0.0555 J0.0202
N13500 G1 X0.165 Y1.5066
N13505 G3 X0.1426 Y1.5546 I-0.0352 J0.0128
N13510 G1 X0.1074 Y1.5675
N13515 X0.1031 Y1.569 Z-0.2689
N13520 X0.099 Y1.5705 Z-0.2681
N13525 X0.0949 Y1.572 Z-0.2667
N13530 X0.091 Y1.5734 Z-0.2649
N13535 X0.0874 Y1.5747 Z-0.2625
N13540 X0.084 Y1.576 Z-0.2597
N13545 X0.081 Y1.5771 Z-0.2565
N13550 X0.0784 Y1.578 Z-0.253
N13555 X0.0762 Y1.5788 Z-0.2491
N13560 X0.0744 Y1.5794 Z-0.2449
N13565 X0.0732 Y1.5799 Z-0.2406
N13570 X0.0724 Y1.5802 Z-0.2362
N13575 X0.0721 Y1.5803 Z-0.2316
N13580 G0 Z0.2
N13585 G1 X1.3325 Y0.8526 F300.
N13590 Z0.0394 F13.123
N13595 Z-0.2316
N13600 X1.3323 Y0.8528 Z-0.2362 F39.37
N13605 X1.3317 Y0.8533 Z-0.2406
N13610 X1.3306 Y0.8542 Z-0.2449
N13615 X1.3292 Y0.8554 Z-0.2491
N13620 X1.3274 Y0.8569 Z-0.253
N13625 X1.3253 Y0.8587 Z-0.2565
N13630 X1.3228 Y0.8607 Z-0.2597
N13635 X1.3201 Y0.863 Z-0.2625
N13640 X1.3171 Y0.8655 Z-0.2649
N13645 X1.314 Y0.8682 Z-0.2667
N13650 X1.3106 Y0.871 Z-0.2681
N13655 X1.3072 Y0.8738 Z-0.2689
N13660 X1.3038 Y0.8767 Z-0.2691
N13665 X1.275 Y0.9008
N13670 G3 X1.2222 Y0.8962 I-0.0241 J-0.0287
N13675 G1 X1.0163 Y0.6508
N13680 G3 X1.0718 Y0.5547 I0.0452 J-0.0379
N13685 G1 X1.3872 Y0.6104
N13690 G3 X1.4177 Y0.6538 I-0.0065 J0.0369
N13695 G1 X1.4111 Y0.6907
N13700 X1.4104 Y0.6952 Z-0.2689
N13705 X1.4096 Y0.6996 Z-0.2681
N13710 X1.4088 Y0.7038 Z-0.2667
N13715 X1.4081 Y0.7079 Z-0.2649
N13720 X1.4075 Y0.7117 Z-0.2625
N13725 X1.4068 Y0.7152 Z-0.2597
N13730 X1.4063 Y0.7184 Z-0.2565
N13735 X1.4058 Y0.7211 Z-0.253
N13740 X1.4054 Y0.7234 Z-0.2491
N13745 X1.4051 Y0.7253 Z-0.2449
N13750 X1.4048 Y0.7266 Z-0.2406
N13755 X1.4047 Y0.7274 Z-0.2362
N13760 X1.4046 Y0.7277 Z-0.2316
N13765 G0 Z0.2
N13770 Y-0.7277
N13775 G1 Z0.0394 F13.123
N13780 Z-0.2316
N13785 X1.4047 Y-0.7274 Z-0.2362 F39.37
N13790 X1.4048 Y-0.7266 Z-0.2406
N13795 X1.4051 Y-0.7253 Z-0.2449
N13800 X1.4054 Y-0.7234 Z-0.2491
N13805 X1.4058 Y-0.7211 Z-0.253
N13810 X1.4063 Y-0.7184 Z-0.2565
N13815 X1.4068 Y-0.7152 Z-0.2597
N13820 X1.4075 Y-0.7117 Z-0.2625
N13825 X1.4081 Y-0.7079 Z-0.2649
N13830 X1.4088 Y-0.7038 Z-0.2667
N13835 X1.4096 Y-0.6996 Z-0.2681
N13840 X1.4104 Y-0.6952 Z-0.2689
N13845 X1.4111 Y-0.6907 Z-0.2691
N13850 X1.4177 Y-0.6538
N13855 G3 X1.3872 Y-0.6104 I-0.0369 J0.0065
N13860 G1 X1.0718 Y-0.5547
N13865 G3 X1.0163 Y-0.6508 I-0.0103 J-0.0581
N13870 G1 X1.2222 Y-0.8962
N13875 G3 X1.275 Y-0.9008 I0.0287 J0.0241
N13880 G1 X1.3038 Y-0.8767
N13885 X1.3072 Y-0.8738 Z-0.2689
N13890 X1.3106 Y-0.871 Z-0.2681
N13895 X1.314 Y-0.8682 Z-0.2667
N13900 X1.3171 Y-0.8655 Z-0.2649
N13905 X1.3201 Y-0.863 Z-0.2625
N13910 X1.3228 Y-0.8607 Z-0.2597
N13915 X1.3253 Y-0.8587 Z-0.2565
N13920 X1.3274 Y-0.8569 Z-0.253
N13925 X1.3292 Y-0.8554 Z-0.2491
N13930 X1.3306 Y-0.8542 Z-0.2449
N13935 X1.3317 Y-0.8533 Z-0.2406
N13940 X1.3323 Y-0.8528 Z-0.2362
N13945 X1.3325 Y-0.8526 Z-0.2316
N13950 G0 Z0.6
N13955 M9
N13960 M5
N13965 G53 G0 Z0.

(Drill1)
N13970 M1
N13975 T17 M6
N13980 S5000 M3
N13985 G54
N13990 G17 G90
N13995 M8
N14000 G1 X-1.0615 Y-0.6129 F300.
N14005 G0 G43 Z0.6 H17
N14010 T6
N14015 G0 Z0.2
N14020 G98 G83 X-1.0615 Y-0.6129 Z-0.4873 R-0.0691 Q0.065 F39.37
N14025 X0. Y-1.2257
N14030 X1.0615 Y-0.6129
N14035 Y0.6129
N14040 X0. Y1.2257
N14045 X-1.0615 Y0.6129
N14050 G80
N14055 G0 Z0.6
N14060 M9
N14065 M5
N14070 G53 G0 Z0.

(Circular1)
N14075 M1
N14080 T6 M6
N14085 S5000 M3
N14090 G54
N14095 G17 G90
N14100 M8
N14105 G1 X0.4425 Y-1.7075 F300.
N14110 G0 G43 Z0.6 H6
N14115 T14
N14120 G0 Z0.0071
N14125 G1 Z-0.0354 F39.37
N14130 X0.4424 Y-1.7072 Z-0.0399
N14135 X0.4422 Y-1.7064 Z-0.0444
N14140 X0.4419 Y-1.7051 Z-0.0487
N14145 X0.4415 Y-1.7033 Z-0.0529
N14150 X0.4409 Y-1.701 Z-0.0567
N14155 X0.4403 Y-1.6983 Z-0.0603
N14160 X0.4396 Y-1.6952 Z-0.0635
N14165 X0.4387 Y-1.6917 Z-0.0663
N14170 X0.4378 Y-1.688 Z-0.0686
N14175 X0.4369 Y-1.6839 Z-0.0705
N14180 X0.4359 Y-1.6797 Z-0.0718
N14185 X0.4349 Y-1.6754 Z-0.0727
N14190 X0.4338 Y-1.671 Z-0.0729
N14195 X0.4295 Y-1.6528
N14200 G3 X0.3844 Y-1.6249 I-0.0365 J-0.0086
N14205 G2 X-0.3844 Y1.6249 I-0.3844 J1.6249
N14210 X0.3844 Y-1.6249 I0.3844 J-1.6249
N14215 G3 X0.3565 Y-1.67 I0.0086 J-0.0365
N14220 G1 X0.3608 Y-1.6883
N14225 X0.3619 Y-1.6927 Z-0.0727
N14230 X0.3629 Y-1.697 Z-0.0718
N14235 X0.3639 Y-1.7012 Z-0.0705
N14240 X0.3649 Y-1.7052 Z-0.0686
N14245 X0.3658 Y-1.709 Z-0.0663
N14250 X0.3666 Y-1.7125 Z-0.0635
N14255 X0.3673 Y-1.7156 Z-0.0603
N14260 X0.368 Y-1.7183 Z-0.0567
N14265 X0.3685 Y-1.7206 Z-0.0529
N14270 X0.3689 Y-1.7224 Z-0.0487
N14275 X0.3692 Y-1.7237 Z-0.0444
N14280 X0.3694 Y-1.7245 Z-0.0399
N14285 X0.3695 Y-1.7248 Z-0.0354
N14290 G0 Z0.2
N14295 G1 X0.4425 Y-1.7075 F300.
N14300 G0 Z-0.0329
N14305 G1 Z-0.0754 F39.37
N14310 X0.4424 Y-1.7072 Z-0.0799
N14315 X0.4422 Y-1.7064 Z-0.0844
N14320 X0.4419 Y-1.7051 Z-0.0887
N14325 X0.4415 Y-1.7033 Z-0.0929
N14330 X0.4409 Y-1.701 Z-0.0967
N14335 X0.4403 Y-1.6983 Z-0.1003
N14340 X0.4396 Y-1.6952 Z-0.1035
N14345 X0.4387 Y-1.6917 Z-0.1063
N14350 X0.4378 Y-1.688 Z-0.1086
N14355 X0.4369 Y-1.6839 Z-0.1105
N14360 X0.4359 Y-1.6797 Z-0.1118
N14365 X0.4349 Y-1.6754 Z-0.1127
N14370 X0.4338 Y-1.671 Z-0.1129
N14375 X0.4295 Y-1.6528
N14380 G3 X0.3844 Y-1.6249 I-0.0365 J-0.0086
N14385 G2 X-0.3844 Y1.6249 I-0.3844 J1.6249
N14390 X0.3844 Y-1.6249 I0.3844 J-1.6249
N14395 G3 X0.3565 Y-1.67 I0.0086 J-0.0365
N14400 G1 X0.3608 Y-1.6883
N14405 X0.3619 Y-1.6927 Z-0.1127
N14410 X0.3629 Y-1.697 Z-0.1118
N14415 X0.3639 Y-1.7012 Z-0.1105
N14420 X0.3649 Y-1.7052 Z-0.1086
N14425 X0.3658 Y-1.709 Z-0.1063
N14430 X0.3666 Y-1.7125 Z-0.1035
N14435 X0.3673 Y-1.7156 Z-0.1003
N14440 X0.368 Y-1.7183 Z-0.0967
N14445 X0.3685 Y-1.7206 Z-0.0929
N14450 X0.3689 Y-1.7224 Z-0.0887
N14455 X0.3692 Y-1.7237 Z-0.0844
N14460 X0.3694 Y-1.7245 Z-0.0799
N14465 X0.3695 Y-1.7248 Z-0.0754
N14470 G0 Z0.2
N14475 G1 X0.4425 Y-1.7075 F300.
N14480 G0 Z-0.0729
N14485 G1 Z-0.1154 F39.37
N14490 X0.4424 Y-1.7072 Z-0.1199
N14495 X0.4422 Y-1.7064 Z-0.1244
N14500 X0.4419 Y-1.7051 Z-0.1287
N14505 X0.4415 Y-1.7033 Z-0.1329
N14510 X0.4409 Y-1.701 Z-0.1367
N14515 X0.4403 Y-1.6983 Z-0.1403
N14520 X0.4396 Y-1.6952 Z-0.1435
N14525 X0.4387 Y-1.6917 Z-0.1463
N14530 X0.4378 Y-1.688 Z-0.1486
N14535 X0.4369 Y-1.6839 Z-0.1505
N14540 X0.4359 Y-1.6797 Z-0.1518
N14545 X0.4349 Y-1.6754 Z-0.1527
N14550 X0.4338 Y-1.671 Z-0.1529
N14555 X0.4295 Y-1.6528
N14560 G3 X0.3844 Y-1.6249 I-0.0365 J-0.0086
N14565 G2 X-0.3844 Y1.6249 I-0.3844 J1.6249
N14570 X0.3844 Y-1.6249 I0.3844 J-1.6249
N14575 G3 X0.3565 Y-1.67 I0.0086 J-0.0365
N14580 G1 X0.3608 Y-1.6883
N14585 X0.3619 Y-1.6927 Z-0.1527
N14590 X0.3629 Y-1.697 Z-0.1518
N14595 X0.3639 Y-1.7012 Z-0.1505
N14600 X0.3649 Y-1.7052 Z-0.1486
N14605 X0.3658 Y-1.709 Z-0.1463
N14610 X0.3666 Y-1.7125 Z-0.1435
N14615 X0.3673 Y-1.7156 Z-0.1403
N14620 X0.368 Y-1.7183 Z-0.1367
N14625 X0.3685 Y-1.7206 Z-0.1329
N14630 X0.3689 Y-1.7224 Z-0.1287
N14635 X0.3692 Y-1.7237 Z-0.1244
N14640 X0.3694 Y-1.7245 Z-0.1199
N14645 X0.3695 Y-1.7248 Z-0.1154
N14650 G0 Z0.2
N14655 G1 X0.4425 Y-1.7075 F300.
N14660 G0 Z-0.1129
N14665 G1 Z-0.1554 F39.37
N14670 X0.4424 Y-1.7072 Z-0.1599
N14675 X0.4422 Y-1.7064 Z-0.1644
N14680 X0.4419 Y-1.7051 Z-0.1687
N14685 X0.4415 Y-1.7033 Z-0.1729
N14690 X0.4409 Y-1.701 Z-0.1767
N14695 X0.4403 Y-1.6983 Z-0.1803
N14700 X0.4396 Y-1.6952 Z-0.1835
N14705 X0.4387 Y-1.6917 Z-0.1863
N14710 X0.4378 Y-1.688 Z-0.1886
N14715 X0.4369 Y-1.6839 Z-0.1905
N14720 X0.4359 Y-1.6797 Z-0.1918
N14725 X0.4349 Y-1.6754 Z-0.1927
N14730 X0.4338 Y-1.671 Z-0.1929
N14735 X0.4295 Y-1.6528
N14740 G3 X0.3844 Y-1.6249 I-0.0365 J-0.0086
N14745 G2 X-0.3844 Y1.6249 I-0.3844 J1.6249
N14750 X0.3844 Y-1.6249 I0.3844 J-1.6249
N14755 G3 X0.3565 Y-1.67 I0.0086 J-0.0365
N14760 G1 X0.3608 Y-1.6883
N14765 X0.3619 Y-1.6927 Z-0.1927
N14770 X0.3629 Y-1.697 Z-0.1918
N14775 X0.3639 Y-1.7012 Z-0.1905
N14780 X0.3649 Y-1.7052 Z-0.1886
N14785 X0.3658 Y-1.709 Z-0.1863
N14790 X0.3666 Y-1.7125 Z-0.1835
N14795 X0.3673 Y-1.7156 Z-0.1803
N14800 X0.368 Y-1.7183 Z-0.1767
N14805 X0.3685 Y-1.7206 Z-0.1729
N14810 X0.3689 Y-1.7224 Z-0.1687
N14815 X0.3692 Y-1.7237 Z-0.1644
N14820 X0.3694 Y-1.7245 Z-0.1599
N14825 X0.3695 Y-1.7248 Z-0.1554
N14830 G0 Z0.2
N14835 G1 X0.4425 Y-1.7075 F300.
N14840 G0 Z-0.1529
N14845 G1 Z-0.1954 F39.37
N14850 X0.4424 Y-1.7072 Z-0.1999
N14855 X0.4422 Y-1.7064 Z-0.2044
N14860 X0.4419 Y-1.7051 Z-0.2087
N14865 X0.4415 Y-1.7033 Z-0.2129
N14870 X0.4409 Y-1.701 Z-0.2167
N14875 X0.4403 Y-1.6983 Z-0.2203
N14880 X0.4396 Y-1.6952 Z-0.2235
N14885 X0.4387 Y-1.6917 Z-0.2263
N14890 X0.4378 Y-1.688 Z-0.2286
N14895 X0.4369 Y-1.6839 Z-0.2305
N14900 X0.4359 Y-1.6797 Z-0.2318
N14905 X0.4349 Y-1.6754 Z-0.2327
N14910 X0.4338 Y-1.671 Z-0.2329
N14915 X0.4295 Y-1.6528
N14920 G3 X0.3844 Y-1.6249 I-0.0365 J-0.0086
N14925 G2 X-0.3844 Y1.6249 I-0.3844 J1.6249
N14930 X0.3844 Y-1.6249 I0.3844 J-1.6249
N14935 G3 X0.3565 Y-1.67 I0.0086 J-0.0365
N14940 G1 X0.3608 Y-1.6883
N14945 X0.3619 Y-1.6927 Z-0.2327
N14950 X0.3629 Y-1.697 Z-0.2318
N14955 X0.3639 Y-1.7012 Z-0.2305
N14960 X0.3649 Y-1.7052 Z-0.2286
N14965 X0.3658 Y-1.709 Z-0.2263
N14970 X0.3666 Y-1.7125 Z-0.2235
N14975 X0.3673 Y-1.7156 Z-0.2203
N14980 X0.368 Y-1.7183 Z-0.2167
N14985 X0.3685 Y-1.7206 Z-0.2129
N14990 X0.3689 Y-1.7224 Z-0.2087
N14995 X0.3692 Y-1.7237 Z-0.2044
N15000 X0.3694 Y-1.7245 Z-0.1999
N15005 X0.3695 Y-1.7248 Z-0.1954
N15010 G0 Z0.2
N15015 G1 X0.4425 Y-1.7075 F300.
N15020 G0 Z-0.1929
N15025 G1 Z-0.2354 F39.37
N15030 X0.4424 Y-1.7072 Z-0.2399
N15035 X0.4422 Y-1.7064 Z-0.2444
N15040 X0.4419 Y-1.7051 Z-0.2487
N15045 X0.4415 Y-1.7033 Z-0.2529
N15050 X0.4409 Y-1.701 Z-0.2567
N15055 X0.4403 Y-1.6983 Z-0.2603
N15060 X0.4396 Y-1.6952 Z-0.2635
N15065 X0.4387 Y-1.6917 Z-0.2663
N15070 X0.4378 Y-1.688 Z-0.2686
N15075 X0.4369 Y-1.6839 Z-0.2705
N15080 X0.4359 Y-1.6797 Z-0.2718
N15085 X0.4349 Y-1.6754 Z-0.2727
N15090 X0.4338 Y-1.671 Z-0.2729
N15095 X0.4295 Y-1.6528
N15100 G3 X0.3844 Y-1.6249 I-0.0365 J-0.0086
N15105 G2 X-0.3844 Y1.6249 I-0.3844 J1.6249
N15110 X0.3844 Y-1.6249 I0.3844 J-1.6249
N15115 G3 X0.3565 Y-1.67 I0.0086 J-0.0365
N15120 G1 X0.3608 Y-1.6883
N15125 X0.3619 Y-1.6927 Z-0.2727
N15130 X0.3629 Y-1.697 Z-0.2718
N15135 X0.3639 Y-1.7012 Z-0.2705
N15140 X0.3649 Y-1.7052 Z-0.2686
N15145 X0.3658 Y-1.709 Z-0.2663
N15150 X0.3666 Y-1.7125 Z-0.2635
N15155 X0.3673 Y-1.7156 Z-0.2603
N15160 X0.368 Y-1.7183 Z-0.2567
N15165 X0.3685 Y-1.7206 Z-0.2529
N15170 X0.3689 Y-1.7224 Z-0.2487
N15175 X0.3692 Y-1.7237 Z-0.2444
N15180 X0.3694 Y-1.7245 Z-0.2399
N15185 X0.3695 Y-1.7248 Z-0.2354
N15190 G0 Z0.2
N15195 G1 X0.4425 Y-1.7075 F300.
N15200 G0 Z-0.2301
N15205 G1 Z-0.2726 F39.37
N15210 X0.4424 Y-1.7072 Z-0.2771
N15215 X0.4422 Y-1.7064 Z-0.2816
N15220 X0.4419 Y-1.7051 Z-0.2859
N15225 X0.4415 Y-1.7033 Z-0.29
N15230 X0.4409 Y-1.701 Z-0.2939
N15235 X0.4403 Y-1.6983 Z-0.2975
N15240 X0.4396 Y-1.6952 Z-0.3007
N15245 X0.4387 Y-1.6917 Z-0.3035
N15250 X0.4378 Y-1.688 Z-0.3058
N15255 X0.4369 Y-1.6839 Z-0.3077
N15260 X0.4359 Y-1.6797 Z-0.309
N15265 X0.4349 Y-1.6754 Z-0.3098
N15270 X0.4338 Y-1.671 Z-0.3101
N15275 X0.4295 Y-1.6528
N15280 G3 X0.3844 Y-1.6249 I-0.0365 J-0.0086
N15285 G2 X-0.3844 Y1.6249 I-0.3844 J1.6249
N15290 X0.3844 Y-1.6249 I0.3844 J-1.6249
N15295 G3 X0.3565 Y-1.67 I0.0086 J-0.0365
N15300 G1 X0.3608 Y-1.6883
N15305 X0.3619 Y-1.6927 Z-0.3098
N15310 X0.3629 Y-1.697 Z-0.309
N15315 X0.3639 Y-1.7012 Z-0.3077
N15320 X0.3649 Y-1.7052 Z-0.3058
N15325 X0.3658 Y-1.709 Z-0.3035
N15330 X0.3666 Y-1.7125 Z-0.3007
N15335 X0.3673 Y-1.7156 Z-0.2975
N15340 X0.368 Y-1.7183 Z-0.2939
N15345 X0.3685 Y-1.7206 Z-0.29
N15350 X0.3689 Y-1.7224 Z-0.2859
N15355 X0.3692 Y-1.7237 Z-0.2816
N15360 X0.3694 Y-1.7245 Z-0.2771
N15365 X0.3695 Y-1.7248 Z-0.2726
N15370 G0 Z0.2
N15375 G1 X0.4425 Y-1.7075 F300.
N15380 G0 Z-0.2673
N15385 G1 Z-0.3098 F39.37
N15390 X0.4424 Y-1.7072 Z-0.3143
N15395 X0.4422 Y-1.7064 Z-0.3187
N15400 X0.4419 Y-1.7051 Z-0.3231
N15405 X0.4415 Y-1.7033 Z-0.3272
N15410 X0.4409 Y-1.701 Z-0.3311
N15415 X0.4403 Y-1.6983 Z-0.3346
N15420 X0.4396 Y-1.6952 Z-0.3378
N15425 X0.4387 Y-1.6917 Z-0.3406
N15430 X0.4378 Y-1.688 Z-0.343
N15435 X0.4369 Y-1.6839 Z-0.3448
N15440 X0.4359 Y-1.6797 Z-0.3462
N15445 X0.4349 Y-1.6754 Z-0.347
N15450 X0.4338 Y-1.671 Z-0.3473
N15455 X0.4295 Y-1.6528
N15460 G3 X0.3844 Y-1.6249 I-0.0365 J-0.0086
N15465 G2 X-0.3844 Y1.6249 I-0.3844 J1.6249
N15470 X0.3844 Y-1.6249 I0.3844 J-1.6249
N15475 G3 X0.3565 Y-1.67 I0.0086 J-0.0365
N15480 G1 X0.3608 Y-1.6883
N15485 X0.3619 Y-1.6927 Z-0.347
N15490 X0.3629 Y-1.697 Z-0.3462
N15495 X0.3639 Y-1.7012 Z-0.3448
N15500 X0.3649 Y-1.7052 Z-0.343
N15505 X0.3658 Y-1.709 Z-0.3406
N15510 X0.3666 Y-1.7125 Z-0.3378
N15515 X0.3673 Y-1.7156 Z-0.3346
N15520 X0.368 Y-1.7183 Z-0.3311
N15525 X0.3685 Y-1.7206 Z-0.3272
N15530 X0.3689 Y-1.7224 Z-0.3231
N15535 X0.3692 Y-1.7237 Z-0.3187
N15540 X0.3694 Y-1.7245 Z-0.3143
N15545 X0.3695 Y-1.7248 Z-0.3098
N15550 G0 Z0.6

(2D Contour1)
N15555 G1 X0.0375 Y-1.7822 F300.
N15560 G0 Z0.6
N15565 Z0.2
N15570 G1 Z0.0394 F13.123
N15575 Z-0.4298
N15580 G19 G3 Y-1.7447 Z-0.4673 J0.0375 K0. F39.37
N15585 G1 Y-1.7072
N15590 G17 G3 X0. Y-1.6697 I-0.0375 J0.
N15595 G2 X-1.649 Y-0.2625 I0. J1.6697
N15600 G1 Z-0.3473
N15605 G2 Y0.2625 I1.649 J0.2625
N15610 G1 Z-0.4673 F13.123
N15615 G2 X0.5972 Y1.5593 I1.649 J-0.2625 F39.37
N15620 G1 Z-0.3473
N15625 G2 X1.0518 Y1.2968 I-0.5972 J-1.5593
N15630 G1 Z-0.4673 F13.123
N15635 G2 Y-1.2968 I-1.0518 J-1.2968 F39.37
N15640 G1 Z-0.3473
N15645 G2 X0.5972 Y-1.5593 I-1.0518 J1.2968
N15650 G1 Z-0.4673 F13.123
N15655 G2 X0. Y-1.6697 I-0.5972 J1.5593 F39.37
N15660 G3 X-0.0375 Y-1.7072 I0. J-0.0375
N15665 G1 Y-1.7447
N15670 G19 G2 Y-1.7822 Z-0.4298 J0. K0.0375
N15675 G0 Z0.6

N15680 M5
N15685 M9
N15690 G53 G0 Z0.
N15695 X0.
N15700 G53 G0 Y0.
N15705 M2

%
