%
O01005
(Using high feed G1 F300. instead of G0.)
(T6 D=0.375 CR=0. - ZMIN=-0.4761 - flat end mill)
N10 G90 G17
N15 G20
N20 G53 G0 Z0.

(2D Contour1)
N25 T6 M6
N30 S5000 M3
N35 G54
N40 G17 G90
N45 M8
N50 G1 X0.0375 Y-1.7822 F300.
N55 G0 G43 Z0.6 H6
N60 G0 Z0.2
N65 G1 Z0.0394 F13.123
N70 Z-0.4386
N75 G19 G3 Y-1.7447 Z-0.4761 J0.0375 K0. F39.37
N80 G1 Y-1.7072
N85 G17 G3 X0. Y-1.6697 I-0.0375 J0.
N90 G2 X-1.649 Y-0.2625 I0. J1.6697
N95 G1 Z-0.3561
N100 G2 Y0.2625 I1.649 J0.2625
N105 G1 Z-0.4761 F13.123
N110 G2 X0.5972 Y1.5593 I1.649 J-0.2625 F39.37
N115 G1 Z-0.3561
N120 G2 X1.0518 Y1.2968 I-0.5972 J-1.5593
N125 G1 Z-0.4761 F13.123
N130 G2 Y-1.2968 I-1.0518 J-1.2968 F39.37
N135 G1 Z-0.3561
N140 G2 X0.5972 Y-1.5593 I-1.0518 J1.2968
N145 G1 Z-0.4761 F13.123
N150 G2 X0. Y-1.6697 I-0.5972 J1.5593 F39.37
N155 G3 X-0.0375 Y-1.7072 I0. J-0.0375
N160 G1 Y-1.7447
N165 G19 G2 Y-1.7822 Z-0.4386 J0. K0.0375
N170 G0 Z0.6

N175 M5
N180 M9
N185 G53 G0 Z0.
N190 X0.
N195 G53 G0 Y0.
N200 M2

%
