%
O01001
(Using high feed G1 F300. instead of G0.)
(T6 D=0.375 CR=0. - ZMIN=-1.02 - flat end mill)
(T14 D=3. CR=0. - ZMIN=-0.06 - face mill)
(T17 D=0.266 CR=0. TAPER=118deg - ZMIN=-1.02 - drill)
(T18 D=0.75 CR=0. - ZMIN=-0.96 - reamer)
N10 G90 G17
N15 G20
N20 G53 G0 Z0.

(Face1)
N25 T14 M6
N30 S2000 M3
N35 G54
N40 G17 G90
N45 M8
N50 G1 X13.15 Y0.3653 F300.
N55 G0 G43 Z0.6 H14
N60 T6
N65 G0 Z0.24
N70 G18 G3 X12.85 Z-0.06 I-0.3 K0. F30.
N75 G1 X12.7004
N80 X-1.5004
N85 G17 G2 Y2.2097 I0. J0.9222
N90 G1 X12.7004
N95 G3 Y4.054 I0. J0.9222
N100 G1 X-1.5004
N105 G18 G3 X-1.8004 Z0.24 I0. K0.3
N110 G0 Z0.6
N115 M9
N120 M5
N125 G53 G0 Z0.

(2D Adaptive2)
N130 M1
N135 T6 M6
N140 S2546 M3
N145 G54
N150 G17 G90
N155 M8
N160 G1 X6.0097 Y2.6665 F300.
N165 G0 G43 Z0.6 H6
N170 T18
N175 G0 Z0.2
N180 Z0.1
N185 G1 X6.0095 Y2.6666 Z0.0888 F100.
N190 X6.0087 Y2.6672 Z0.0776
N195 X6.0074 Y2.6681 Z0.0665
N200 X6.0056 Y2.6694 Z0.0555
N205 X6.0033 Y2.671 Z0.0446
N210 X6.0006 Y2.673 Z0.0339
N215 X5.9973 Y2.6753 Z0.0235
N220 X5.9936 Y2.6779 Z0.0132
N225 X5.9894 Y2.6809 Z0.0033
N230 X5.9847 Y2.6842 Z-0.0064
N235 X5.9796 Y2.6878 Z-0.0157
N240 X5.9741 Y2.6917 Z-0.0247
N245 X5.9682 Y2.6959 Z-0.0333
N250 X5.9619 Y2.7004 Z-0.0414
N255 X5.9553 Y2.7051 Z-0.0491
N260 X5.9483 Y2.71 Z-0.0564
N265 X5.941 Y2.7152 Z-0.0631
N270 X5.9334 Y2.7206 Z-0.0693
N275 X5.9255 Y2.7262 Z-0.075
N280 X5.9174 Y2.732 Z-0.0802
N285 X5.909 Y2.7379 Z-0.0848
N290 X5.9005 Y2.744 Z-0.0888
N295 X5.8918 Y2.7502 Z-0.0922
N300 X5.8829 Y2.7565 Z-0.095
N305 X5.8739 Y2.7628 Z-0.0972
N310 X5.8649 Y2.7693 Z-0.0987
N315 X5.8558 Y2.7757 Z-0.0997
N320 X5.8466 Y2.7822 Z-0.1
N325 G3 X5.6666 Y2.8828 I-0.5541 J-0.7807
N330 G1 X5.661 Y2.8849 F50.
N335 X5.655 Y2.8845
N340 X5.6491 Y2.8834
N345 X5.6434 Y2.8815
N350 X5.6367 Y2.8785
N355 X5.6287 Y2.8742
N360 X5.6211 Y2.8693
N365 X5.6139 Y2.8639
N370 X5.6058 Y2.8565
N375 X5.5966 Y2.8468
N380 X5.5866 Y2.8343
N385 X5.5792 Y2.8234
N390 X5.5714 Y2.8096
N395 X5.5632 Y2.7921
N400 X5.5559 Y2.7722
N405 X5.5507 Y2.7538
N410 X5.5462 Y2.731
N415 X5.5431 Y2.7036
N420 X5.5423 Y2.6807
N425 X5.5436 Y2.6523
N430 X5.5476 Y2.6215
N435 X5.5533 Y2.594
N440 X5.5634 Y2.56
N445 X5.5744 Y2.5316
N450 X5.5895 Y2.5001
N455 X5.6077 Y2.469
N460 X5.6275 Y2.4407
N465 X5.6529 Y2.4099
N470 X5.6765 Y2.3855
N475 X5.7085 Y2.3574
N480 X5.7354 Y2.3374
N485 X5.7724 Y2.3142
N490 X5.8025 Y2.2985
N495 X5.8421 Y2.2818
N500 X5.8761 Y2.2706
N505 X5.9172 Y2.2606
N510 X5.954 Y2.2547
N515 X5.9955 Y2.2515
N520 X6.0339 Y2.2516
N525 X6.0746 Y2.255
N530 X6.1134 Y2.2614
N535 X6.1524 Y2.2711
N540 X6.1904 Y2.2838
N545 X6.2269 Y2.2994
N550 X6.263 Y2.3184
N555 X6.2959 Y2.3393
N560 X6.329 Y2.3642
N565 X6.3578 Y2.3897
N570 X6.3869 Y2.4201
N575 X6.4108 Y2.4494
N580 X6.4351 Y2.4845
N585 X6.4537 Y2.5168
N590 X6.4723 Y2.5559
N595 X6.4853 Y2.5902
N600 X6.4975 Y2.6322
N605 X6.5048 Y2.6676
N610 X6.5102 Y2.7116
N615 X6.5117 Y2.7473
N620 X6.51 Y2.7921
N625 X6.5058 Y2.827
N630 X6.4968 Y2.8715
N635 X6.4873 Y2.9048
N640 X6.4713 Y2.9473
N645 X6.4565 Y2.9787
N650 X6.4343 Y3.0174
N655 X6.414 Y3.0469
N660 X6.3864 Y3.081
N665 X6.3611 Y3.1075
N670 X6.3289 Y3.1362
N675 X6.2991 Y3.1588
N680 X6.2634 Y3.1816
N685 X6.2297 Y3.1995
N690 X6.1914 Y3.2161
N695 X6.1546 Y3.2285
N700 X6.1148 Y3.2386
N705 X6.0758 Y3.2451
N710 X6.0355 Y3.2486
N715 X5.9954 Y3.2488
N720 X5.9557 Y3.2458
N725 X5.9154 Y3.2396
N730 X5.8774 Y3.2304
N735 X5.838 Y3.2176
N740 X5.8025 Y3.2027
N745 X5.7651 Y3.1834
N750 X5.7329 Y3.1634
N755 X5.6987 Y3.1381
N760 X5.6635 Y3.1074
N765 X5.6286 Y3.0764
N770 X5.5937 Y3.0453
N775 X5.5601 Y3.013
N780 X5.5296 Y2.9796
N785 X5.5049 Y2.9476
N790 X5.484 Y2.9158
N795 X5.4663 Y2.8832
N800 X5.4512 Y2.8493
N805 X5.4392 Y2.8151
N810 X5.4299 Y2.7797
N815 X5.4233 Y2.7427
N820 X5.4196 Y2.7052
N825 X5.419 Y2.6659
N830 X5.4215 Y2.6264
N835 X5.4273 Y2.586
N840 X5.4367 Y2.5452
N845 X5.4494 Y2.5046
N850 X5.466 Y2.4639
N855 X5.4858 Y2.4244
N860 X5.5092 Y2.3858
N865 X5.5363 Y2.3484
N870 X5.5661 Y2.3135
N875 X5.5991 Y2.2805
N880 X5.6347 Y2.2503
N885 X5.6725 Y2.2229
N890 X5.7124 Y2.1986
N895 X5.754 Y2.1774
N900 X5.7971 Y2.1594
N905 X5.8414 Y2.1448
N910 X5.8867 Y2.1335
N915 X5.9328 Y2.1257
N920 X5.9792 Y2.1213
N925 X6.0259 Y2.1204
N930 X6.0725 Y2.123
N935 X6.1188 Y2.129
N940 X6.1646 Y2.1385
N945 X6.2094 Y2.1514
N950 X6.2532 Y2.1676
N955 X6.2957 Y2.187
N960 X6.3366 Y2.2095
N965 X6.3757 Y2.2351
N970 X6.4128 Y2.2634
N975 X6.4477 Y2.2944
N980 X6.4803 Y2.3278
N985 X6.5103 Y2.3636
N990 X6.5376 Y2.4015
N995 X6.562 Y2.4413
N1000 X6.5834 Y2.4828
N1005 X6.6017 Y2.5258
N1010 X6.6167 Y2.57
N1015 X6.6284 Y2.6152
N1020 X6.6366 Y2.6611
N1025 X6.6415 Y2.7076
N1030 X6.6428 Y2.7543
N1035 X6.6408 Y2.8009
N1040 X6.6353 Y2.8473
N1045 X6.6265 Y2.8931
N1050 X6.6142 Y2.9382
N1055 X6.5987 Y2.9822
N1060 X6.58 Y3.025
N1065 X6.5581 Y3.0662
N1070 X6.5333 Y3.1058
N1075 X6.5055 Y3.1433
N1080 X6.475 Y3.1787
N1085 X6.442 Y3.2117
N1090 X6.4066 Y3.2422
N1095 X6.3691 Y3.2699
N1100 X6.3296 Y3.2948
N1105 X6.2884 Y3.3168
N1110 X6.2456 Y3.3356
N1115 X6.2017 Y3.3513
N1120 X6.1566 Y3.3636
N1125 X6.1108 Y3.3727
N1130 X6.0645 Y3.3783
N1135 X6.0178 Y3.3804
N1140 X5.9712 Y3.3791
N1145 X5.9247 Y3.3742
N1150 X5.8788 Y3.366
N1155 X5.8335 Y3.3543
N1160 X5.7893 Y3.3394
N1165 X5.7463 Y3.3212
N1170 X5.7047 Y3.2999
N1175 X5.6647 Y3.2759
N1180 X5.6259 Y3.25
N1185 X5.5881 Y3.2225
N1190 X5.5514 Y3.1936
N1195 X5.516 Y3.1632
N1200 X5.4823 Y3.1309
N1205 X5.4504 Y3.0968
N1210 X5.4208 Y3.0607
N1215 X5.3936 Y3.0227
N1220 X5.3691 Y2.983
N1225 X5.3476 Y2.9415
N1230 X5.3292 Y2.8986
N1235 X5.3141 Y2.8544
N1240 X5.3024 Y2.8092
N1245 X5.2942 Y2.7633
N1250 X5.2894 Y2.7168
N1255 X5.2881 Y2.6702
N1260 X5.2903 Y2.6235
N1265 X5.2958 Y2.5771
N1270 X5.3046 Y2.5313
N1275 X5.3168 Y2.4862
N1280 X5.3321 Y2.4421
N1285 X5.3505 Y2.3992
N1290 X5.3717 Y2.3576
N1295 X5.3957 Y2.3175
N1300 X5.4223 Y2.2791
N1305 X5.4514 Y2.2427
N1310 X5.4829 Y2.2082
N1315 X5.5166 Y2.1759
N1320 X5.5523 Y2.1457
N1325 X5.5898 Y2.1179
N1330 X5.629 Y2.0926
N1335 X5.6698 Y2.0699
N1340 X5.7119 Y2.0498
N1345 X5.7553 Y2.0324
N1350 X5.7996 Y2.0176
N1355 X5.8447 Y2.0056
N1360 X5.8905 Y1.9965
N1365 X5.9368 Y1.9903
N1370 X5.9833 Y1.987
N1375 X6.03 Y1.9864
N1380 X6.0767 Y1.9887
N1385 X6.1231 Y1.9939
N1390 X6.169 Y2.002
N1395 X6.2144 Y2.0129
N1400 X6.2591 Y2.0266
N1405 X6.3028 Y2.043
N1410 X6.3455 Y2.062
N1415 X6.3869 Y2.0836
N1420 X6.4268 Y2.1077
N1425 X6.4653 Y2.1342
N1430 X6.502 Y2.1631
N1435 X6.537 Y2.194
N1440 X6.57 Y2.227
N1445 X6.6009 Y2.262
N1450 X6.6296 Y2.2988
N1455 X6.656 Y2.3374
N1460 X6.68 Y2.3774
N1465 X6.7016 Y2.4188
N1470 X6.7206 Y2.4614
N1475 X6.7369 Y2.5052
N1480 X6.7504 Y2.5499
N1485 X6.7612 Y2.5953
N1490 X6.7693 Y2.6413
N1495 X6.7746 Y2.6877
N1500 X6.777 Y2.7343
N1505 X6.7765 Y2.781
N1510 X6.7731 Y2.8276
N1515 X6.767 Y2.8739
N1520 X6.7581 Y2.9197
N1525 X6.7464 Y2.9649
N1530 X6.732 Y3.0093
N1535 X6.7148 Y3.0527
N1540 X6.695 Y3.095
N1545 X6.6727 Y3.136
N1550 X6.648 Y3.1756
N1555 X6.6209 Y3.2137
N1560 X6.5914 Y3.2499
N1565 X6.5598 Y3.2842
N1570 X6.5261 Y3.3166
N1575 X6.4905 Y3.3468
N1580 X6.4532 Y3.3749
N1585 X6.4143 Y3.4007
N1590 X6.3738 Y3.4239
N1595 X6.3319 Y3.4446
N1600 X6.2889 Y3.4628
N1605 X6.2449 Y3.4784
N1610 X6.2 Y3.4913
N1615 X6.1545 Y3.5014
N1620 X6.1083 Y3.5086
N1625 X6.0618 Y3.513
N1630 X6.0152 Y3.5146
N1635 X5.9685 Y3.5133
N1640 X5.922 Y3.5093
N1645 X5.8758 Y3.5023
N1650 X5.8302 Y3.4924
N1655 X5.7852 Y3.4799
N1660 X5.7411 Y3.4646
N1665 X5.6979 Y3.4469
N1670 X5.6557 Y3.4268
N1675 X5.6146 Y3.4047
N1680 X5.5745 Y3.3808
N1685 X5.5355 Y3.3551
N1690 X5.4977 Y3.3277
N1695 X5.4611 Y3.2987
N1700 X5.4259 Y3.2681
N1705 X5.3921 Y3.2358
N1710 X5.36 Y3.2019
N1715 X5.3298 Y3.1663
N1720 X5.3015 Y3.1291
N1725 X5.2754 Y3.0904
N1730 X5.2515 Y3.0503
N1735 X5.23 Y3.0089
N1740 X5.211 Y2.9662
N1745 X5.1946 Y2.9225
N1750 X5.181 Y2.8778
N1755 X5.1701 Y2.8325
N1760 X5.1619 Y2.7865
N1765 X5.1565 Y2.7401
N1770 X5.154 Y2.6935
N1775 X5.1543 Y2.6468
N1780 X5.1575 Y2.6002
N1785 X5.1634 Y2.5539
N1790 X5.1721 Y2.508
N1795 X5.1834 Y2.4627
N1800 X5.1974 Y2.4182
N1805 X5.214 Y2.3745
N1810 X5.2331 Y2.3319
N1815 X5.2546 Y2.2904
N1820 X5.2783 Y2.2502
N1825 X5.3043 Y2.2114
N1830 X5.3324 Y2.1742
N1835 X5.3626 Y2.1386
N1840 X5.3947 Y2.1047
N1845 X5.4286 Y2.0726
N1850 X5.4642 Y2.0424
N1855 X5.5014 Y2.0141
N1860 X5.54 Y1.9879
N1865 X5.5801 Y1.9639
N1870 X5.6214 Y1.9421
N1875 X5.6637 Y1.9224
N1880 X5.7071 Y1.9051
N1885 X5.7513 Y1.89
N1890 X5.7962 Y1.8772
N1895 X5.8417 Y1.867
N1900 X5.8878 Y1.8591
N1905 X5.9341 Y1.8537
N1910 X5.9807 Y1.8506
N1915 X6.0274 Y1.85
N1920 X6.0741 Y1.8518
N1925 X6.1206 Y1.8561
N1930 X6.1668 Y1.8628
N1935 X6.2126 Y1.872
N1940 X6.2578 Y1.8835
N1945 X6.3024 Y1.8973
N1950 X6.3462 Y1.9134
N1955 X6.3892 Y1.9318
N1960 X6.4311 Y1.9523
N1965 X6.4718 Y1.9751
N1970 X6.5113 Y2.
N1975 X6.5495 Y2.0269
N1980 X6.5863 Y2.0556
N1985 X6.6216 Y2.0863
N1990 X6.6552 Y2.1187
N1995 X6.687 Y2.1528
N2000 X6.7171 Y2.1886
N2005 X6.7452 Y2.2258
N2010 X6.7714 Y2.2645
N2015 X6.7956 Y2.3044
N2020 X6.8177 Y2.3455
N2025 X6.8376 Y2.3878
N2030 X6.8552 Y2.431
N2035 X6.8706 Y2.4751
N2040 X6.8836 Y2.5199
N2045 X6.8944 Y2.5654
N2050 X6.9028 Y2.6113
N2055 X6.9089 Y2.6576
N2060 X6.9125 Y2.7041
N2065 X6.9136 Y2.7508
N2070 X6.9123 Y2.7975
N2075 X6.9086 Y2.844
N2080 X6.9026 Y2.8903
N2085 X6.8942 Y2.9363
N2090 X6.8835 Y2.9817
N2095 X6.8703 Y3.0265
N2100 X6.8548 Y3.0705
N2105 X6.837 Y3.1137
N2110 X6.8171 Y3.156
N2115 X6.7951 Y3.1971
N2120 X6.7709 Y3.2371
N2125 X6.7447 Y3.2757
N2130 X6.7164 Y3.3129
N2135 X6.6863 Y3.3485
N2140 X6.6543 Y3.3826
N2145 X6.6207 Y3.415
N2150 X6.5855 Y3.4456
N2155 X6.5487 Y3.4744
N2160 X6.5104 Y3.5011
N2165 X6.4708 Y3.5259
N2170 X6.43 Y3.5485
N2175 X6.3881 Y3.569
N2180 X6.3451 Y3.5874
N2185 X6.3013 Y3.6036
N2190 X6.2567 Y3.6174
N2195 X6.2115 Y3.6289
N2200 X6.1657 Y3.638
N2205 X6.1195 Y3.6447
N2210 X6.073 Y3.649
N2215 X6.0263 Y3.651
N2220 X5.9796 Y3.6505
N2225 X5.933 Y3.6476
N2230 X5.8867 Y3.6422
N2235 X5.8406 Y3.6344
N2240 X5.795 Y3.6243
N2245 X5.75 Y3.6119
N2250 X5.7057 Y3.5974
N2255 X5.662 Y3.5807
N2260 X5.6192 Y3.5621
N2265 X5.5772 Y3.5416
N2270 X5.5362 Y3.5194
N2275 X5.4961 Y3.4954
N2280 X5.4571 Y3.4698
N2285 X5.4191 Y3.4427
N2290 X5.3822 Y3.414
N2295 X5.3466 Y3.3839
N2300 X5.3122 Y3.3522
N2305 X5.2794 Y3.319
N2310 X5.2481 Y3.2844
N2315 X5.2184 Y3.2483
N2320 X5.1905 Y3.2109
N2325 X5.1643 Y3.1723
N2330 X5.1399 Y3.1324
N2335 X5.1177 Y3.0914
N2340 X5.0975 Y3.0493
N2345 X5.0795 Y3.0062
N2350 X5.0637 Y2.9623
N2355 X5.0501 Y2.9176
N2360 X5.0473 Y2.9063
N2365 X5.0446 Y2.8949
N2370 X5.0344 Y2.8493
N2375 X5.0266 Y2.8033
N2380 X5.0211 Y2.7569
N2385 X5.018 Y2.7103
N2390 X5.0174 Y2.6637
N2395 X5.0191 Y2.617
N2400 X5.0233 Y2.5705
N2405 X5.0237 Y2.5647
N2410 X5.0241 Y2.5587
N2415 X5.0246 Y2.5527
N2420 X5.0252 Y2.5467
N2425 X5.0257 Y2.5408
N2430 X5.0264 Y2.5348
N2435 X5.0271 Y2.5288
N2440 X5.0278 Y2.5229
N2445 X5.0286 Y2.5169
N2450 X5.0294 Y2.511
N2455 X5.0303 Y2.505
N2460 X5.0312 Y2.4989
N2465 X5.0323 Y2.4926
N2470 X5.0333 Y2.4866
N2475 X5.0343 Y2.4807
N2480 X5.0354 Y2.4748
N2485 X5.0366 Y2.469
N2490 X5.0378 Y2.4631
N2495 X5.039 Y2.4571
N2500 X5.0404 Y2.4509
N2505 X5.0418 Y2.4444
N2510 X5.0434 Y2.4379
N2515 X5.0448 Y2.4321
N2520 X5.0462 Y2.4263
N2525 X5.0477 Y2.4205
N2530 X5.0493 Y2.4147
N2535 X5.0509 Y2.4087
N2540 X5.0527 Y2.4025
N2545 X5.0545 Y2.396
N2550 X5.0565 Y2.3893
N2555 X5.0585 Y2.383
N2560 X5.0603 Y2.3772
N2565 X5.0621 Y2.3715
N2570 X5.064 Y2.3657
N2575 X5.066 Y2.3598
N2580 X5.0682 Y2.3535
N2585 X5.0705 Y2.3471
N2590 X5.0729 Y2.3404
N2595 X5.0754 Y2.3337
N2600 X5.0776 Y2.3279
N2605 X5.0798 Y2.3223
N2610 X5.0821 Y2.3165
N2615 X5.0845 Y2.3106
N2620 X5.087 Y2.3044
N2625 X5.0897 Y2.298
N2630 X5.0926 Y2.2914
N2635 X5.0956 Y2.2846
N2640 X5.0983 Y2.2786
N2645 X5.1008 Y2.2731
N2650 X5.1034 Y2.2675
N2655 X5.1062 Y2.2616
N2660 X5.1091 Y2.2556
N2665 X5.1122 Y2.2493
N2670 X5.1155 Y2.2428
N2675 X5.119 Y2.2361
N2680 X5.1221 Y2.23
N2685 X5.125 Y2.2246
N2690 X5.128 Y2.2191
N2695 X5.1311 Y2.2133
N2700 X5.1344 Y2.2074
N2705 X5.1379 Y2.2013
N2710 X5.1416 Y2.1949
N2715 X5.1455 Y2.1882
N2720 X5.1491 Y2.1823
N2725 X5.1523 Y2.177
N2730 X5.1557 Y2.1715
N2735 X5.1592 Y2.1659
N2740 X5.1629 Y2.1601
N2745 X5.1669 Y2.154
N2750 X5.171 Y2.1477
N2755 X5.1754 Y2.1412
N2760 X5.1792 Y2.1356
N2765 X5.1828 Y2.1304
N2770 X5.1866 Y2.125
N2775 X5.1905 Y2.1195
N2780 X5.1947 Y2.1137
N2785 X5.1991 Y2.1078
N2790 X5.2037 Y2.1016
N2795 X5.2084 Y2.0954
N2800 X5.2125 Y2.0901
N2805 X5.2165 Y2.085
N2810 X5.2207 Y2.0798
N2815 X5.225 Y2.0743
N2820 X5.2297 Y2.0687
N2825 X5.2345 Y2.0628
N2830 X5.2397 Y2.0567
N2835 X5.2445 Y2.051
N2840 X5.2488 Y2.0461
N2845 X5.2532 Y2.0412
N2850 X5.2578 Y2.036
N2855 X5.2626 Y2.0307
N2860 X5.2677 Y2.0252
N2865 X5.2731 Y2.0194
N2870 X5.2786 Y2.0136
N2875 X5.2835 Y2.0086
N2880 X5.288 Y2.0039
N2885 X5.2928 Y1.9991
N2890 X5.2978 Y1.9941
N2895 X5.3031 Y1.989
N2900 X5.3086 Y1.9836
N2905 X5.3144 Y1.9781
N2910 X5.3201 Y1.9728
N2915 X5.3249 Y1.9684
N2920 X5.3298 Y1.9639
N2925 X5.3349 Y1.9593
N2930 X5.3403 Y1.9545
N2935 X5.346 Y1.9496
N2940 X5.352 Y1.9445
N2945 X5.3582 Y1.9392
N2950 X5.3636 Y1.9347
N2955 X5.3687 Y1.9306
N2960 X5.374 Y1.9263
N2965 X5.3796 Y1.9218
N2970 X5.3854 Y1.9173
N2975 X5.3915 Y1.9125
N2980 X5.398 Y1.9076
N2985 X5.4042 Y1.903
N2990 X5.4095 Y1.8991
N2995 X5.415 Y1.8951
N3000 X5.4207 Y1.891
N3005 X5.4267 Y1.8868
N3010 X5.433 Y1.8824
N3015 X5.4396 Y1.8779
N3020 X5.4464 Y1.8733
N3025 X5.4522 Y1.8695
N3030 X5.4579 Y1.8658
N3035 X5.4638 Y1.8621
N3040 X5.4699 Y1.8582
N3045 X5.4764 Y1.8542
N3050 X5.4832 Y1.85
N3055 X5.4903 Y1.8457
N3060 X5.4967 Y1.842
N3065 X5.5025 Y1.8386
N3070 X5.5086 Y1.8352
N3075 X5.5149 Y1.8316
N3080 X5.5215 Y1.828
N3085 X5.5285 Y1.8242
N3090 X5.5358 Y1.8203
N3095 X5.5428 Y1.8166
N3100 X5.5488 Y1.8136
N3105 X5.555 Y1.8104
N3110 X5.5615 Y1.8072
N3115 X5.5682 Y1.804
N3120 X5.5753 Y1.8006
N3125 X5.5828 Y1.7971
N3130 X5.5903 Y1.7937
N3135 X5.5965 Y1.7909
N3140 X5.6028 Y1.7881
N3145 X5.6093 Y1.7853
N3150 X5.6161 Y1.7824
N3155 X5.6233 Y1.7794
N3160 X5.6308 Y1.7764
N3165 X5.6385 Y1.7733
N3170 X5.6452 Y1.7707
N3175 X5.6515 Y1.7683
N3180 X5.6581 Y1.7658
N3185 X5.665 Y1.7633
N3190 X5.6722 Y1.7608
N3195 X5.6798 Y1.7581
N3200 X5.6877 Y1.7554
N3205 X5.6949 Y1.7531
N3210 X5.7013 Y1.751
N3215 X5.708 Y1.7489
N3220 X5.7149 Y1.7468
N3225 X5.7222 Y1.7446
N3230 X5.7298 Y1.7424
N3235 X5.7378 Y1.7401
N3240 X5.7455 Y1.738
N3245 X5.7521 Y1.7362
N3250 X5.7588 Y1.7345
N3255 X5.7659 Y1.7327
N3260 X5.7732 Y1.7309
N3265 X5.785 Y1.7282
N3270 X5.7971 Y1.7255
N3275 X5.8039 Y1.724
N3280 X5.8107 Y1.7226
N3285 X5.8178 Y1.7212
N3290 X5.8253 Y1.7198
N3295 X5.833 Y1.7184
N3300 X5.8412 Y1.717
N3305 X5.8495 Y1.7156
N3310 X5.8564 Y1.7145
N3315 X5.8633 Y1.7134
N3320 X5.8705 Y1.7124
N3325 X5.878 Y1.7114
N3330 X5.8858 Y1.7103
N3335 X5.894 Y1.7093
N3340 X5.9024 Y1.7084
N3345 X5.9096 Y1.7076
N3350 X5.9164 Y1.7069
N3355 X5.9236 Y1.7062
N3360 X5.9311 Y1.7056
N3365 X5.9389 Y1.705
N3370 X5.9471 Y1.7044
N3375 X5.9556 Y1.7039
N3380 X5.9629 Y1.7035
N3385 X5.9697 Y1.7031
N3390 X5.9768 Y1.7029
N3395 X5.9842 Y1.7026
N3400 X5.9919 Y1.7024
N3405 X6. Y1.7022
N3410 X6.0085 Y1.7021
N3415 X6.0161
N3420 X6.0229
N3425 X6.0299 Y1.7022
N3430 X6.0373 Y1.7023
N3435 X6.0449 Y1.7025
N3440 X6.0529 Y1.7028
N3445 X6.0613 Y1.7031
N3450 X6.0693 Y1.7035
N3455 X6.0761 Y1.7039
N3460 X6.0831 Y1.7043
N3465 X6.0904 Y1.7048
N3470 X6.098 Y1.7054
N3475 X6.106 Y1.706
N3480 X6.1143 Y1.7068
N3485 X6.1224 Y1.7076
N3490 X6.1293 Y1.7083
N3495 X6.1363 Y1.7091
N3500 X6.1435 Y1.71
N3505 X6.1511 Y1.711
N3510 X6.159 Y1.7121
N3515 X6.1673 Y1.7132
N3520 X6.1755 Y1.7145
N3525 X6.1824 Y1.7156
N3530 X6.1894 Y1.7167
N3535 X6.1966 Y1.718
N3540 X6.2041 Y1.7193
N3545 X6.2119 Y1.7208
N3550 X6.2202 Y1.7224
N3555 X6.2284 Y1.7241
N3560 X6.2353 Y1.7256
N3565 X6.2422 Y1.7271
N3570 X6.2493 Y1.7287
N3575 X6.2567 Y1.7304
N3580 X6.2645 Y1.7323
N3585 X6.2726 Y1.7343
N3590 X6.2808 Y1.7365
N3595 X6.2877 Y1.7383
N3600 X6.2944 Y1.7401
N3605 X6.3013 Y1.7421
N3610 X6.3086 Y1.7442
N3615 X6.3161 Y1.7464
N3620 X6.3241 Y1.7488
N3625 X6.3322 Y1.7514
N3630 X6.3391 Y1.7536
N3635 X6.3456 Y1.7558
N3640 X6.3524 Y1.7581
N3645 X6.3595 Y1.7605
N3650 X6.3668 Y1.7631
N3655 X6.3745 Y1.7659
N3660 X6.3825 Y1.7689
N3665 X6.3895 Y1.7715
N3670 X6.3958 Y1.774
N3675 X6.4025 Y1.7766
N3680 X6.4094 Y1.7794
N3685 X6.4166 Y1.7824
N3690 X6.4241 Y1.7855
N3695 X6.4319 Y1.7889
N3700 X6.4389 Y1.792
N3705 X6.4452 Y1.7948
N3710 X6.4517 Y1.7978
N3715 X6.4584 Y1.8009
N3720 X6.4655 Y1.8042
N3725 X6.4728 Y1.8078
N3730 X6.4805 Y1.8116
N3735 X6.4874 Y1.8151
N3740 X6.4936 Y1.8182
N3745 X6.4999 Y1.8215
N3750 X6.5065 Y1.825
N3755 X6.5134 Y1.8287
N3760 X6.5206 Y1.8326
N3765 X6.528 Y1.8368
N3770 X6.5349 Y1.8407
N3775 X6.5409 Y1.8442
N3780 X6.5471 Y1.8478
N3785 X6.5535 Y1.8516
N3790 X6.5602 Y1.8557
N3795 X6.5672 Y1.86
N3800 X6.5744 Y1.8646
N3805 X6.5811 Y1.8689
N3810 X6.587 Y1.8726
N3815 X6.5929 Y1.8766
N3820 X6.5991 Y1.8807
N3825 X6.6056 Y1.8851
N3830 X6.6123 Y1.8897
N3835 X6.6193 Y1.8947
N3840 X6.6258 Y1.8993
N3845 X6.6314 Y1.9033
N3850 X6.6371 Y1.9075
N3855 X6.643 Y1.912
N3860 X6.6492 Y1.9166
N3865 X6.6556 Y1.9215
N3870 X6.6623 Y1.9268
N3875 X6.6686 Y1.9318
N3880 X6.674 Y1.9361
N3885 X6.6794 Y1.9406
N3890 X6.6851 Y1.9453
N3895 X6.6909 Y1.9502
N3900 X6.697 Y1.9554
N3905 X6.7034 Y1.9609
N3910 X6.7096 Y1.9664
N3915 X6.7148 Y1.971
N3920 X6.72 Y1.9757
N3925 X6.7254 Y1.9807
N3930 X6.731 Y1.9859
N3935 X6.7368 Y1.9914
N3940 X6.7428 Y1.9972
N3945 X6.7488 Y2.0031
N3950 X6.7538 Y2.008
N3955 X6.7588 Y2.013
N3960 X6.7639 Y2.0183
N3965 X6.7692 Y2.0238
N3970 X6.7747 Y2.0296
N3975 X6.7805 Y2.0357
N3980 X6.7862 Y2.0419
N3985 X6.791 Y2.0471
N3990 X6.7957 Y2.0524
N3995 X6.8006 Y2.0579
N4000 X6.8056 Y2.0637
N4005 X6.8108 Y2.0698
N4010 X6.8163 Y2.0762
N4015 X6.8217 Y2.0827
N4020 X6.8262 Y2.0882
N4025 X6.8307 Y2.0937
N4030 X6.8352 Y2.0995
N4035 X6.84 Y2.1055
N4040 X6.8449 Y2.1119
N4045 X6.85 Y2.1186
N4050 X6.8551 Y2.1254
N4055 X6.8594 Y2.1311
N4060 X6.8635 Y2.1368
N4065 X6.8677 Y2.1427
N4070 X6.8721 Y2.1489
N4075 X6.8767 Y2.1555
N4080 X6.8814 Y2.1624
N4085 X6.8861 Y2.1694
N4090 X6.8901 Y2.1754
N4095 X6.8939 Y2.1812
N4100 X6.8978 Y2.1873
N4105 X6.9018 Y2.1937
N4110 X6.9059 Y2.2004
N4115 X6.9102 Y2.2074
N4120 X6.9146 Y2.2147
N4125 X6.9183 Y2.221
N4130 X6.9218 Y2.227
N4135 X6.9253 Y2.2332
N4140 X6.929 Y2.2398
N4145 X6.9328 Y2.2466
N4150 X6.9367 Y2.2538
N4155 X6.9407 Y2.2614
N4160 X6.9442 Y2.268
N4165 X6.9473 Y2.2741
N4170 X6.9506 Y2.2805
N4175 X6.9539 Y2.2872
N4180 X6.9573 Y2.2943
N4185 X6.9608 Y2.3017
N4190 X6.9645 Y2.3094
N4195 X6.9677 Y2.3164
N4200 X6.9705 Y2.3227
N4205 X6.9734 Y2.3292
N4210 X6.9764 Y2.3361
N4215 X6.9795 Y2.3433
N4220 X6.9826 Y2.3509
N4225 X6.9859 Y2.3589
N4230 X6.9887 Y2.3661
N4235 X6.9912 Y2.3725
N4240 X6.9938 Y2.3793
N4245 X6.9964 Y2.3863
N4250 X6.9991 Y2.3937
N4255 X7.0019 Y2.4014
N4260 X7.0047 Y2.4096
N4265 X7.0072 Y2.417
N4270 X7.0094 Y2.4235
N4275 X7.0116 Y2.4304
N4280 X7.0139 Y2.4375
N4285 X7.0162 Y2.4451
N4290 X7.0186 Y2.4529
N4295 X7.021 Y2.4612
N4300 X7.0231 Y2.4687
N4305 X7.0249 Y2.4754
N4310 X7.0268 Y2.4822
N4315 X7.0287 Y2.4894
N4320 X7.0306 Y2.497
N4325 X7.0325 Y2.5049
N4330 X7.0345 Y2.5132
N4335 X7.037 Y2.5242
N4340 X7.0392 Y2.5345
N4345 X7.0407 Y2.5418
N4350 X7.0422 Y2.5493
N4355 X7.0437 Y2.5572
N4360 X7.0452 Y2.5655
N4365 X7.0466 Y2.5735
N4370 X7.0477 Y2.5803
N4375 X7.0489 Y2.5873
N4380 X7.05 Y2.5945
N4385 X7.0511 Y2.6021
N4390 X7.0522 Y2.6101
N4395 X7.0533 Y2.6185
N4400 X7.0543 Y2.6266
N4405 X7.0551 Y2.6335
N4410 X7.0558 Y2.6406
N4415 X7.0566 Y2.6479
N4420 X7.0573 Y2.6555
N4425 X7.058 Y2.6636
N4430 X7.0586 Y2.672
N4435 X7.0592 Y2.6803
N4440 X7.0597 Y2.6873
N4445 X7.0601 Y2.6943
N4450 X7.0604 Y2.7017
N4455 X7.0608 Y2.7094
N4460 X7.061 Y2.7175
N4465 X7.0613 Y2.726
N4470 X7.0614 Y2.7343
N4475 X7.0615 Y2.7414
N4480 X7.0616 Y2.7485
N4485 X7.0615 Y2.7559
N4490 Y2.7636
N4495 X7.0613 Y2.7717
N4500 X7.0611 Y2.7802
N4505 X7.0609 Y2.7886
N4510 X7.0606 Y2.7956
N4515 X7.0603 Y2.8027
N4520 X7.0599 Y2.8101
N4525 X7.0594 Y2.8178
N4530 X7.0588 Y2.8258
N4535 X7.0582 Y2.8342
N4540 X7.0575 Y2.8426
N4545 X7.0569 Y2.8496
N4550 X7.0562 Y2.8566
N4555 X7.0554 Y2.8638
N4560 X7.0546 Y2.8714
N4565 X7.0536 Y2.8793
N4570 X7.0526 Y2.8876
N4575 X7.0514 Y2.8959
N4580 X7.0504 Y2.903
N4585 X7.0494 Y2.9098
N4590 X7.0483 Y2.917
N4595 X7.0471 Y2.9245
N4600 X7.0457 Y2.9323
N4605 X7.0442 Y2.9404
N4610 X7.0427 Y2.9488
N4615 X7.0413 Y2.9559
N4620 X7.0399 Y2.9627
N4625 X7.0384 Y2.9697
N4630 X7.0368 Y2.9771
N4635 X7.0351 Y2.9848
N4640 X7.0332 Y2.9929
N4645 X7.0312 Y3.0012
N4650 X7.0294 Y3.0083
N4655 X7.0277 Y3.015
N4660 X7.0258 Y3.022
N4665 X7.0238 Y3.0293
N4670 X7.0217 Y3.0369
N4675 X7.0194 Y3.0449
N4680 X7.0169 Y3.0531
N4685 X7.0148 Y3.0602
N4690 X7.0127 Y3.0669
N4695 X7.0105 Y3.0738
N4700 X7.0081 Y3.081
N4705 X7.0056 Y3.0885
N4710 X7.0029 Y3.0964
N4715 X7. Y3.1045
N4720 X6.9974 Y3.1115
N4725 X6.995 Y3.1181
N4730 X6.9925 Y3.1248
N4735 X6.9897 Y3.1319
N4740 X6.9868 Y3.1393
N4745 X6.9837 Y3.147
N4750 X6.9804 Y3.155
N4755 X6.9775 Y3.1619
N4760 X6.9748 Y3.1682
N4765 X6.9719 Y3.1748
N4770 X6.9688 Y3.1817
N4775 X6.9656 Y3.1888
N4780 X6.9621 Y3.1962
N4785 X6.9584 Y3.204
N4790 X6.9551 Y3.2109
N4795 X6.9521 Y3.217
N4800 X6.9489 Y3.2234
N4805 X6.9456 Y3.23
N4810 X6.942 Y3.2368
N4815 X6.9382 Y3.244
N4820 X6.9342 Y3.2515
N4825 X6.9304 Y3.2584
N4830 X6.9271 Y3.2643
N4835 X6.9236 Y3.2705
N4840 X6.9199 Y3.2769
N4845 X6.916 Y3.2836
N4850 X6.9118 Y3.2905
N4855 X6.9075 Y3.2977
N4860 X6.9032 Y3.3045
N4865 X6.8996 Y3.3104
N4870 X6.8958 Y3.3163
N4875 X6.8918 Y3.3225
N4880 X6.8875 Y3.329
N4885 X6.8831 Y3.3357
N4890 X6.8783 Y3.3427
N4895 X6.8737 Y3.3494
N4900 X6.8697 Y3.3551
N4905 X6.8656 Y3.3609
N4910 X6.8612 Y3.3669
N4915 X6.8567 Y3.3731
N4920 X6.8518 Y3.3796
N4925 X6.8467 Y3.3863
N4930 X6.8417 Y3.3929
N4935 X6.8374 Y3.3984
N4940 X6.833 Y3.404
N4945 X6.8283 Y3.4097
N4950 X6.8234 Y3.4157
N4955 X6.8183 Y3.422
N4960 X6.8128 Y3.4285
N4965 X6.8074 Y3.4348
N4970 X6.8028 Y3.4401
N4975 X6.7981 Y3.4454
N4980 X6.7932 Y3.4509
N4985 X6.788 Y3.4567
N4990 X6.7825 Y3.4626
N4995 X6.7768 Y3.4688
N5000 X6.771 Y3.4749
N5005 X6.7662 Y3.4799
N5010 X6.7613 Y3.4849
N5015 X6.7562 Y3.4901
N5020 X6.7508 Y3.4955
N5025 X6.7451 Y3.5011
N5030 X6.739 Y3.5069
N5035 X6.733 Y3.5127
N5040 X6.7278 Y3.5175
N5045 X6.7227 Y3.5223
N5050 X6.7174 Y3.5272
N5055 X6.7117 Y3.5322
N5060 X6.7058 Y3.5375
N5065 X6.6995 Y3.543
N5070 X6.6931 Y3.5485
N5075 X6.6877 Y3.5531
N5080 X6.6823 Y3.5575
N5085 X6.6767 Y3.5622
N5090 X6.6708 Y3.5669
N5095 X6.6646 Y3.5719
N5100 X6.6581 Y3.577
N5105 X6.6514 Y3.5822
N5110 X6.6456 Y3.5866
N5115 X6.64 Y3.5908
N5120 X6.6342 Y3.5951
N5125 X6.6281 Y3.5996
N5130 X6.6216 Y3.6042
N5135 X6.6148 Y3.609
N5140 X6.6078 Y3.6139
N5145 X6.6017 Y3.618
N5150 X6.5959 Y3.6219
N5155 X6.5899 Y3.626
N5160 X6.5835 Y3.6301
N5165 X6.5768 Y3.6344
N5170 X6.5697 Y3.6389
N5175 X6.5624 Y3.6434
N5180 X6.5561 Y3.6473
N5185 X6.5501 Y3.6509
N5190 X6.5438 Y3.6546
N5195 X6.5372 Y3.6584
N5200 X6.5303 Y3.6624
N5205 X6.523 Y3.6665
N5210 X6.5154 Y3.6707
N5215 X6.5089 Y3.6742
N5220 X6.5028 Y3.6775
N5225 X6.4964 Y3.6809
N5230 X6.4896 Y3.6843
N5235 X6.4825 Y3.6879
N5240 X6.4751 Y3.6916
N5245 X6.4673 Y3.6954
N5250 X6.4607 Y3.6986
N5255 X6.4544 Y3.7015
N5260 X6.4479 Y3.7045
N5265 X6.4411 Y3.7076
N5270 X6.4339 Y3.7107
N5275 X6.4264 Y3.714
N5280 X6.4185 Y3.7174
N5285 X6.4115 Y3.7203
N5290 X6.4052 Y3.7229
N5295 X6.3985 Y3.7255
N5300 X6.3916 Y3.7282
N5305 X6.3843 Y3.731
N5310 X6.3767 Y3.7339
N5315 X6.3686 Y3.7368
N5320 X6.3614 Y3.7394
N5325 X6.3549 Y3.7417
N5330 X6.3482 Y3.744
N5335 X6.3411 Y3.7463
N5340 X6.3337 Y3.7487
N5345 X6.3259 Y3.7512
N5350 X6.3178 Y3.7537
N5355 X6.3102 Y3.756
N5360 X6.3036 Y3.7579
N5365 X6.2967 Y3.7598
N5370 X6.2896 Y3.7618
N5375 X6.282 Y3.7639
N5380 X6.2741 Y3.7659
N5385 X6.2658 Y3.768
N5390 X6.2581 Y3.7699
N5395 X6.2514 Y3.7715
N5400 X6.2407 Y3.7739
N5405 X6.2293 Y3.7764
N5410 X6.2213 Y3.7781
N5415 X6.2129 Y3.7797
N5420 X6.2051 Y3.7812
N5425 X6.1982 Y3.7825
N5430 X6.1912 Y3.7837
N5435 X6.1838 Y3.785
N5440 X6.1761 Y3.7862
N5445 X6.168 Y3.7875
N5450 X6.1595 Y3.7887
N5455 X6.1516 Y3.7898
N5460 X6.1448 Y3.7907
N5465 X6.1377 Y3.7916
N5470 X6.1304 Y3.7924
N5475 X6.1227 Y3.7933
N5480 X6.1147 Y3.7941
N5485 X6.1062 Y3.7949
N5490 X6.0981 Y3.7956
N5495 X6.0913 Y3.7961
N5500 X6.0843 Y3.7966
N5505 X6.0769 Y3.7971
N5510 X6.0693 Y3.7975
N5515 X6.0613 Y3.7979
N5520 X6.0529 Y3.7983
N5525 X6.0447 Y3.7986
N5530 X6.0377 Y3.7988
N5535 X6.0307 Y3.7989
N5540 X6.0234 Y3.799
N5545 X6.0158
N5550 X6.0078
N5555 X5.9995
N5560 X5.9911 Y3.7988
N5565 X5.9841 Y3.7987
N5570 X5.977 Y3.7984
N5575 X5.9697 Y3.7982
N5580 X5.9621 Y3.7978
N5585 X5.9541 Y3.7974
N5590 X5.9458 Y3.7969
N5595 X5.9373 Y3.7963
N5600 X5.9302 Y3.7958
N5605 X5.9232 Y3.7952
N5610 X5.9158 Y3.7945
N5615 X5.9081 Y3.7938
N5620 X5.9001 Y3.793
N5625 X5.8917 Y3.792
N5630 X5.8833 Y3.791
N5635 X5.8762 Y3.7901
N5640 X5.8691 Y3.7891
N5645 X5.8616 Y3.7881
N5650 X5.8539 Y3.7869
N5655 X5.8458 Y3.7857
N5660 X5.8373 Y3.7843
N5665 X5.8289 Y3.7828
N5670 X5.8219 Y3.7816
N5675 X5.8146 Y3.7802
N5680 X5.8071 Y3.7787
N5685 X5.7992 Y3.7771
N5690 X5.7909 Y3.7754
N5695 X5.7822 Y3.7735
N5700 X5.7743 Y3.7717
N5705 X5.7672 Y3.7701
N5710 X5.7598 Y3.7683
N5715 X5.7521 Y3.7664
N5720 X5.744 Y3.7643
N5725 X5.7355 Y3.7621
N5730 X5.7269 Y3.7597
N5735 X5.7195 Y3.7576
N5740 X5.7122 Y3.7555
N5745 X5.7046 Y3.7533
N5750 X5.6966 Y3.7509
N5755 X5.6883 Y3.7483
N5760 X5.6795 Y3.7455
N5765 X5.6716 Y3.7429
N5770 X5.6643 Y3.7404
N5775 X5.6567 Y3.7378
N5780 X5.6488 Y3.735
N5785 X5.6405 Y3.732
N5790 X5.6318 Y3.7288
N5795 X5.6234 Y3.7256
N5800 X5.6161 Y3.7228
N5805 X5.6086 Y3.7198
N5810 X5.6006 Y3.7166
N5815 X5.5924 Y3.7132
N5820 X5.5836 Y3.7096
N5825 X5.5751 Y3.7059
N5830 X5.5678 Y3.7027
N5835 X5.5602 Y3.6993
N5840 X5.5523 Y3.6957
N5845 X5.5439 Y3.6918
N5850 X5.5352 Y3.6877
N5855 X5.5267 Y3.6836
N5860 X5.5194 Y3.68
N5865 X5.5118 Y3.6762
N5870 X5.5039 Y3.6722
N5875 X5.4956 Y3.6679
N5880 X5.4868 Y3.6632
N5885 X5.4786 Y3.6589
N5890 X5.4714 Y3.6549
N5895 X5.4638 Y3.6507
N5900 X5.4558 Y3.6462
N5905 X5.4475 Y3.6414
N5910 X5.4387 Y3.6362
N5915 X5.4311 Y3.6317
N5920 X5.4239 Y3.6273
N5925 X5.4164 Y3.6227
N5930 X5.4085 Y3.6178
N5935 X5.4002 Y3.6125
N5940 X5.3916 Y3.6069
N5945 X5.3845 Y3.6023
N5950 X5.3775 Y3.5976
N5955 X5.3701 Y3.5926
N5960 X5.3624 Y3.5873
N5965 X5.3543 Y3.5816
N5970 X5.3462 Y3.5759
N5975 X5.3396 Y3.5711
N5980 X5.3328 Y3.5661
N5985 X5.3257 Y3.5609
N5990 X5.3183 Y3.5553
N5995 X5.3106 Y3.5493
N6000 X5.3029 Y3.5433
N6005 X5.2966 Y3.5383
N6010 X5.2901 Y3.5331
N6015 X5.2834 Y3.5276
N6020 X5.2763 Y3.5218
N6025 X5.2689 Y3.5156
N6030 X5.2616 Y3.5093
N6035 X5.2556 Y3.5041
N6040 X5.2494 Y3.4987
N6045 X5.243 Y3.493
N6050 X5.2363 Y3.4869
N6055 X5.2292 Y3.4805
N6060 X5.2222 Y3.4739
N6065 X5.2164 Y3.4685
N6070 X5.2106 Y3.4629
N6075 X5.2045 Y3.457
N6080 X5.1982 Y3.4507
N6085 X5.1916 Y3.444
N6090 X5.1848 Y3.4372
N6095 X5.1792 Y3.4314
N6100 X5.1737 Y3.4257
N6105 X5.168 Y3.4196
N6110 X5.1621 Y3.4132
N6115 X5.1559 Y3.4064
N6120 X5.1494 Y3.3992
N6125 X5.144 Y3.3931
N6130 X5.1388 Y3.3872
N6135 X5.1335 Y3.381
N6140 X5.128 Y3.3745
N6145 X5.1223 Y3.3676
N6150 X5.1162 Y3.3603
N6155 X5.1107 Y3.3535
N6160 X5.106 Y3.3477
N6165 X5.1012 Y3.3415
N6170 X5.0962 Y3.335
N6175 X5.091 Y3.3282
N6180 X5.0855 Y3.321
N6185 X5.08 Y3.3136
N6190 X5.0755 Y3.3074
N6195 X5.0712 Y3.3013
N6200 X5.0666 Y3.2949
N6205 X5.0619 Y3.2882
N6210 X5.0571 Y3.2811
N6215 X5.052 Y3.2736
N6220 X5.0291 Y3.2329
N6225 X5.0074 Y3.1916
N6230 X4.987 Y3.1496
N6235 X4.968 Y3.1069
N6240 X4.9507 Y3.0635
N6245 X4.9352 Y3.0195
N6250 X4.9317 Y3.0083
N6255 X4.9268 Y2.9977
N6260 X4.9143 Y2.978
N6265 X4.8799 Y2.9465
N6270 X4.8419 Y2.9193
N6275 X4.8217 Y2.905
N6280 X4.8097 Y2.8947
N6285 X4.7997 Y2.8825
N6290 X4.7921 Y2.8687
N6295 X4.7871 Y2.8538
N6300 X4.7849 Y2.8382
N6305 X4.7831 Y2.8041
N6310 Y2.7981
N6315 X4.8039 Y2.7563
N6320 X4.8207 Y2.7128
N6325 X4.8344 Y2.6681
N6330 X4.8461 Y2.6229
N6335 X4.8569 Y2.5775
N6340 X4.8675 Y2.532
N6345 X4.8785 Y2.4866
N6350 X4.8902 Y2.4415
N6355 X4.9031 Y2.3966
N6360 X4.9174 Y2.3521
N6365 X4.9331 Y2.3082
N6370 X4.9504 Y2.2648
N6375 X4.9694 Y2.2221
N6380 X4.9901 Y2.1803
N6385 X5.0124 Y2.1392
N6390 X5.0363 Y2.0992
N6395 X5.0619 Y2.0601
N6400 X5.0891 Y2.0222
N6405 X5.1179 Y1.9854
N6410 X5.1481 Y1.9498
N6415 X5.1798 Y1.9155
N6420 X5.2128 Y1.8825
N6425 X5.2472 Y1.8509
N6430 X5.2829 Y1.8208
N6435 X5.3198 Y1.7921
N6440 X5.3578 Y1.765
N6445 X5.3968 Y1.7395
N6450 X5.4369 Y1.7155
N6455 X5.4779 Y1.6932
N6460 X5.5198 Y1.6725
N6465 X5.5625 Y1.6536
N6470 X5.6059 Y1.6364
N6475 X5.65 Y1.6209
N6480 X5.6946 Y1.6073
N6485 X5.7398 Y1.5954
N6490 X5.7808 Y1.5732
N6495 X5.8134 Y1.5472
N6500 X5.8259 Y1.5389
N6505 X5.8396 Y1.5328
N6510 X5.8542 Y1.5292
N6515 X5.8607 Y1.5282
N6520 X5.8719 Y1.5267
N6525 X5.8944 Y1.5244
N6530 X5.9057 Y1.5234
N6535 X5.9609 Y1.5205
N6540 X5.9669
N6545 X6.0125 Y1.5303
N6550 X6.0583 Y1.5392
N6555 X6.1042 Y1.5479
N6560 X6.1501 Y1.5568
N6565 X6.1958 Y1.5663
N6570 X6.2413 Y1.5767
N6575 X6.2865 Y1.5883
N6580 X6.3314 Y1.6012
N6585 X6.3758 Y1.6155
N6590 X6.4198 Y1.6313
N6595 X6.4631 Y1.6487
N6600 X6.5058 Y1.6676
N6605 X6.5478 Y1.688
N6610 X6.589 Y1.71
N6615 X6.6293 Y1.7336
N6620 X6.6687 Y1.7586
N6625 X6.7071 Y1.7852
N6630 X6.7444 Y1.8133
N6635 X6.7806 Y1.8428
N6640 X6.8156 Y1.8737
N6645 X6.8494 Y1.9059
N6650 X6.8819 Y1.9394
N6655 X6.9131 Y1.9742
N6660 X6.9429 Y2.0101
N6665 X6.9712 Y2.0472
N6670 X6.9981 Y2.0854
N6675 X7.0234 Y2.1246
N6680 X7.0472 Y2.1648
N6685 X7.0694 Y2.2059
N6690 X7.09 Y2.2478
N6695 X7.1089 Y2.2905
N6700 X7.1261 Y2.3339
N6705 X7.1416 Y2.3779
N6710 X7.1553 Y2.4226
N6715 X7.1673 Y2.4677
N6720 X7.1866 Y2.5102
N6725 X7.2145 Y2.5476
N6730 X7.2229 Y2.5596
N6735 X7.229 Y2.5728
N6740 X7.2325 Y2.5869
N6745 X7.2343 Y2.5982
N6750 X7.2358 Y2.6095
N6755 X7.2381 Y2.6319
N6760 X7.2391 Y2.6432
N6765 X7.242 Y2.6984
N6770 Y2.7044
N6775 X7.2324 Y2.7501
N6780 X7.2237 Y2.7959
N6785 X7.2151 Y2.8418
N6790 X7.2063 Y2.8877
N6795 X7.1968 Y2.9334
N6800 X7.1864 Y2.9789
N6805 X7.1748 Y3.0241
N6810 X7.1619 Y3.069
N6815 X7.1476 Y3.1135
N6820 X7.1318 Y3.1574
N6825 X7.1144 Y3.2008
N6830 X7.0955 Y3.2435
N6835 X7.0751 Y3.2854
N6840 X7.0531 Y3.3266
N6845 X7.0295 Y3.3669
N6850 X7.0044 Y3.4063
N6855 X6.9778 Y3.4447
N6860 X6.9497 Y3.482
N6865 X6.9202 Y3.5182
N6870 X6.8893 Y3.5532
N6875 X6.8571 Y3.587
N6880 X6.8236 Y3.6194
N6885 X6.7888 Y3.6506
N6890 X6.7528 Y3.6804
N6895 X6.7157 Y3.7087
N6900 X6.6775 Y3.7356
N6905 X6.6383 Y3.7609
N6910 X6.5981 Y3.7847
N6915 X6.557 Y3.8069
N6920 X6.5151 Y3.8274
N6925 X6.4724 Y3.8463
N6930 X6.429 Y3.8635
N6935 X6.385 Y3.879
N6940 X6.3403 Y3.8928
N6945 X6.2952 Y3.9048
N6950 X6.2527 Y3.924
N6955 X6.2152 Y3.9518
N6960 X6.2031 Y3.9603
N6965 X6.1896 Y3.9665
N6970 X6.1753 Y3.9701
N6975 X6.1643 Y3.9718
N6980 X6.153 Y3.9733
N6985 X6.1305 Y3.9756
N6990 X6.1193 Y3.9766
N6995 X6.0641 Y3.9795
N7000 X6.0581
N7005 X6.0124 Y3.9699
N7010 X5.9666 Y3.9611
N7015 X5.9207 Y3.9526
N7020 X5.8748 Y3.9437
N7025 X5.8291 Y3.9343
N7030 X5.7836 Y3.9239
N7035 X5.7383 Y3.9125
N7040 X5.6933 Y3.8998
N7045 X5.6488 Y3.8859
N7050 X5.6047 Y3.8705
N7055 X5.5611 Y3.8538
N7060 X5.5181 Y3.8357
N7065 X5.4756 Y3.8162
N7070 X5.4339 Y3.7953
N7075 X5.3928 Y3.773
N7080 X5.3526 Y3.7494
N7085 X5.3131 Y3.7245
N7090 X5.2745 Y3.6982
N7095 X5.2368 Y3.6706
N7100 X5.2001 Y3.6418
N7105 X5.1643 Y3.6117
N7110 X5.1297 Y3.5805
N7115 X5.0961 Y3.548
N7120 X5.0637 Y3.5144
N7125 X5.0326 Y3.4796
N7130 X5.0028 Y3.4436
N7135 X4.9748 Y3.4063
N7140 X4.9484 Y3.3678
N7145 X4.94 Y3.3544
N7150 X4.9387 Y3.3523
N7155 X4.9375 Y3.3502
N7160 X4.9363 Y3.3481
N7165 X4.9265 Y3.3291
N7170 X4.8921 Y3.2616
N7175 X4.8869 Y3.2504
N7180 X4.8825 Y3.2398
N7185 X4.8487 Y3.1519
N7190 X4.8477 Y3.1492
N7195 X4.8366 Y3.1154
N7200 X4.8335 Y3.1042
N7205 X4.8124 Y3.0255
N7210 X4.8095 Y3.0142
N7215 X4.8067 Y3.003
N7220 X4.7907 Y2.9018
N7225 X4.7892 Y2.8905
N7230 X4.7869 Y2.8681
N7235 X4.7859 Y2.8568
N7240 X4.7849 Y2.8382
N7245 X4.785 Y2.8342 F100.
N7250 X4.7856 Y2.8303
N7255 G2 X4.785 Y2.815 I-0.0332 J-0.0065
N7260 G3 X4.7831 Y2.8041 I0.0601 J-0.0163
N7265 G1 X4.7806 Y2.7556 F50.
N7270 Y2.7444
N7275 X4.7859 Y2.6432
N7280 X4.7869 Y2.6319
N7285 X4.7892 Y2.6095
N7290 X4.7907 Y2.5982
N7295 X4.8067 Y2.497
N7300 X4.8095 Y2.4858
N7305 X4.8124 Y2.4745
N7310 X4.8335 Y2.3958
N7315 X4.8366 Y2.3846
N7320 X4.8477 Y2.3508
N7325 X4.8487 Y2.3481
N7330 X4.8825 Y2.2602
N7335 X4.8869 Y2.2496
N7340 X4.8921 Y2.2384
N7345 X4.9274 Y2.1691
N7350 X4.944 Y2.1372
N7355 X4.9499 Y2.1269
N7360 X4.9949 Y2.0577
N7365 X5.0174 Y2.0238
N7370 X5.0255 Y2.0135
N7375 X5.0736 Y1.9541
N7380 X5.0803 Y1.9461
N7385 X5.0994 Y1.9236
N7390 X5.1073 Y1.9149
N7395 X5.1774 Y1.8449
N7400 X5.1861 Y1.8369
N7405 X5.2085 Y1.8178
N7410 X5.2166 Y1.8111
N7415 X5.276 Y1.763
N7420 X5.2863 Y1.7549
N7425 X5.321 Y1.7319
N7430 X5.3893 Y1.6874
N7435 X5.3997 Y1.6815
N7440 X5.4334 Y1.664
N7445 X5.5009 Y1.6296
N7450 X5.5121 Y1.6244
N7455 X5.5226 Y1.62
N7460 X5.6105 Y1.5863
N7465 X5.6133 Y1.5852
N7470 X5.6471 Y1.5741
N7475 X5.6583 Y1.571
N7480 X5.737 Y1.5499
N7485 X5.7482 Y1.547
N7490 X5.7595 Y1.5442
N7495 X5.8542 Y1.5292
N7500 X5.8558 Y1.529
N7505 X5.8851 Y1.5267
N7510 X5.93 Y1.523 F100.
N7515 X5.9609 Y1.5205
N7520 X6.0069 Y1.5181 F50.
N7525 X6.0181
N7530 X6.1193 Y1.5234
N7535 X6.1305 Y1.5244
N7540 X6.153 Y1.5267
N7545 X6.1643 Y1.5282
N7550 X6.2655 Y1.5442
N7555 X6.2767 Y1.547
N7560 X6.288 Y1.5499
N7565 X6.3667 Y1.571
N7570 X6.3779 Y1.5741
N7575 X6.4116 Y1.5852
N7580 X6.4145 Y1.5863
N7585 X6.5024 Y1.62
N7590 X6.5128 Y1.6244
N7595 X6.5241 Y1.6296
N7600 X6.5934 Y1.665
N7605 X6.6253 Y1.6815
N7610 X6.6356 Y1.6874
N7615 X6.7049 Y1.7324
N7620 X6.7387 Y1.7549
N7625 X6.749 Y1.763
N7630 X6.8084 Y1.8111
N7635 X6.8164 Y1.8178
N7640 X6.8389 Y1.8368
N7645 X6.8476 Y1.8449
N7650 X6.9176 Y1.9149
N7655 X6.9256 Y1.9236
N7660 X6.9447 Y1.9461
N7665 X6.9513 Y1.9541
N7670 X6.9995 Y2.0135
N7675 X7.0076 Y2.0237
N7680 X7.0307 Y2.0585
N7685 X7.075 Y2.1268
N7690 X7.081 Y2.1372
N7695 X7.0985 Y2.1709
N7700 X7.1329 Y2.2384
N7705 X7.1381 Y2.2496
N7710 X7.1425 Y2.2601
N7715 X7.1762 Y2.348
N7720 X7.1773 Y2.3508
N7725 X7.1884 Y2.3846
N7730 X7.1915 Y2.3958
N7735 X7.2126 Y2.4745
N7740 X7.2155 Y2.4858
N7745 X7.2183 Y2.497
N7750 X7.2325 Y2.5869
N7755 X7.2327 Y2.5883
N7760 X7.2352 Y2.6177
N7765 X7.2394 Y2.6676 F100.
N7770 X7.242 Y2.6984
N7775 X7.2444 Y2.7444 F50.
N7780 Y2.7556
N7785 X7.2391 Y2.8568
N7790 X7.2381 Y2.8681
N7795 X7.2358 Y2.8905
N7800 X7.2343 Y2.9018
N7805 X7.2183 Y3.003
N7810 X7.2155 Y3.0142
N7815 X7.2126 Y3.0255
N7820 X7.1915 Y3.1042
N7825 X7.1884 Y3.1154
N7830 X7.1773 Y3.1492
N7835 X7.1762 Y3.152
N7840 X7.1425 Y3.2399
N7845 X7.1381 Y3.2504
N7850 X7.1329 Y3.2616
N7855 X7.0975 Y3.331
N7860 X7.081 Y3.3628
N7865 X7.075 Y3.3732
N7870 X7.0301 Y3.4424
N7875 X7.0076 Y3.4763
N7880 X6.9995 Y3.4865
N7885 X6.9513 Y3.5459
N7890 X6.9447 Y3.5539
N7895 X6.9256 Y3.5764
N7900 X6.9176 Y3.5851
N7905 X6.8476 Y3.6551
N7910 X6.8389 Y3.6632
N7915 X6.8164 Y3.6822
N7920 X6.8084 Y3.6889
N7925 X6.749 Y3.737
N7930 X6.7387 Y3.7451
N7935 X6.704 Y3.7682
N7940 X6.6357 Y3.8126
N7945 X6.6253 Y3.8185
N7950 X6.5915 Y3.836
N7955 X6.5241 Y3.8704
N7960 X6.5128 Y3.8756
N7965 X6.5024 Y3.88
N7970 X6.4145 Y3.9137
N7975 X6.4116 Y3.9148
N7980 X6.3779 Y3.9259
N7985 X6.3667 Y3.929
N7990 X6.288 Y3.9501
N7995 X6.2767 Y3.9531
N8000 X6.2655 Y3.9558
N8005 X6.1753 Y3.9701
N8010 X6.1738 Y3.9702
N8015 X6.1444 Y3.9727
N8020 X6.0949 Y3.9769 F100.
N8025 X6.0641 Y3.9795
N8030 X6.0181 Y3.9819 F50.
N8035 X6.0069
N8040 X5.9057 Y3.9766
N8045 X5.8944 Y3.9756
N8050 X5.8719 Y3.9733
N8055 X5.8607 Y3.9718
N8060 X5.7595 Y3.9558
N8065 X5.7482 Y3.953
N8070 X5.737 Y3.9501
N8075 X5.6583 Y3.929
N8080 X5.6471 Y3.9259
N8085 X5.6133 Y3.9148
N8090 X5.6105 Y3.9137
N8095 X5.5226 Y3.88
N8100 X5.5121 Y3.8756
N8105 X5.5009 Y3.8704
N8110 X5.4315 Y3.835
N8115 X5.3997 Y3.8185
N8120 X5.3893 Y3.8126
N8125 X5.3201 Y3.7676
N8130 X5.2863 Y3.7451
N8135 X5.276 Y3.737
N8140 X5.2166 Y3.6889
N8145 X5.2085 Y3.6822
N8150 X5.1861 Y3.6631
N8155 X5.1774 Y3.6551
N8160 X5.1073 Y3.5851
N8165 X5.0994 Y3.5764
N8170 X5.0803 Y3.5539
N8175 X5.0736 Y3.5459
N8180 X5.0255 Y3.4865
N8185 X5.0174 Y3.4762
N8190 X4.9943 Y3.4415
N8195 X4.9499 Y3.3731
N8200 X4.944 Y3.3628
N8205 X4.9363 Y3.3481
N8210 X4.9353 Y3.3446 Z-0.0998
N8215 X4.9342 Y3.3411 Z-0.0991
N8220 X4.9332 Y3.3377 Z-0.098
N8225 X4.9329 Y3.3348 Z-0.0967
N8230 X4.9327 Y3.332 Z-0.0951
N8235 X4.9332 Y3.3287 Z-0.0927
N8240 X4.9336 Y3.3258 Z-0.0899
N8245 X4.934 Y3.3233 Z-0.0867
N8250 X4.9343 Y3.3213 Z-0.0833
N8255 X4.9348 Y3.3199 Z-0.0799
N8260 X4.9351 Y3.3188 Z-0.0764
N8265 X4.9353 Y3.3182 Z-0.0728
N8270 X4.9354 Y3.318 Z-0.0691
N8275 G0 Z0.2
N8280 G1 X6.0097 Y2.6665 F300.
N8285 G0 Z0.
N8290 G1 X6.0095 Y2.6667 Z-0.0112 F100.
N8295 X6.0087 Y2.6672 Z-0.0224
N8300 X6.0074 Y2.6681 Z-0.0335
N8305 X6.0056 Y2.6694 Z-0.0445
N8310 X6.0033 Y2.671 Z-0.0554
N8315 X6.0006 Y2.673 Z-0.0661
N8320 X5.9973 Y2.6753 Z-0.0765
N8325 X5.9936 Y2.6779 Z-0.0868
N8330 X5.9894 Y2.6809 Z-0.0967
N8335 X5.9847 Y2.6842 Z-0.1064
N8340 X5.9796 Y2.6878 Z-0.1157
N8345 X5.9741 Y2.6917 Z-0.1247
N8350 X5.9682 Y2.6959 Z-0.1333
N8355 X5.9619 Y2.7004 Z-0.1414
N8360 X5.9553 Y2.7051 Z-0.1491
N8365 X5.9483 Y2.7101 Z-0.1564
N8370 X5.941 Y2.7152 Z-0.1631
N8375 X5.9334 Y2.7206 Z-0.1693
N8380 X5.9255 Y2.7262 Z-0.175
N8385 X5.9174 Y2.732 Z-0.1802
N8390 X5.909 Y2.7379 Z-0.1848
N8395 X5.9005 Y2.744 Z-0.1888
N8400 X5.8918 Y2.7502 Z-0.1922
N8405 X5.8829 Y2.7565 Z-0.195
N8410 X5.8739 Y2.7628 Z-0.1972
N8415 X5.8649 Y2.7693 Z-0.1987
N8420 X5.8558 Y2.7757 Z-0.1997
N8425 X5.8466 Y2.7822 Z-0.2
N8430 G3 X5.6666 Y2.8828 I-0.5541 J-0.7807
N8435 G1 X5.661 Y2.885 F50.
N8440 X5.655 Y2.8845
N8445 X5.6491 Y2.8834
N8450 X5.6434 Y2.8815
N8455 X5.6367 Y2.8785
N8460 X5.6287 Y2.8742
N8465 X5.6211 Y2.8693
N8470 X5.6139 Y2.8639
N8475 X5.6058 Y2.8565
N8480 X5.5966 Y2.8468
N8485 X5.5866 Y2.8343
N8490 X5.5792 Y2.8234
N8495 X5.5714 Y2.8096
N8500 X5.5632 Y2.7921
N8505 X5.5559 Y2.7722
N8510 X5.5507 Y2.7538
N8515 X5.5462 Y2.731
N8520 X5.5431 Y2.7036
N8525 X5.5423 Y2.6807
N8530 X5.5436 Y2.6523
N8535 X5.5476 Y2.6215
N8540 X5.5533 Y2.594
N8545 X5.5634 Y2.56
N8550 X5.5744 Y2.5316
N8555 X5.5895 Y2.5001
N8560 X5.6077 Y2.469
N8565 X5.6275 Y2.4407
N8570 X5.6529 Y2.4099
N8575 X5.6765 Y2.3855
N8580 X5.7085 Y2.3574
N8585 X5.7354 Y2.3374
N8590 X5.7724 Y2.3142
N8595 X5.8025 Y2.2985
N8600 X5.8421 Y2.2818
N8605 X5.8761 Y2.2706
N8610 X5.9172 Y2.2606
N8615 X5.954 Y2.2547
N8620 X5.9955 Y2.2515
N8625 X6.0339 Y2.2516
N8630 X6.0746 Y2.255
N8635 X6.1134 Y2.2614
N8640 X6.1524 Y2.2711
N8645 X6.1904 Y2.2838
N8650 X6.2269 Y2.2994
N8655 X6.263 Y2.3184
N8660 X6.2959 Y2.3393
N8665 X6.3291 Y2.3642
N8670 X6.3578 Y2.3897
N8675 X6.3869 Y2.4201
N8680 X6.4108 Y2.4494
N8685 X6.4351 Y2.4845
N8690 X6.4537 Y2.5168
N8695 X6.4723 Y2.5559
N8700 X6.4853 Y2.5902
N8705 X6.4975 Y2.6322
N8710 X6.5048 Y2.6676
N8715 X6.5102 Y2.7116
N8720 X6.5117 Y2.7473
N8725 X6.51 Y2.7922
N8730 X6.5058 Y2.827
N8735 X6.4968 Y2.8716
N8740 X6.4872 Y2.9048
N8745 X6.4713 Y2.9473
N8750 X6.4565 Y2.9787
N8755 X6.4343 Y3.0174
N8760 X6.414 Y3.0469
N8765 X6.3864 Y3.081
N8770 X6.3611 Y3.1075
N8775 X6.3289 Y3.1363
N8780 X6.2991 Y3.1588
N8785 X6.2634 Y3.1817
N8790 X6.2297 Y3.1995
N8795 X6.1914 Y3.2161
N8800 X6.1546 Y3.2285
N8805 X6.1148 Y3.2386
N8810 X6.0758 Y3.2451
N8815 X6.0355 Y3.2486
N8820 X5.9954 Y3.2488
N8825 X5.9557 Y3.2458
N8830 X5.9154 Y3.2396
N8835 X5.8774 Y3.2304
N8840 X5.838 Y3.2176
N8845 X5.8025 Y3.2027
N8850 X5.7651 Y3.1834
N8855 X5.7329 Y3.1634
N8860 X5.6987 Y3.1381
N8865 X5.6635 Y3.1074
N8870 X5.6286 Y3.0764
N8875 X5.5937 Y3.0453
N8880 X5.5601 Y3.013
N8885 X5.5296 Y2.9796
N8890 X5.5048 Y2.9476
N8895 X5.484 Y2.9158
N8900 X5.4663 Y2.8832
N8905 X5.4512 Y2.8493
N8910 X5.4392 Y2.8151
N8915 X5.4299 Y2.7797
N8920 X5.4233 Y2.7427
N8925 X5.4196 Y2.7052
N8930 X5.419 Y2.6659
N8935 X5.4215 Y2.6264
N8940 X5.4273 Y2.586
N8945 X5.4367 Y2.5452
N8950 X5.4494 Y2.5046
N8955 X5.466 Y2.4639
N8960 X5.4858 Y2.4244
N8965 X5.5092 Y2.3858
N8970 X5.5363 Y2.3484
N8975 X5.5661 Y2.3135
N8980 X5.5991 Y2.2805
N8985 X5.6347 Y2.2503
N8990 X5.6725 Y2.2229
N8995 X5.7124 Y2.1986
N9000 X5.754 Y2.1774
N9005 X5.7971 Y2.1594
N9010 X5.8414 Y2.1448
N9015 X5.8867 Y2.1335
N9020 X5.9328 Y2.1257
N9025 X5.9792 Y2.1213
N9030 X6.0259 Y2.1204
N9035 X6.0725 Y2.123
N9040 X6.1188 Y2.129
N9045 X6.1646 Y2.1385
N9050 X6.2094 Y2.1514
N9055 X6.2532 Y2.1676
N9060 X6.2957 Y2.187
N9065 X6.3366 Y2.2095
N9070 X6.3757 Y2.2351
N9075 X6.4128 Y2.2634
N9080 X6.4477 Y2.2944
N9085 X6.4803 Y2.3278
N9090 X6.5103 Y2.3636
N9095 X6.5376 Y2.4015
N9100 X6.562 Y2.4413
N9105 X6.5834 Y2.4828
N9110 X6.6017 Y2.5258
N9115 X6.6167 Y2.57
N9120 X6.6284 Y2.6152
N9125 X6.6366 Y2.6611
N9130 X6.6415 Y2.7076
N9135 X6.6428 Y2.7543
N9140 X6.6408 Y2.8009
N9145 X6.6353 Y2.8473
N9150 X6.6265 Y2.8931
N9155 X6.6142 Y2.9382
N9160 X6.5987 Y2.9822
N9165 X6.58 Y3.025
N9170 X6.5581 Y3.0662
N9175 X6.5333 Y3.1058
N9180 X6.5055 Y3.1433
N9185 X6.475 Y3.1787
N9190 X6.442 Y3.2117
N9195 X6.4066 Y3.2422
N9200 X6.3691 Y3.2699
N9205 X6.3296 Y3.2948
N9210 X6.2884 Y3.3168
N9215 X6.2456 Y3.3356
N9220 X6.2017 Y3.3513
N9225 X6.1566 Y3.3636
N9230 X6.1108 Y3.3727
N9235 X6.0645 Y3.3783
N9240 X6.0178 Y3.3804
N9245 X5.9712 Y3.3791
N9250 X5.9247 Y3.3742
N9255 X5.8788 Y3.366
N9260 X5.8335 Y3.3543
N9265 X5.7893 Y3.3394
N9270 X5.7463 Y3.3212
N9275 X5.7047 Y3.2999
N9280 X5.6647 Y3.2759
N9285 X5.6259 Y3.25
N9290 X5.5881 Y3.2225
N9295 X5.5514 Y3.1936
N9300 X5.516 Y3.1632
N9305 X5.4823 Y3.1309
N9310 X5.4504 Y3.0968
N9315 X5.4208 Y3.0607
N9320 X5.3936 Y3.0227
N9325 X5.3691 Y2.983
N9330 X5.3476 Y2.9415
N9335 X5.3292 Y2.8986
N9340 X5.3141 Y2.8544
N9345 X5.3024 Y2.8092
N9350 X5.2942 Y2.7633
N9355 X5.2894 Y2.7168
N9360 X5.2881 Y2.6702
N9365 X5.2903 Y2.6235
N9370 X5.2958 Y2.5771
N9375 X5.3046 Y2.5313
N9380 X5.3168 Y2.4862
N9385 X5.3321 Y2.4421
N9390 X5.3505 Y2.3992
N9395 X5.3717 Y2.3576
N9400 X5.3957 Y2.3175
N9405 X5.4223 Y2.2791
N9410 X5.4514 Y2.2427
N9415 X5.4829 Y2.2082
N9420 X5.5166 Y2.1759
N9425 X5.5523 Y2.1457
N9430 X5.5898 Y2.1179
N9435 X5.629 Y2.0926
N9440 X5.6698 Y2.0699
N9445 X5.7119 Y2.0498
N9450 X5.7553 Y2.0324
N9455 X5.7996 Y2.0176
N9460 X5.8447 Y2.0056
N9465 X5.8905 Y1.9965
N9470 X5.9368 Y1.9903
N9475 X5.9833 Y1.987
N9480 X6.03 Y1.9864
N9485 X6.0767 Y1.9887
N9490 X6.1231 Y1.9939
N9495 X6.169 Y2.002
N9500 X6.2144 Y2.0129
N9505 X6.2591 Y2.0266
N9510 X6.3028 Y2.043
N9515 X6.3455 Y2.062
N9520 X6.3869 Y2.0836
N9525 X6.4268 Y2.1077
N9530 X6.4653 Y2.1342
N9535 X6.502 Y2.1631
N9540 X6.537 Y2.194
N9545 X6.57 Y2.227
N9550 X6.6009 Y2.262
N9555 X6.6296 Y2.2988
N9560 X6.656 Y2.3374
N9565 X6.68 Y2.3774
N9570 X6.7016 Y2.4188
N9575 X6.7206 Y2.4614
N9580 X6.7369 Y2.5052
N9585 X6.7504 Y2.5499
N9590 X6.7612 Y2.5953
N9595 X6.7693 Y2.6413
N9600 X6.7746 Y2.6877
N9605 X6.777 Y2.7343
N9610 X6.7765 Y2.781
N9615 X6.7731 Y2.8276
N9620 X6.767 Y2.8739
N9625 X6.7581 Y2.9197
N9630 X6.7464 Y2.9649
N9635 X6.732 Y3.0093
N9640 X6.7148 Y3.0527
N9645 X6.695 Y3.095
N9650 X6.6727 Y3.136
N9655 X6.648 Y3.1756
N9660 X6.6209 Y3.2136
N9665 X6.5914 Y3.2499
N9670 X6.5598 Y3.2842
N9675 X6.5261 Y3.3166
N9680 X6.4905 Y3.3468
N9685 X6.4532 Y3.3749
N9690 X6.4143 Y3.4007
N9695 X6.3738 Y3.4239
N9700 X6.3319 Y3.4446
N9705 X6.2889 Y3.4628
N9710 X6.2449 Y3.4784
N9715 X6.2 Y3.4913
N9720 X6.1545 Y3.5014
N9725 X6.1083 Y3.5086
N9730 X6.0618 Y3.513
N9735 X6.0152 Y3.5146
N9740 X5.9685 Y3.5133
N9745 X5.922 Y3.5093
N9750 X5.8758 Y3.5023
N9755 X5.8302 Y3.4924
N9760 X5.7852 Y3.4799
N9765 X5.7411 Y3.4646
N9770 X5.6979 Y3.4469
N9775 X5.6557 Y3.4268
N9780 X5.6146 Y3.4047
N9785 X5.5745 Y3.3808
N9790 X5.5355 Y3.3551
N9795 X5.4977 Y3.3277
N9800 X5.4611 Y3.2987
N9805 X5.4259 Y3.2681
N9810 X5.3921 Y3.2358
N9815 X5.36 Y3.2019
N9820 X5.3298 Y3.1663
N9825 X5.3015 Y3.1291
N9830 X5.2754 Y3.0904
N9835 X5.2515 Y3.0503
N9840 X5.23 Y3.0089
N9845 X5.211 Y2.9662
N9850 X5.1946 Y2.9225
N9855 X5.181 Y2.8779
N9860 X5.1701 Y2.8325
N9865 X5.1619 Y2.7865
N9870 X5.1565 Y2.7401
N9875 X5.154 Y2.6935
N9880 X5.1543 Y2.6468
N9885 X5.1575 Y2.6002
N9890 X5.1634 Y2.5539
N9895 X5.1721 Y2.508
N9900 X5.1834 Y2.4627
N9905 X5.1974 Y2.4182
N9910 X5.214 Y2.3745
N9915 X5.2331 Y2.3319
N9920 X5.2546 Y2.2905
N9925 X5.2783 Y2.2502
N9930 X5.3043 Y2.2114
N9935 X5.3324 Y2.1742
N9940 X5.3626 Y2.1386
N9945 X5.3947 Y2.1047
N9950 X5.4286 Y2.0726
N9955 X5.4642 Y2.0424
N9960 X5.5014 Y2.0141
N9965 X5.54 Y1.9879
N9970 X5.5801 Y1.9639
N9975 X5.6214 Y1.9421
N9980 X5.6637 Y1.9224
N9985 X5.7071 Y1.9051
N9990 X5.7513 Y1.89
N9995 X5.7962 Y1.8773
N10000 X5.8417 Y1.867
N10005 X5.8877 Y1.8591
N10010 X5.9341 Y1.8537
N10015 X5.9807 Y1.8506
N10020 X6.0274 Y1.85
N10025 X6.0741 Y1.8518
N10030 X6.1206 Y1.8561
N10035 X6.1668 Y1.8628
N10040 X6.2125 Y1.872
N10045 X6.2578 Y1.8835
N10050 X6.3024 Y1.8973
N10055 X6.3462 Y1.9134
N10060 X6.3892 Y1.9317
N10065 X6.4311 Y1.9523
N10070 X6.4718 Y1.9751
N10075 X6.5113 Y2.
N10080 X6.5495 Y2.0269
N10085 X6.5863 Y2.0556
N10090 X6.6215 Y2.0863
N10095 X6.6552 Y2.1187
N10100 X6.687 Y2.1528
N10105 X6.717 Y2.1886
N10110 X6.7452 Y2.2258
N10115 X6.7714 Y2.2645
N10120 X6.7956 Y2.3044
N10125 X6.8177 Y2.3455
N10130 X6.8376 Y2.3878
N10135 X6.8552 Y2.431
N10140 X6.8706 Y2.4751
N10145 X6.8836 Y2.5199
N10150 X6.8944 Y2.5654
N10155 X6.9028 Y2.6113
N10160 X6.9089 Y2.6576
N10165 X6.9125 Y2.7041
N10170 X6.9136 Y2.7508
N10175 X6.9123 Y2.7975
N10180 X6.9086 Y2.844
N10185 X6.9026 Y2.8903
N10190 X6.8942 Y2.9363
N10195 X6.8835 Y2.9817
N10200 X6.8703 Y3.0265
N10205 X6.8548 Y3.0705
N10210 X6.8371 Y3.1137
N10215 X6.8171 Y3.156
N10220 X6.7951 Y3.1971
N10225 X6.7709 Y3.2371
N10230 X6.7447 Y3.2757
N10235 X6.7164 Y3.3129
N10240 X6.6863 Y3.3485
N10245 X6.6543 Y3.3826
N10250 X6.6207 Y3.415
N10255 X6.5855 Y3.4456
N10260 X6.5487 Y3.4744
N10265 X6.5104 Y3.5011
N10270 X6.4708 Y3.5259
N10275 X6.43 Y3.5485
N10280 X6.3881 Y3.569
N10285 X6.3451 Y3.5874
N10290 X6.3013 Y3.6036
N10295 X6.2567 Y3.6174
N10300 X6.2115 Y3.6289
N10305 X6.1657 Y3.638
N10310 X6.1195 Y3.6447
N10315 X6.073 Y3.649
N10320 X6.0263 Y3.651
N10325 X5.9796 Y3.6505
N10330 X5.933 Y3.6476
N10335 X5.8867 Y3.6422
N10340 X5.8406 Y3.6344
N10345 X5.795 Y3.6243
N10350 X5.75 Y3.6119
N10355 X5.7057 Y3.5974
N10360 X5.662 Y3.5807
N10365 X5.6192 Y3.5621
N10370 X5.5773 Y3.5416
N10375 X5.5362 Y3.5194
N10380 X5.4961 Y3.4954
N10385 X5.4571 Y3.4698
N10390 X5.4191 Y3.4427
N10395 X5.3822 Y3.414
N10400 X5.3466 Y3.3839
N10405 X5.3122 Y3.3522
N10410 X5.2794 Y3.319
N10415 X5.2481 Y3.2844
N10420 X5.2184 Y3.2483
N10425 X5.1905 Y3.2109
N10430 X5.1643 Y3.1723
N10435 X5.1399 Y3.1324
N10440 X5.1177 Y3.0914
N10445 X5.0975 Y3.0493
N10450 X5.0795 Y3.0062
N10455 X5.0637 Y2.9623
N10460 X5.0501 Y2.9176
N10465 X5.0473 Y2.9063
N10470 X5.0446 Y2.8949
N10475 X5.0344 Y2.8493
N10480 X5.0266 Y2.8033
N10485 X5.0211 Y2.7569
N10490 X5.018 Y2.7103
N10495 X5.0174 Y2.6637
N10500 X5.0191 Y2.617
N10505 X5.0233 Y2.5705
N10510 X5.0237 Y2.5647
N10515 X5.0241 Y2.5587
N10520 X5.0246 Y2.5527
N10525 X5.0252 Y2.5467
N10530 X5.0257 Y2.5408
N10535 X5.0264 Y2.5348
N10540 X5.0271 Y2.5288
N10545 X5.0278 Y2.5229
N10550 X5.0286 Y2.5169
N10555 X5.0294 Y2.511
N10560 X5.0303 Y2.505
N10565 X5.0312 Y2.4989
N10570 X5.0323 Y2.4926
N10575 X5.0333 Y2.4867
N10580 X5.0343 Y2.4808
N10585 X5.0354 Y2.4749
N10590 X5.0366 Y2.469
N10595 X5.0378 Y2.4631
N10600 X5.039 Y2.4571
N10605 X5.0404 Y2.4509
N10610 X5.0418 Y2.4444
N10615 X5.0434 Y2.438
N10620 X5.0448 Y2.4321
N10625 X5.0462 Y2.4263
N10630 X5.0477 Y2.4205
N10635 X5.0493 Y2.4147
N10640 X5.0509 Y2.4087
N10645 X5.0527 Y2.4025
N10650 X5.0545 Y2.396
N10655 X5.0565 Y2.3893
N10660 X5.0585 Y2.383
N10665 X5.0603 Y2.3772
N10670 X5.0621 Y2.3715
N10675 X5.064 Y2.3657
N10680 X5.066 Y2.3598
N10685 X5.0682 Y2.3536
N10690 X5.0705 Y2.3471
N10695 X5.0729 Y2.3404
N10700 X5.0754 Y2.3337
N10705 X5.0776 Y2.3279
N10710 X5.0798 Y2.3223
N10715 X5.0821 Y2.3165
N10720 X5.0845 Y2.3106
N10725 X5.087 Y2.3044
N10730 X5.0897 Y2.298
N10735 X5.0926 Y2.2914
N10740 X5.0956 Y2.2846
N10745 X5.0983 Y2.2786
N10750 X5.1008 Y2.2731
N10755 X5.1034 Y2.2675
N10760 X5.1062 Y2.2616
N10765 X5.1091 Y2.2556
N10770 X5.1122 Y2.2493
N10775 X5.1155 Y2.2428
N10780 X5.1189 Y2.2361
N10785 X5.1221 Y2.23
N10790 X5.125 Y2.2246
N10795 X5.128 Y2.2191
N10800 X5.1311 Y2.2133
N10805 X5.1344 Y2.2074
N10810 X5.1379 Y2.2013
N10815 X5.1416 Y2.1949
N10820 X5.1455 Y2.1882
N10825 X5.1491 Y2.1823
N10830 X5.1523 Y2.177
N10835 X5.1557 Y2.1715
N10840 X5.1592 Y2.1659
N10845 X5.1629 Y2.1601
N10850 X5.1669 Y2.154
N10855 X5.171 Y2.1477
N10860 X5.1754 Y2.1413
N10865 X5.1792 Y2.1356
N10870 X5.1828 Y2.1304
N10875 X5.1866 Y2.125
N10880 X5.1905 Y2.1195
N10885 X5.1947 Y2.1138
N10890 X5.1991 Y2.1078
N10895 X5.2037 Y2.1016
N10900 X5.2084 Y2.0954
N10905 X5.2125 Y2.0901
N10910 X5.2165 Y2.085
N10915 X5.2207 Y2.0798
N10920 X5.225 Y2.0743
N10925 X5.2297 Y2.0687
N10930 X5.2345 Y2.0628
N10935 X5.2397 Y2.0568
N10940 X5.2445 Y2.0511
N10945 X5.2488 Y2.0461
N10950 X5.2532 Y2.0412
N10955 X5.2578 Y2.036
N10960 X5.2626 Y2.0307
N10965 X5.2677 Y2.0252
N10970 X5.2731 Y2.0194
N10975 X5.2786 Y2.0136
N10980 X5.2835 Y2.0086
N10985 X5.288 Y2.0039
N10990 X5.2928 Y1.9991
N10995 X5.2978 Y1.9941
N11000 X5.3031 Y1.989
N11005 X5.3086 Y1.9836
N11010 X5.3144 Y1.9781
N11015 X5.32 Y1.9728
N11020 X5.3249 Y1.9684
N11025 X5.3298 Y1.9639
N11030 X5.3349 Y1.9593
N11035 X5.3403 Y1.9545
N11040 X5.346 Y1.9496
N11045 X5.352 Y1.9445
N11050 X5.3582 Y1.9392
N11055 X5.3636 Y1.9347
N11060 X5.3687 Y1.9306
N11065 X5.374 Y1.9263
N11070 X5.3795 Y1.9219
N11075 X5.3854 Y1.9173
N11080 X5.3915 Y1.9126
N11085 X5.3979 Y1.9077
N11090 X5.4042 Y1.903
N11095 X5.4095 Y1.8991
N11100 X5.415 Y1.8951
N11105 X5.4207 Y1.891
N11110 X5.4267 Y1.8868
N11115 X5.433 Y1.8824
N11120 X5.4396 Y1.8779
N11125 X5.4464 Y1.8733
N11130 X5.4522 Y1.8695
N11135 X5.4579 Y1.8658
N11140 X5.4637 Y1.8621
N11145 X5.4699 Y1.8582
N11150 X5.4764 Y1.8542
N11155 X5.4832 Y1.85
N11160 X5.4903 Y1.8457
N11165 X5.4967 Y1.842
N11170 X5.5025 Y1.8386
N11175 X5.5086 Y1.8352
N11180 X5.5149 Y1.8316
N11185 X5.5215 Y1.828
N11190 X5.5285 Y1.8242
N11195 X5.5358 Y1.8203
N11200 X5.5428 Y1.8166
N11205 X5.5488 Y1.8136
N11210 X5.555 Y1.8104
N11215 X5.5615 Y1.8073
N11220 X5.5682 Y1.804
N11225 X5.5753 Y1.8006
N11230 X5.5828 Y1.7971
N11235 X5.5902 Y1.7937
N11240 X5.5965 Y1.7909
N11245 X5.6028 Y1.7881
N11250 X5.6093 Y1.7853
N11255 X5.6161 Y1.7824
N11260 X5.6233 Y1.7794
N11265 X5.6308 Y1.7764
N11270 X5.6385 Y1.7733
N11275 X5.6452 Y1.7707
N11280 X5.6515 Y1.7683
N11285 X5.6581 Y1.7658
N11290 X5.665 Y1.7633
N11295 X5.6722 Y1.7608
N11300 X5.6797 Y1.7581
N11305 X5.6877 Y1.7554
N11310 X5.6949 Y1.7531
N11315 X5.7013 Y1.751
N11320 X5.7079 Y1.7489
N11325 X5.7149 Y1.7468
N11330 X5.7222 Y1.7446
N11335 X5.7298 Y1.7424
N11340 X5.7378 Y1.7401
N11345 X5.7455 Y1.738
N11350 X5.7521 Y1.7362
N11355 X5.7588 Y1.7345
N11360 X5.7659 Y1.7327
N11365 X5.7732 Y1.7309
N11370 X5.785 Y1.7282
N11375 X5.7971 Y1.7255
N11380 X5.8039 Y1.724
N11385 X5.8107 Y1.7226
N11390 X5.8178 Y1.7212
N11395 X5.8253 Y1.7198
N11400 X5.833 Y1.7184
N11405 X5.8412 Y1.717
N11410 X5.8495 Y1.7156
N11415 X5.8564 Y1.7145
N11420 X5.8633 Y1.7134
N11425 X5.8705 Y1.7124
N11430 X5.878 Y1.7114
N11435 X5.8858 Y1.7103
N11440 X5.894 Y1.7093
N11445 X5.9024 Y1.7084
N11450 X5.9096 Y1.7076
N11455 X5.9164 Y1.7069
N11460 X5.9236 Y1.7062
N11465 X5.9311 Y1.7056
N11470 X5.9389 Y1.705
N11475 X5.9471 Y1.7044
N11480 X5.9556 Y1.7039
N11485 X5.9629 Y1.7035
N11490 X5.9697 Y1.7031
N11495 X5.9768 Y1.7029
N11500 X5.9842 Y1.7026
N11505 X5.9919 Y1.7024
N11510 X6. Y1.7022
N11515 X6.0085 Y1.7021
N11520 X6.0161
N11525 X6.0229
N11530 X6.0299 Y1.7022
N11535 X6.0372 Y1.7023
N11540 X6.0449 Y1.7025
N11545 X6.0529 Y1.7028
N11550 X6.0613 Y1.7031
N11555 X6.0692 Y1.7035
N11560 X6.0761 Y1.7039
N11565 X6.0831 Y1.7043
N11570 X6.0904 Y1.7048
N11575 X6.098 Y1.7054
N11580 X6.106 Y1.706
N11585 X6.1143 Y1.7068
N11590 X6.1224 Y1.7076
N11595 X6.1293 Y1.7083
N11600 X6.1363 Y1.7091
N11605 X6.1435 Y1.71
N11610 X6.1511 Y1.711
N11615 X6.159 Y1.7121
N11620 X6.1673 Y1.7132
N11625 X6.1755 Y1.7145
N11630 X6.1824 Y1.7156
N11635 X6.1893 Y1.7167
N11640 X6.1966 Y1.718
N11645 X6.2041 Y1.7193
N11650 X6.2119 Y1.7208
N11655 X6.2201 Y1.7224
N11660 X6.2284 Y1.7241
N11665 X6.2353 Y1.7256
N11670 X6.2421 Y1.7271
N11675 X6.2493 Y1.7287
N11680 X6.2567 Y1.7304
N11685 X6.2645 Y1.7323
N11690 X6.2726 Y1.7343
N11695 X6.2808 Y1.7365
N11700 X6.2877 Y1.7383
N11705 X6.2944 Y1.7401
N11710 X6.3013 Y1.7421
N11715 X6.3086 Y1.7442
N11720 X6.3161 Y1.7464
N11725 X6.3241 Y1.7488
N11730 X6.3322 Y1.7514
N11735 X6.3391 Y1.7536
N11740 X6.3456 Y1.7558
N11745 X6.3524 Y1.758
N11750 X6.3594 Y1.7605
N11755 X6.3668 Y1.7631
N11760 X6.3745 Y1.7659
N11765 X6.3825 Y1.7689
N11770 X6.3895 Y1.7715
N11775 X6.3958 Y1.774
N11780 X6.4025 Y1.7766
N11785 X6.4094 Y1.7794
N11790 X6.4166 Y1.7824
N11795 X6.4241 Y1.7855
N11800 X6.4319 Y1.7889
N11805 X6.4389 Y1.792
N11810 X6.4452 Y1.7948
N11815 X6.4517 Y1.7977
N11820 X6.4584 Y1.8009
N11825 X6.4655 Y1.8042
N11830 X6.4728 Y1.8078
N11835 X6.4805 Y1.8116
N11840 X6.4874 Y1.8151
N11845 X6.4936 Y1.8182
N11850 X6.4999 Y1.8215
N11855 X6.5065 Y1.825
N11860 X6.5134 Y1.8287
N11865 X6.5205 Y1.8326
N11870 X6.528 Y1.8368
N11875 X6.5349 Y1.8407
N11880 X6.5409 Y1.8442
N11885 X6.5471 Y1.8478
N11890 X6.5535 Y1.8516
N11895 X6.5602 Y1.8557
N11900 X6.5672 Y1.86
N11905 X6.5744 Y1.8646
N11910 X6.5811 Y1.8688
N11915 X6.5869 Y1.8726
N11920 X6.5929 Y1.8766
N11925 X6.5991 Y1.8807
N11930 X6.6056 Y1.8851
N11935 X6.6123 Y1.8897
N11940 X6.6193 Y1.8947
N11945 X6.6258 Y1.8993
N11950 X6.6314 Y1.9033
N11955 X6.6371 Y1.9075
N11960 X6.643 Y1.912
N11965 X6.6492 Y1.9166
N11970 X6.6556 Y1.9215
N11975 X6.6622 Y1.9267
N11980 X6.6686 Y1.9318
N11985 X6.674 Y1.9361
N11990 X6.6794 Y1.9406
N11995 X6.6851 Y1.9453
N12000 X6.6909 Y1.9502
N12005 X6.697 Y1.9554
N12010 X6.7034 Y1.9609
N12015 X6.7096 Y1.9664
N12020 X6.7148 Y1.971
N12025 X6.72 Y1.9757
N12030 X6.7254 Y1.9807
N12035 X6.731 Y1.9859
N12040 X6.7368 Y1.9914
N12045 X6.7428 Y1.9972
N12050 X6.7488 Y2.0031
N12055 X6.7538 Y2.008
N12060 X6.7588 Y2.013
N12065 X6.7639 Y2.0183
N12070 X6.7692 Y2.0238
N12075 X6.7747 Y2.0296
N12080 X6.7805 Y2.0357
N12085 X6.7862 Y2.0419
N12090 X6.791 Y2.0471
N12095 X6.7957 Y2.0524
N12100 X6.8006 Y2.0579
N12105 X6.8056 Y2.0637
N12110 X6.8108 Y2.0698
N12115 X6.8163 Y2.0762
N12120 X6.8217 Y2.0827
N12125 X6.8262 Y2.0882
N12130 X6.8307 Y2.0937
N12135 X6.8352 Y2.0995
N12140 X6.84 Y2.1055
N12145 X6.8449 Y2.1119
N12150 X6.85 Y2.1186
N12155 X6.8551 Y2.1254
N12160 X6.8593 Y2.1311
N12165 X6.8635 Y2.1368
N12170 X6.8677 Y2.1427
N12175 X6.8721 Y2.1489
N12180 X6.8766 Y2.1555
N12185 X6.8814 Y2.1624
N12190 X6.8861 Y2.1694
N12195 X6.8901 Y2.1754
N12200 X6.8939 Y2.1812
N12205 X6.8977 Y2.1873
N12210 X6.9018 Y2.1937
N12215 X6.9059 Y2.2004
N12220 X6.9102 Y2.2074
N12225 X6.9146 Y2.2147
N12230 X6.9183 Y2.221
N12235 X6.9218 Y2.227
N12240 X6.9253 Y2.2332
N12245 X6.929 Y2.2397
N12250 X6.9328 Y2.2466
N12255 X6.9367 Y2.2538
N12260 X6.9407 Y2.2614
N12265 X6.9442 Y2.268
N12270 X6.9473 Y2.2741
N12275 X6.9506 Y2.2805
N12280 X6.9539 Y2.2872
N12285 X6.9573 Y2.2943
N12290 X6.9608 Y2.3017
N12295 X6.9645 Y2.3094
N12300 X6.9677 Y2.3164
N12305 X6.9705 Y2.3227
N12310 X6.9734 Y2.3292
N12315 X6.9764 Y2.3361
N12320 X6.9795 Y2.3433
N12325 X6.9826 Y2.3509
N12330 X6.9858 Y2.3589
N12335 X6.9887 Y2.3661
N12340 X6.9912 Y2.3725
N12345 X6.9938 Y2.3793
N12350 X6.9964 Y2.3863
N12355 X6.9991 Y2.3937
N12360 X7.0019 Y2.4014
N12365 X7.0047 Y2.4096
N12370 X7.0072 Y2.4169
N12375 X7.0094 Y2.4235
N12380 X7.0116 Y2.4304
N12385 X7.0139 Y2.4375
N12390 X7.0162 Y2.445
N12395 X7.0186 Y2.4529
N12400 X7.021 Y2.4612
N12405 X7.0231 Y2.4687
N12410 X7.0249 Y2.4753
N12415 X7.0268 Y2.4822
N12420 X7.0287 Y2.4894
N12425 X7.0306 Y2.497
N12430 X7.0325 Y2.5049
N12435 X7.0345 Y2.5132
N12440 X7.037 Y2.5242
N12445 X7.0392 Y2.5345
N12450 X7.0407 Y2.5418
N12455 X7.0422 Y2.5493
N12460 X7.0437 Y2.5572
N12465 X7.0452 Y2.5655
N12470 X7.0466 Y2.5735
N12475 X7.0477 Y2.5803
N12480 X7.0489 Y2.5873
N12485 X7.05 Y2.5945
N12490 X7.0511 Y2.6021
N12495 X7.0522 Y2.6101
N12500 X7.0533 Y2.6185
N12505 X7.0543 Y2.6266
N12510 X7.0551 Y2.6335
N12515 X7.0558 Y2.6406
N12520 X7.0566 Y2.6479
N12525 X7.0573 Y2.6555
N12530 X7.058 Y2.6636
N12535 X7.0586 Y2.672
N12540 X7.0592 Y2.6803
N12545 X7.0597 Y2.6873
N12550 X7.0601 Y2.6943
N12555 X7.0604 Y2.7017
N12560 X7.0608 Y2.7094
N12565 X7.061 Y2.7175
N12570 X7.0613 Y2.726
N12575 X7.0614 Y2.7343
N12580 X7.0615 Y2.7414
N12585 X7.0616 Y2.7485
N12590 X7.0615 Y2.7559
N12595 Y2.7636
N12600 X7.0613 Y2.7717
N12605 X7.0611 Y2.7802
N12610 X7.0609 Y2.7886
N12615 X7.0606 Y2.7956
N12620 X7.0603 Y2.8027
N12625 X7.0599 Y2.8101
N12630 X7.0594 Y2.8177
N12635 X7.0588 Y2.8258
N12640 X7.0582 Y2.8342
N12645 X7.0575 Y2.8426
N12650 X7.0569 Y2.8496
N12655 X7.0562 Y2.8566
N12660 X7.0554 Y2.8638
N12665 X7.0546 Y2.8714
N12670 X7.0536 Y2.8793
N12675 X7.0526 Y2.8876
N12680 X7.0514 Y2.8959
N12685 X7.0504 Y2.903
N12690 X7.0494 Y2.9098
N12695 X7.0483 Y2.917
N12700 X7.0471 Y2.9245
N12705 X7.0457 Y2.9322
N12710 X7.0442 Y2.9404
N12715 X7.0427 Y2.9488
N12720 X7.0413 Y2.9559
N12725 X7.0399 Y2.9627
N12730 X7.0384 Y2.9697
N12735 X7.0368 Y2.9771
N12740 X7.0351 Y2.9848
N12745 X7.0332 Y2.9929
N12750 X7.0312 Y3.0012
N12755 X7.0294 Y3.0083
N12760 X7.0277 Y3.015
N12765 X7.0258 Y3.022
N12770 X7.0238 Y3.0293
N12775 X7.0217 Y3.0369
N12780 X7.0194 Y3.0449
N12785 X7.0169 Y3.0531
N12790 X7.0148 Y3.0602
N12795 X7.0127 Y3.0669
N12800 X7.0105 Y3.0738
N12805 X7.0081 Y3.081
N12810 X7.0056 Y3.0885
N12815 X7.0029 Y3.0963
N12820 X7. Y3.1045
N12825 X6.9974 Y3.1115
N12830 X6.995 Y3.1181
N12835 X6.9925 Y3.1248
N12840 X6.9897 Y3.1319
N12845 X6.9868 Y3.1393
N12850 X6.9837 Y3.147
N12855 X6.9804 Y3.155
N12860 X6.9775 Y3.1619
N12865 X6.9748 Y3.1682
N12870 X6.9719 Y3.1748
N12875 X6.9688 Y3.1816
N12880 X6.9656 Y3.1888
N12885 X6.9621 Y3.1962
N12890 X6.9584 Y3.204
N12895 X6.9551 Y3.2109
N12900 X6.9521 Y3.217
N12905 X6.9489 Y3.2233
N12910 X6.9456 Y3.23
N12915 X6.942 Y3.2368
N12920 X6.9382 Y3.244
N12925 X6.9342 Y3.2515
N12930 X6.9304 Y3.2584
N12935 X6.9271 Y3.2643
N12940 X6.9236 Y3.2705
N12945 X6.9199 Y3.2769
N12950 X6.916 Y3.2835
N12955 X6.9118 Y3.2905
N12960 X6.9075 Y3.2977
N12965 X6.9033 Y3.3045
N12970 X6.8996 Y3.3104
N12975 X6.8958 Y3.3163
N12980 X6.8918 Y3.3225
N12985 X6.8875 Y3.329
N12990 X6.8831 Y3.3357
N12995 X6.8783 Y3.3427
N13000 X6.8737 Y3.3494
N13005 X6.8697 Y3.3551
N13010 X6.8656 Y3.3609
N13015 X6.8613 Y3.3669
N13020 X6.8567 Y3.3731
N13025 X6.8518 Y3.3796
N13030 X6.8467 Y3.3863
N13035 X6.8417 Y3.3929
N13040 X6.8374 Y3.3984
N13045 X6.833 Y3.4039
N13050 X6.8283 Y3.4097
N13055 X6.8234 Y3.4157
N13060 X6.8183 Y3.422
N13065 X6.8128 Y3.4285
N13070 X6.8074 Y3.4348
N13075 X6.8028 Y3.4401
N13080 X6.7981 Y3.4454
N13085 X6.7932 Y3.4509
N13090 X6.788 Y3.4567
N13095 X6.7825 Y3.4626
N13100 X6.7768 Y3.4688
N13105 X6.771 Y3.4749
N13110 X6.7662 Y3.4799
N13115 X6.7613 Y3.4849
N13120 X6.7562 Y3.4901
N13125 X6.7508 Y3.4955
N13130 X6.7451 Y3.5011
N13135 X6.739 Y3.5069
N13140 X6.733 Y3.5127
N13145 X6.7278 Y3.5175
N13150 X6.7227 Y3.5223
N13155 X6.7174 Y3.5272
N13160 X6.7117 Y3.5322
N13165 X6.7058 Y3.5375
N13170 X6.6995 Y3.543
N13175 X6.6931 Y3.5485
N13180 X6.6877 Y3.5531
N13185 X6.6823 Y3.5575
N13190 X6.6767 Y3.5622
N13195 X6.6708 Y3.5669
N13200 X6.6646 Y3.5719
N13205 X6.6581 Y3.577
N13210 X6.6514 Y3.5822
N13215 X6.6456 Y3.5866
N13220 X6.6401 Y3.5908
N13225 X6.6342 Y3.5951
N13230 X6.6281 Y3.5996
N13235 X6.6216 Y3.6042
N13240 X6.6148 Y3.609
N13245 X6.6078 Y3.6139
N13250 X6.6018 Y3.618
N13255 X6.596 Y3.6219
N13260 X6.5899 Y3.6259
N13265 X6.5835 Y3.6301
N13270 X6.5768 Y3.6344
N13275 X6.5697 Y3.6389
N13280 X6.5624 Y3.6434
N13285 X6.5561 Y3.6473
N13290 X6.5501 Y3.6509
N13295 X6.5438 Y3.6546
N13300 X6.5372 Y3.6584
N13305 X6.5303 Y3.6624
N13310 X6.523 Y3.6665
N13315 X6.5154 Y3.6707
N13320 X6.509 Y3.6742
N13325 X6.5028 Y3.6775
N13330 X6.4964 Y3.6809
N13335 X6.4896 Y3.6843
N13340 X6.4825 Y3.6879
N13345 X6.4751 Y3.6916
N13350 X6.4674 Y3.6954
N13355 X6.4607 Y3.6986
N13360 X6.4544 Y3.7015
N13365 X6.4479 Y3.7045
N13370 X6.4411 Y3.7076
N13375 X6.4339 Y3.7107
N13380 X6.4264 Y3.714
N13385 X6.4185 Y3.7174
N13390 X6.4115 Y3.7203
N13395 X6.4052 Y3.7229
N13400 X6.3986 Y3.7255
N13405 X6.3916 Y3.7282
N13410 X6.3843 Y3.731
N13415 X6.3767 Y3.7339
N13420 X6.3687 Y3.7368
N13425 X6.3614 Y3.7394
N13430 X6.3549 Y3.7417
N13435 X6.3482 Y3.744
N13440 X6.3411 Y3.7463
N13445 X6.3337 Y3.7487
N13450 X6.3259 Y3.7512
N13455 X6.3178 Y3.7537
N13460 X6.3102 Y3.756
N13465 X6.3036 Y3.7579
N13470 X6.2968 Y3.7598
N13475 X6.2896 Y3.7618
N13480 X6.282 Y3.7639
N13485 X6.2741 Y3.7659
N13490 X6.2658 Y3.768
N13495 X6.2581 Y3.7699
N13500 X6.2514 Y3.7715
N13505 X6.2407 Y3.7739
N13510 X6.2293 Y3.7764
N13515 X6.2213 Y3.778
N13520 X6.2129 Y3.7797
N13525 X6.2051 Y3.7812
N13530 X6.1983 Y3.7825
N13535 X6.1912 Y3.7837
N13540 X6.1838 Y3.785
N13545 X6.1761 Y3.7862
N13550 X6.168 Y3.7875
N13555 X6.1595 Y3.7887
N13560 X6.1516 Y3.7898
N13565 X6.1448 Y3.7907
N13570 X6.1377 Y3.7916
N13575 X6.1304 Y3.7924
N13580 X6.1227 Y3.7933
N13585 X6.1147 Y3.7941
N13590 X6.1062 Y3.7949
N13595 X6.0981 Y3.7956
N13600 X6.0913 Y3.7961
N13605 X6.0843 Y3.7966
N13610 X6.077 Y3.7971
N13615 X6.0693 Y3.7975
N13620 X6.0613 Y3.7979
N13625 X6.0529 Y3.7983
N13630 X6.0447 Y3.7986
N13635 X6.0377 Y3.7988
N13640 X6.0307 Y3.7989
N13645 X6.0234 Y3.799
N13650 X6.0158
N13655 X6.0078
N13660 X5.9995
N13665 X5.9911 Y3.7988
N13670 X5.9841 Y3.7987
N13675 X5.977 Y3.7984
N13680 X5.9697 Y3.7982
N13685 X5.9621 Y3.7978
N13690 X5.9541 Y3.7974
N13695 X5.9458 Y3.7969
N13700 X5.9373 Y3.7963
N13705 X5.9302 Y3.7958
N13710 X5.9232 Y3.7952
N13715 X5.9158 Y3.7945
N13720 X5.9082 Y3.7938
N13725 X5.9001 Y3.793
N13730 X5.8917 Y3.792
N13735 X5.8833 Y3.791
N13740 X5.8762 Y3.7901
N13745 X5.8691 Y3.7891
N13750 X5.8616 Y3.7881
N13755 X5.8539 Y3.7869
N13760 X5.8458 Y3.7857
N13765 X5.8373 Y3.7843
N13770 X5.829 Y3.7828
N13775 X5.8219 Y3.7816
N13780 X5.8146 Y3.7802
N13785 X5.8071 Y3.7787
N13790 X5.7992 Y3.7771
N13795 X5.7909 Y3.7754
N13800 X5.7822 Y3.7735
N13805 X5.7743 Y3.7717
N13810 X5.7672 Y3.7701
N13815 X5.7598 Y3.7683
N13820 X5.7521 Y3.7664
N13825 X5.744 Y3.7643
N13830 X5.7355 Y3.7621
N13835 X5.7269 Y3.7597
N13840 X5.7195 Y3.7576
N13845 X5.7122 Y3.7555
N13850 X5.7046 Y3.7533
N13855 X5.6966 Y3.7509
N13860 X5.6883 Y3.7483
N13865 X5.6795 Y3.7455
N13870 X5.6716 Y3.7429
N13875 X5.6643 Y3.7404
N13880 X5.6567 Y3.7378
N13885 X5.6488 Y3.735
N13890 X5.6405 Y3.732
N13895 X5.6318 Y3.7288
N13900 X5.6234 Y3.7256
N13905 X5.6161 Y3.7228
N13910 X5.6086 Y3.7198
N13915 X5.6006 Y3.7166
N13920 X5.5924 Y3.7132
N13925 X5.5836 Y3.7096
N13930 X5.5751 Y3.7059
N13935 X5.5678 Y3.7027
N13940 X5.5602 Y3.6993
N13945 X5.5523 Y3.6957
N13950 X5.5439 Y3.6918
N13955 X5.5352 Y3.6877
N13960 X5.5267 Y3.6836
N13965 X5.5194 Y3.68
N13970 X5.5118 Y3.6762
N13975 X5.5039 Y3.6722
N13980 X5.4956 Y3.6679
N13985 X5.4868 Y3.6632
N13990 X5.4786 Y3.6589
N13995 X5.4714 Y3.6549
N14000 X5.4638 Y3.6507
N14005 X5.4558 Y3.6462
N14010 X5.4475 Y3.6414
N14015 X5.4387 Y3.6362
N14020 X5.4311 Y3.6317
N14025 X5.4239 Y3.6273
N14030 X5.4164 Y3.6227
N14035 X5.4085 Y3.6178
N14040 X5.4002 Y3.6125
N14045 X5.3916 Y3.6069
N14050 X5.3845 Y3.6023
N14055 X5.3775 Y3.5976
N14060 X5.3701 Y3.5926
N14065 X5.3624 Y3.5873
N14070 X5.3543 Y3.5816
N14075 X5.3462 Y3.5759
N14080 X5.3396 Y3.5711
N14085 X5.3328 Y3.5661
N14090 X5.3257 Y3.5609
N14095 X5.3183 Y3.5553
N14100 X5.3106 Y3.5493
N14105 X5.3029 Y3.5433
N14110 X5.2966 Y3.5383
N14115 X5.2901 Y3.5331
N14120 X5.2834 Y3.5276
N14125 X5.2763 Y3.5218
N14130 X5.2689 Y3.5156
N14135 X5.2616 Y3.5093
N14140 X5.2556 Y3.5041
N14145 X5.2494 Y3.4987
N14150 X5.243 Y3.493
N14155 X5.2363 Y3.4869
N14160 X5.2292 Y3.4805
N14165 X5.2222 Y3.4739
N14170 X5.2164 Y3.4685
N14175 X5.2106 Y3.4629
N14180 X5.2045 Y3.457
N14185 X5.1982 Y3.4507
N14190 X5.1916 Y3.444
N14195 X5.1848 Y3.4372
N14200 X5.1792 Y3.4314
N14205 X5.1737 Y3.4257
N14210 X5.168 Y3.4196
N14215 X5.1621 Y3.4132
N14220 X5.1559 Y3.4064
N14225 X5.1494 Y3.3992
N14230 X5.144 Y3.3931
N14235 X5.1388 Y3.3872
N14240 X5.1335 Y3.381
N14245 X5.128 Y3.3745
N14250 X5.1223 Y3.3676
N14255 X5.1162 Y3.3603
N14260 X5.1107 Y3.3535
N14265 X5.106 Y3.3477
N14270 X5.1012 Y3.3415
N14275 X5.0962 Y3.335
N14280 X5.091 Y3.3282
N14285 X5.0855 Y3.321
N14290 X5.08 Y3.3136
N14295 X5.0755 Y3.3074
N14300 X5.0712 Y3.3013
N14305 X5.0666 Y3.2949
N14310 X5.062 Y3.2882
N14315 X5.0571 Y3.2811
N14320 X5.052 Y3.2736
N14325 X5.0291 Y3.2329
N14330 X5.0074 Y3.1916
N14335 X4.987 Y3.1496
N14340 X4.968 Y3.1069
N14345 X4.9507 Y3.0635
N14350 X4.9352 Y3.0195
N14355 X4.9317 Y3.0084
N14360 X4.9268 Y2.9978
N14365 X4.9143 Y2.9781
N14370 X4.8799 Y2.9465
N14375 X4.8419 Y2.9193
N14380 X4.8217 Y2.905
N14385 X4.8097 Y2.8947
N14390 X4.7997 Y2.8825
N14395 X4.7921 Y2.8687
N14400 X4.7871 Y2.8538
N14405 X4.7849 Y2.8382
N14410 X4.7831 Y2.8041
N14415 Y2.7981
N14420 X4.8039 Y2.7563
N14425 X4.8207 Y2.7128
N14430 X4.8344 Y2.6681
N14435 X4.8461 Y2.6229
N14440 X4.8569 Y2.5775
N14445 X4.8675 Y2.532
N14450 X4.8785 Y2.4866
N14455 X4.8902 Y2.4415
N14460 X4.9031 Y2.3966
N14465 X4.9174 Y2.3521
N14470 X4.9331 Y2.3082
N14475 X4.9504 Y2.2648
N14480 X4.9694 Y2.2221
N14485 X4.9901 Y2.1803
N14490 X5.0124 Y2.1392
N14495 X5.0363 Y2.0992
N14500 X5.0619 Y2.0601
N14505 X5.0891 Y2.0222
N14510 X5.1179 Y1.9854
N14515 X5.1481 Y1.9498
N14520 X5.1798 Y1.9155
N14525 X5.2128 Y1.8825
N14530 X5.2472 Y1.8509
N14535 X5.2829 Y1.8208
N14540 X5.3198 Y1.7921
N14545 X5.3578 Y1.765
N14550 X5.3968 Y1.7395
N14555 X5.4369 Y1.7155
N14560 X5.4779 Y1.6932
N14565 X5.5198 Y1.6725
N14570 X5.5625 Y1.6536
N14575 X5.6059 Y1.6364
N14580 X5.65 Y1.6209
N14585 X5.6946 Y1.6073
N14590 X5.7398 Y1.5954
N14595 X5.7808 Y1.5732
N14600 X5.8134 Y1.5472
N14605 X5.8259 Y1.5389
N14610 X5.8396 Y1.5328
N14615 X5.8542 Y1.5292
N14620 X5.8607 Y1.5282
N14625 X5.8719 Y1.5267
N14630 X5.8944 Y1.5244
N14635 X5.9057 Y1.5234
N14640 X5.9609 Y1.5205
N14645 X5.9669
N14650 X6.0125 Y1.5303
N14655 X6.0583 Y1.5392
N14660 X6.1042 Y1.5479
N14665 X6.1501 Y1.5568
N14670 X6.1958 Y1.5663
N14675 X6.2413 Y1.5767
N14680 X6.2865 Y1.5883
N14685 X6.3314 Y1.6012
N14690 X6.3758 Y1.6155
N14695 X6.4198 Y1.6313
N14700 X6.4631 Y1.6487
N14705 X6.5058 Y1.6676
N14710 X6.5478 Y1.688
N14715 X6.589 Y1.71
N14720 X6.6293 Y1.7336
N14725 X6.6687 Y1.7586
N14730 X6.7071 Y1.7852
N14735 X6.7444 Y1.8133
N14740 X6.7806 Y1.8428
N14745 X6.8156 Y1.8737
N14750 X6.8494 Y1.9059
N14755 X6.8819 Y1.9394
N14760 X6.9131 Y1.9742
N14765 X6.9429 Y2.0101
N14770 X6.9712 Y2.0472
N14775 X6.9981 Y2.0854
N14780 X7.0234 Y2.1246
N14785 X7.0472 Y2.1648
N14790 X7.0694 Y2.2059
N14795 X7.09 Y2.2478
N14800 X7.1089 Y2.2905
N14805 X7.1261 Y2.3339
N14810 X7.1416 Y2.3779
N14815 X7.1553 Y2.4226
N14820 X7.1673 Y2.4677
N14825 X7.1866 Y2.5102
N14830 X7.2145 Y2.5476
N14835 X7.2229 Y2.5596
N14840 X7.229 Y2.5728
N14845 X7.2325 Y2.5869
N14850 X7.2343 Y2.5982
N14855 X7.2358 Y2.6095
N14860 X7.2381 Y2.6319
N14865 X7.2391 Y2.6432
N14870 X7.242 Y2.6984
N14875 Y2.7044
N14880 X7.2324 Y2.7501
N14885 X7.2237 Y2.7959
N14890 X7.2151 Y2.8418
N14895 X7.2063 Y2.8877
N14900 X7.1968 Y2.9334
N14905 X7.1864 Y2.9789
N14910 X7.1748 Y3.0241
N14915 X7.1619 Y3.069
N14920 X7.1476 Y3.1135
N14925 X7.1318 Y3.1574
N14930 X7.1144 Y3.2008
N14935 X7.0955 Y3.2435
N14940 X7.0751 Y3.2854
N14945 X7.0531 Y3.3266
N14950 X7.0295 Y3.3669
N14955 X7.0044 Y3.4063
N14960 X6.9778 Y3.4447
N14965 X6.9497 Y3.482
N14970 X6.9202 Y3.5182
N14975 X6.8893 Y3.5532
N14980 X6.8571 Y3.587
N14985 X6.8236 Y3.6194
N14990 X6.7888 Y3.6506
N14995 X6.7528 Y3.6804
N15000 X6.7157 Y3.7087
N15005 X6.6775 Y3.7356
N15010 X6.6383 Y3.7609
N15015 X6.5981 Y3.7847
N15020 X6.557 Y3.8069
N15025 X6.5151 Y3.8274
N15030 X6.4724 Y3.8463
N15035 X6.429 Y3.8635
N15040 X6.385 Y3.879
N15045 X6.3403 Y3.8928
N15050 X6.2952 Y3.9048
N15055 X6.2527 Y3.924
N15060 X6.2152 Y3.9518
N15065 X6.2031 Y3.9603
N15070 X6.1896 Y3.9665
N15075 X6.1753 Y3.9701
N15080 X6.1643 Y3.9718
N15085 X6.153 Y3.9733
N15090 X6.1305 Y3.9756
N15095 X6.1193 Y3.9766
N15100 X6.0641 Y3.9795
N15105 X6.0581
N15110 X6.0124 Y3.9699
N15115 X5.9666 Y3.9611
N15120 X5.9207 Y3.9526
N15125 X5.8748 Y3.9437
N15130 X5.8291 Y3.9343
N15135 X5.7836 Y3.9239
N15140 X5.7383 Y3.9125
N15145 X5.6933 Y3.8998
N15150 X5.6488 Y3.8859
N15155 X5.6047 Y3.8705
N15160 X5.5611 Y3.8538
N15165 X5.5181 Y3.8357
N15170 X5.4756 Y3.8162
N15175 X5.4339 Y3.7953
N15180 X5.3928 Y3.773
N15185 X5.3526 Y3.7494
N15190 X5.3131 Y3.7245
N15195 X5.2745 Y3.6982
N15200 X5.2368 Y3.6706
N15205 X5.2001 Y3.6418
N15210 X5.1643 Y3.6118
N15215 X5.1297 Y3.5805
N15220 X5.0961 Y3.548
N15225 X5.0637 Y3.5144
N15230 X5.0326 Y3.4796
N15235 X5.0028 Y3.4436
N15240 X4.9748 Y3.4063
N15245 X4.9484 Y3.3678
N15250 X4.94 Y3.3544
N15255 X4.9387 Y3.3524
N15260 X4.9375 Y3.3502
N15265 X4.9363 Y3.3481
N15270 X4.9265 Y3.3291
N15275 X4.8921 Y3.2616
N15280 X4.8869 Y3.2504
N15285 X4.8825 Y3.2398
N15290 X4.8487 Y3.1519
N15295 X4.8477 Y3.1492
N15300 X4.8366 Y3.1154
N15305 X4.8335 Y3.1042
N15310 X4.8124 Y3.0255
N15315 X4.8095 Y3.0142
N15320 X4.8067 Y3.003
N15325 X4.7907 Y2.9018
N15330 X4.7892 Y2.8905
N15335 X4.7869 Y2.8681
N15340 X4.7859 Y2.8568
N15345 X4.7849 Y2.8382
N15350 X4.785 Y2.8342 F100.
N15355 X4.7856 Y2.8303
N15360 G2 X4.785 Y2.815 I-0.0332 J-0.0065
N15365 G3 X4.7831 Y2.8041 I0.0601 J-0.0163
N15370 G1 X4.7806 Y2.7556 F50.
N15375 Y2.7444
N15380 X4.7859 Y2.6432
N15385 X4.7869 Y2.6319
N15390 X4.7892 Y2.6095
N15395 X4.7907 Y2.5982
N15400 X4.8067 Y2.497
N15405 X4.8095 Y2.4858
N15410 X4.8124 Y2.4745
N15415 X4.8335 Y2.3958
N15420 X4.8366 Y2.3846
N15425 X4.8477 Y2.3508
N15430 X4.8487 Y2.3481
N15435 X4.8825 Y2.2602
N15440 X4.8869 Y2.2496
N15445 X4.8921 Y2.2384
N15450 X4.9274 Y2.1691
N15455 X4.944 Y2.1372
N15460 X4.9499 Y2.1269
N15465 X4.9949 Y2.0577
N15470 X5.0174 Y2.0238
N15475 X5.0255 Y2.0135
N15480 X5.0736 Y1.9541
N15485 X5.0803 Y1.9461
N15490 X5.0994 Y1.9236
N15495 X5.1073 Y1.9149
N15500 X5.1774 Y1.8449
N15505 X5.1861 Y1.8369
N15510 X5.2085 Y1.8178
N15515 X5.2166 Y1.8111
N15520 X5.276 Y1.763
N15525 X5.2863 Y1.7549
N15530 X5.321 Y1.7319
N15535 X5.3893 Y1.6874
N15540 X5.3997 Y1.6815
N15545 X5.4334 Y1.664
N15550 X5.5009 Y1.6296
N15555 X5.5121 Y1.6244
N15560 X5.5226 Y1.62
N15565 X5.6105 Y1.5863
N15570 X5.6133 Y1.5852
N15575 X5.6471 Y1.5741
N15580 X5.6583 Y1.571
N15585 X5.737 Y1.5499
N15590 X5.7482 Y1.547
N15595 X5.7595 Y1.5442
N15600 X5.8542 Y1.5292
N15605 X5.8558 Y1.529
N15610 X5.8851 Y1.5267
N15615 X5.93 Y1.523 F100.
N15620 X5.9609 Y1.5205
N15625 X6.0069 Y1.5181 F50.
N15630 X6.0181
N15635 X6.1193 Y1.5234
N15640 X6.1305 Y1.5244
N15645 X6.153 Y1.5267
N15650 X6.1643 Y1.5282
N15655 X6.2655 Y1.5442
N15660 X6.2767 Y1.547
N15665 X6.288 Y1.5499
N15670 X6.3667 Y1.571
N15675 X6.3779 Y1.5741
N15680 X6.4116 Y1.5852
N15685 X6.4145 Y1.5863
N15690 X6.5024 Y1.62
N15695 X6.5128 Y1.6244
N15700 X6.5241 Y1.6296
N15705 X6.5934 Y1.665
N15710 X6.6253 Y1.6815
N15715 X6.6356 Y1.6874
N15720 X6.7049 Y1.7324
N15725 X6.7387 Y1.7549
N15730 X6.749 Y1.763
N15735 X6.8084 Y1.8111
N15740 X6.8164 Y1.8178
N15745 X6.8389 Y1.8368
N15750 X6.8476 Y1.8449
N15755 X6.9176 Y1.9149
N15760 X6.9256 Y1.9236
N15765 X6.9447 Y1.9461
N15770 X6.9513 Y1.9541
N15775 X6.9995 Y2.0135
N15780 X7.0076 Y2.0237
N15785 X7.0307 Y2.0585
N15790 X7.075 Y2.1268
N15795 X7.081 Y2.1372
N15800 X7.0985 Y2.1709
N15805 X7.1329 Y2.2384
N15810 X7.1381 Y2.2496
N15815 X7.1425 Y2.2601
N15820 X7.1762 Y2.348
N15825 X7.1773 Y2.3508
N15830 X7.1884 Y2.3846
N15835 X7.1915 Y2.3958
N15840 X7.2126 Y2.4745
N15845 X7.2155 Y2.4858
N15850 X7.2183 Y2.497
N15855 X7.2325 Y2.5869
N15860 X7.2327 Y2.5883
N15865 X7.2352 Y2.6177
N15870 X7.2394 Y2.6676 F100.
N15875 X7.242 Y2.6984
N15880 X7.2444 Y2.7444 F50.
N15885 Y2.7556
N15890 X7.2391 Y2.8568
N15895 X7.2381 Y2.8681
N15900 X7.2358 Y2.8905
N15905 X7.2343 Y2.9018
N15910 X7.2183 Y3.003
N15915 X7.2155 Y3.0142
N15920 X7.2126 Y3.0255
N15925 X7.1915 Y3.1042
N15930 X7.1884 Y3.1154
N15935 X7.1773 Y3.1492
N15940 X7.1762 Y3.152
N15945 X7.1425 Y3.2399
N15950 X7.1381 Y3.2504
N15955 X7.1329 Y3.2616
N15960 X7.0975 Y3.331
N15965 X7.081 Y3.3628
N15970 X7.075 Y3.3732
N15975 X7.0301 Y3.4424
N15980 X7.0076 Y3.4763
N15985 X6.9995 Y3.4865
N15990 X6.9513 Y3.5459
N15995 X6.9447 Y3.5539
N16000 X6.9256 Y3.5764
N16005 X6.9176 Y3.5851
N16010 X6.8476 Y3.6551
N16015 X6.8389 Y3.6632
N16020 X6.8164 Y3.6822
N16025 X6.8084 Y3.6889
N16030 X6.749 Y3.737
N16035 X6.7387 Y3.7451
N16040 X6.704 Y3.7682
N16045 X6.6357 Y3.8126
N16050 X6.6253 Y3.8185
N16055 X6.5915 Y3.836
N16060 X6.5241 Y3.8704
N16065 X6.5128 Y3.8756
N16070 X6.5024 Y3.88
N16075 X6.4145 Y3.9137
N16080 X6.4116 Y3.9148
N16085 X6.3779 Y3.9259
N16090 X6.3667 Y3.929
N16095 X6.288 Y3.9501
N16100 X6.2767 Y3.9531
N16105 X6.2655 Y3.9558
N16110 X6.1753 Y3.9701
N16115 X6.1738 Y3.9702
N16120 X6.1444 Y3.9727
N16125 X6.0949 Y3.9769 F100.
N16130 X6.0641 Y3.9795
N16135 X6.0181 Y3.9819 F50.
N16140 X6.0069
N16145 X5.9057 Y3.9766
N16150 X5.8944 Y3.9756
N16155 X5.8719 Y3.9733
N16160 X5.8607 Y3.9718
N16165 X5.7595 Y3.9558
N16170 X5.7482 Y3.953
N16175 X5.737 Y3.9501
N16180 X5.6583 Y3.929
N16185 X5.6471 Y3.9259
N16190 X5.6133 Y3.9148
N16195 X5.6105 Y3.9137
N16200 X5.5226 Y3.88
N16205 X5.5121 Y3.8756
N16210 X5.5009 Y3.8704
N16215 X5.4315 Y3.835
N16220 X5.3997 Y3.8185
N16225 X5.3893 Y3.8126
N16230 X5.3201 Y3.7676
N16235 X5.2863 Y3.7451
N16240 X5.276 Y3.737
N16245 X5.2166 Y3.6889
N16250 X5.2085 Y3.6822
N16255 X5.1861 Y3.6631
N16260 X5.1774 Y3.6551
N16265 X5.1073 Y3.5851
N16270 X5.0994 Y3.5764
N16275 X5.0803 Y3.5539
N16280 X5.0736 Y3.5459
N16285 X5.0255 Y3.4865
N16290 X5.0174 Y3.4762
N16295 X4.9943 Y3.4415
N16300 X4.9499 Y3.3731
N16305 X4.944 Y3.3628
N16310 X4.9363 Y3.3481
N16315 X4.9353 Y3.3446 Z-0.1998
N16320 X4.9342 Y3.3411 Z-0.1991
N16325 X4.9332 Y3.3378 Z-0.198
N16330 X4.9329 Y3.3348 Z-0.1967
N16335 X4.9327 Y3.332 Z-0.1951
N16340 X4.9332 Y3.3288 Z-0.1927
N16345 X4.9336 Y3.3259 Z-0.1899
N16350 X4.934 Y3.3234 Z-0.1867
N16355 X4.9343 Y3.3213 Z-0.1833
N16360 X4.9348 Y3.3199 Z-0.1799
N16365 X4.9351 Y3.3189 Z-0.1764
N16370 X4.9353 Y3.3182 Z-0.1728
N16375 X4.9354 Y3.318 Z-0.1691
N16380 G0 Z0.2
N16385 G1 X6.0097 Y2.6665 F300.
N16390 G0 Z0.1
N16395 G1 Z-0.1 F100.
N16400 X6.0095 Y2.6666 Z-0.1112
N16405 X6.0087 Y2.6672 Z-0.1224
N16410 X6.0074 Y2.6681 Z-0.1335
N16415 X6.0056 Y2.6694 Z-0.1445
N16420 X6.0033 Y2.671 Z-0.1554
N16425 X6.0006 Y2.673 Z-0.1661
N16430 X5.9973 Y2.6753 Z-0.1765
N16435 X5.9936 Y2.6779 Z-0.1868
N16440 X5.9894 Y2.6809 Z-0.1967
N16445 X5.9847 Y2.6842 Z-0.2064
N16450 X5.9796 Y2.6878 Z-0.2157
N16455 X5.9741 Y2.6917 Z-0.2247
N16460 X5.9682 Y2.6959 Z-0.2333
N16465 X5.9619 Y2.7004 Z-0.2414
N16470 X5.9553 Y2.7051 Z-0.2491
N16475 X5.9483 Y2.71 Z-0.2564
N16480 X5.941 Y2.7152 Z-0.2631
N16485 X5.9334 Y2.7206 Z-0.2693
N16490 X5.9255 Y2.7262 Z-0.275
N16495 X5.9174 Y2.732 Z-0.2802
N16500 X5.909 Y2.7379 Z-0.2848
N16505 X5.9005 Y2.744 Z-0.2888
N16510 X5.8918 Y2.7502 Z-0.2922
N16515 X5.8829 Y2.7565 Z-0.295
N16520 X5.8739 Y2.7628 Z-0.2972
N16525 X5.8649 Y2.7693 Z-0.2987
N16530 X5.8558 Y2.7757 Z-0.2997
N16535 X5.8466 Y2.7822 Z-0.3
N16540 G3 X5.6666 Y2.8828 I-0.5541 J-0.7807
N16545 G1 X5.661 Y2.8849 F50.
N16550 X5.655 Y2.8845
N16555 X5.6491 Y2.8834
N16560 X5.6434 Y2.8815
N16565 X5.6367 Y2.8785
N16570 X5.6287 Y2.8742
N16575 X5.6211 Y2.8693
N16580 X5.6139 Y2.8639
N16585 X5.6058 Y2.8565
N16590 X5.5966 Y2.8468
N16595 X5.5866 Y2.8343
N16600 X5.5792 Y2.8234
N16605 X5.5714 Y2.8096
N16610 X5.5632 Y2.7921
N16615 X5.5559 Y2.7722
N16620 X5.5507 Y2.7538
N16625 X5.5462 Y2.731
N16630 X5.5431 Y2.7037
N16635 X5.5423 Y2.6807
N16640 X5.5436 Y2.6523
N16645 X5.5476 Y2.6215
N16650 X5.5533 Y2.594
N16655 X5.5634 Y2.56
N16660 X5.5744 Y2.5317
N16665 X5.5895 Y2.5001
N16670 X5.6077 Y2.469
N16675 X5.6275 Y2.4407
N16680 X5.6529 Y2.4099
N16685 X5.6765 Y2.3855
N16690 X5.7085 Y2.3574
N16695 X5.7354 Y2.3374
N16700 X5.7724 Y2.3142
N16705 X5.8024 Y2.2985
N16710 X5.842 Y2.2818
N16715 X5.8761 Y2.2706
N16720 X5.9172 Y2.2606
N16725 X5.954 Y2.2547
N16730 X5.9955 Y2.2515
N16735 X6.0338 Y2.2516
N16740 X6.0746 Y2.255
N16745 X6.1134 Y2.2614
N16750 X6.1524 Y2.2711
N16755 X6.1904 Y2.2838
N16760 X6.2269 Y2.2994
N16765 X6.263 Y2.3184
N16770 X6.2959 Y2.3393
N16775 X6.329 Y2.3642
N16780 X6.3578 Y2.3897
N16785 X6.3869 Y2.4201
N16790 X6.4108 Y2.4493
N16795 X6.4351 Y2.4845
N16800 X6.4537 Y2.5168
N16805 X6.4723 Y2.5559
N16810 X6.4853 Y2.5902
N16815 X6.4975 Y2.6322
N16820 X6.5048 Y2.6676
N16825 X6.5102 Y2.7116
N16830 X6.5117 Y2.7472
N16835 X6.51 Y2.7921
N16840 X6.5058 Y2.827
N16845 X6.4968 Y2.8715
N16850 X6.4873 Y2.9048
N16855 X6.4713 Y2.9473
N16860 X6.4565 Y2.9787
N16865 X6.4343 Y3.0174
N16870 X6.414 Y3.0469
N16875 X6.3864 Y3.081
N16880 X6.3611 Y3.1075
N16885 X6.329 Y3.1362
N16890 X6.2992 Y3.1588
N16895 X6.2634 Y3.1816
N16900 X6.2297 Y3.1995
N16905 X6.1914 Y3.2161
N16910 X6.1546 Y3.2285
N16915 X6.1148 Y3.2386
N16920 X6.0758 Y3.2451
N16925 X6.0356 Y3.2486
N16930 X5.9954 Y3.2488
N16935 X5.9557 Y3.2459
N16940 X5.9155 Y3.2396
N16945 X5.8774 Y3.2304
N16950 X5.8381 Y3.2176
N16955 X5.8025 Y3.2027
N16960 X5.7651 Y3.1835
N16965 X5.7329 Y3.1634
N16970 X5.6987 Y3.1381
N16975 X5.6635 Y3.1074
N16980 X5.6286 Y3.0764
N16985 X5.5937 Y3.0453
N16990 X5.5601 Y3.013
N16995 X5.5297 Y2.9796
N17000 X5.5049 Y2.9476
N17005 X5.484 Y2.9158
N17010 X5.4663 Y2.8832
N17015 X5.4512 Y2.8493
N17020 X5.4392 Y2.8151
N17025 X5.4299 Y2.7797
N17030 X5.4233 Y2.7427
N17035 X5.4196 Y2.7052
N17040 X5.419 Y2.6659
N17045 X5.4215 Y2.6264
N17050 X5.4273 Y2.5861
N17055 X5.4367 Y2.5452
N17060 X5.4494 Y2.5046
N17065 X5.466 Y2.4639
N17070 X5.4858 Y2.4244
N17075 X5.5092 Y2.3858
N17080 X5.5363 Y2.3484
N17085 X5.5661 Y2.3135
N17090 X5.5991 Y2.2806
N17095 X5.6347 Y2.2503
N17100 X5.6725 Y2.2229
N17105 X5.7124 Y2.1986
N17110 X5.754 Y2.1774
N17115 X5.7971 Y2.1594
N17120 X5.8414 Y2.1448
N17125 X5.8867 Y2.1335
N17130 X5.9327 Y2.1257
N17135 X5.9792 Y2.1213
N17140 X6.0259 Y2.1204
N17145 X6.0725 Y2.123
N17150 X6.1188 Y2.129
N17155 X6.1646 Y2.1385
N17160 X6.2094 Y2.1514
N17165 X6.2532 Y2.1676
N17170 X6.2957 Y2.187
N17175 X6.3366 Y2.2095
N17180 X6.3757 Y2.2351
N17185 X6.4128 Y2.2634
N17190 X6.4477 Y2.2944
N17195 X6.4803 Y2.3278
N17200 X6.5103 Y2.3636
N17205 X6.5376 Y2.4015
N17210 X6.562 Y2.4413
N17215 X6.5834 Y2.4828
N17220 X6.6017 Y2.5258
N17225 X6.6167 Y2.57
N17230 X6.6284 Y2.6152
N17235 X6.6366 Y2.6611
N17240 X6.6415 Y2.7076
N17245 X6.6428 Y2.7542
N17250 X6.6408 Y2.8009
N17255 X6.6353 Y2.8473
N17260 X6.6265 Y2.8931
N17265 X6.6142 Y2.9382
N17270 X6.5987 Y2.9822
N17275 X6.58 Y3.025
N17280 X6.5581 Y3.0662
N17285 X6.5333 Y3.1058
N17290 X6.5055 Y3.1433
N17295 X6.475 Y3.1787
N17300 X6.442 Y3.2117
N17305 X6.4066 Y3.2422
N17310 X6.3691 Y3.2699
N17315 X6.3296 Y3.2948
N17320 X6.2884 Y3.3168
N17325 X6.2457 Y3.3356
N17330 X6.2017 Y3.3513
N17335 X6.1566 Y3.3636
N17340 X6.1108 Y3.3727
N17345 X6.0645 Y3.3783
N17350 X6.0178 Y3.3804
N17355 X5.9712 Y3.3791
N17360 X5.9247 Y3.3742
N17365 X5.8788 Y3.366
N17370 X5.8336 Y3.3543
N17375 X5.7893 Y3.3394
N17380 X5.7463 Y3.3212
N17385 X5.7047 Y3.2999
N17390 X5.6647 Y3.2759
N17395 X5.6259 Y3.25
N17400 X5.5881 Y3.2225
N17405 X5.5514 Y3.1936
N17410 X5.516 Y3.1632
N17415 X5.4823 Y3.1309
N17420 X5.4504 Y3.0968
N17425 X5.4208 Y3.0607
N17430 X5.3936 Y3.0227
N17435 X5.3691 Y2.983
N17440 X5.3476 Y2.9416
N17445 X5.3292 Y2.8986
N17450 X5.3141 Y2.8544
N17455 X5.3024 Y2.8092
N17460 X5.2942 Y2.7633
N17465 X5.2894 Y2.7168
N17470 X5.2881 Y2.6702
N17475 X5.2903 Y2.6235
N17480 X5.2958 Y2.5772
N17485 X5.3046 Y2.5313
N17490 X5.3168 Y2.4862
N17495 X5.3321 Y2.4421
N17500 X5.3505 Y2.3992
N17505 X5.3717 Y2.3576
N17510 X5.3957 Y2.3175
N17515 X5.4223 Y2.2792
N17520 X5.4514 Y2.2427
N17525 X5.4829 Y2.2082
N17530 X5.5166 Y2.1759
N17535 X5.5523 Y2.1458
N17540 X5.5898 Y2.1179
N17545 X5.629 Y2.0926
N17550 X5.6698 Y2.0699
N17555 X5.7119 Y2.0498
N17560 X5.7553 Y2.0324
N17565 X5.7996 Y2.0176
N17570 X5.8447 Y2.0056
N17575 X5.8905 Y1.9965
N17580 X5.9367 Y1.9903
N17585 X5.9833 Y1.987
N17590 X6.03 Y1.9864
N17595 X6.0766 Y1.9887
N17600 X6.123 Y1.9939
N17605 X6.169 Y2.002
N17610 X6.2144 Y2.0129
N17615 X6.2591 Y2.0266
N17620 X6.3028 Y2.043
N17625 X6.3455 Y2.062
N17630 X6.3869 Y2.0836
N17635 X6.4268 Y2.1077
N17640 X6.4652 Y2.1342
N17645 X6.502 Y2.163
N17650 X6.5369 Y2.194
N17655 X6.57 Y2.227
N17660 X6.6009 Y2.262
N17665 X6.6296 Y2.2988
N17670 X6.656 Y2.3373
N17675 X6.68 Y2.3774
N17680 X6.7016 Y2.4188
N17685 X6.7206 Y2.4614
N17690 X6.7369 Y2.5052
N17695 X6.7504 Y2.5499
N17700 X6.7612 Y2.5953
N17705 X6.7693 Y2.6413
N17710 X6.7746 Y2.6877
N17715 X6.777 Y2.7343
N17720 X6.7765 Y2.781
N17725 X6.7731 Y2.8276
N17730 X6.767 Y2.8739
N17735 X6.7581 Y2.9197
N17740 X6.7464 Y2.9649
N17745 X6.732 Y3.0093
N17750 X6.7148 Y3.0527
N17755 X6.695 Y3.095
N17760 X6.6727 Y3.136
N17765 X6.648 Y3.1756
N17770 X6.6209 Y3.2136
N17775 X6.5914 Y3.2499
N17780 X6.5598 Y3.2842
N17785 X6.5261 Y3.3166
N17790 X6.4905 Y3.3468
N17795 X6.4532 Y3.3749
N17800 X6.4143 Y3.4006
N17805 X6.3738 Y3.4239
N17810 X6.332 Y3.4446
N17815 X6.2889 Y3.4628
N17820 X6.2449 Y3.4784
N17825 X6.2001 Y3.4913
N17830 X6.1545 Y3.5014
N17835 X6.1083 Y3.5086
N17840 X6.0618 Y3.513
N17845 X6.0152 Y3.5146
N17850 X5.9685 Y3.5133
N17855 X5.922 Y3.5093
N17860 X5.8758 Y3.5023
N17865 X5.8302 Y3.4924
N17870 X5.7852 Y3.4799
N17875 X5.7411 Y3.4646
N17880 X5.6979 Y3.4469
N17885 X5.6557 Y3.4268
N17890 X5.6146 Y3.4047
N17895 X5.5745 Y3.3808
N17900 X5.5355 Y3.3551
N17905 X5.4977 Y3.3277
N17910 X5.4611 Y3.2987
N17915 X5.4259 Y3.2681
N17920 X5.3921 Y3.2358
N17925 X5.36 Y3.2019
N17930 X5.3298 Y3.1663
N17935 X5.3015 Y3.1291
N17940 X5.2754 Y3.0904
N17945 X5.2515 Y3.0503
N17950 X5.23 Y3.0089
N17955 X5.211 Y2.9663
N17960 X5.1946 Y2.9225
N17965 X5.181 Y2.8779
N17970 X5.1701 Y2.8325
N17975 X5.1619 Y2.7865
N17980 X5.1565 Y2.7401
N17985 X5.154 Y2.6935
N17990 X5.1543 Y2.6468
N17995 X5.1575 Y2.6002
N18000 X5.1634 Y2.5539
N18005 X5.1721 Y2.508
N18010 X5.1834 Y2.4627
N18015 X5.1974 Y2.4182
N18020 X5.214 Y2.3745
N18025 X5.2331 Y2.3319
N18030 X5.2546 Y2.2905
N18035 X5.2783 Y2.2503
N18040 X5.3043 Y2.2114
N18045 X5.3324 Y2.1742
N18050 X5.3626 Y2.1386
N18055 X5.3947 Y2.1047
N18060 X5.4286 Y2.0726
N18065 X5.4642 Y2.0424
N18070 X5.5014 Y2.0141
N18075 X5.54 Y1.9879
N18080 X5.5801 Y1.9639
N18085 X5.6214 Y1.9421
N18090 X5.6637 Y1.9224
N18095 X5.7071 Y1.9051
N18100 X5.7513 Y1.89
N18105 X5.7962 Y1.8773
N18110 X5.8417 Y1.867
N18115 X5.8877 Y1.8591
N18120 X5.9341 Y1.8537
N18125 X5.9807 Y1.8506
N18130 X6.0274 Y1.85
N18135 X6.0741 Y1.8518
N18140 X6.1206 Y1.8561
N18145 X6.1668 Y1.8628
N18150 X6.2125 Y1.872
N18155 X6.2578 Y1.8835
N18160 X6.3024 Y1.8973
N18165 X6.3462 Y1.9134
N18170 X6.3892 Y1.9317
N18175 X6.4311 Y1.9523
N18180 X6.4718 Y1.9751
N18185 X6.5113 Y2.
N18190 X6.5495 Y2.0269
N18195 X6.5863 Y2.0556
N18200 X6.6215 Y2.0863
N18205 X6.6552 Y2.1186
N18210 X6.687 Y2.1528
N18215 X6.717 Y2.1885
N18220 X6.7452 Y2.2258
N18225 X6.7714 Y2.2645
N18230 X6.7956 Y2.3044
N18235 X6.8177 Y2.3455
N18240 X6.8376 Y2.3878
N18245 X6.8552 Y2.431
N18250 X6.8706 Y2.4751
N18255 X6.8836 Y2.5199
N18260 X6.8944 Y2.5654
N18265 X6.9028 Y2.6113
N18270 X6.9089 Y2.6576
N18275 X6.9125 Y2.7041
N18280 X6.9136 Y2.7508
N18285 X6.9123 Y2.7975
N18290 X6.9086 Y2.844
N18295 X6.9026 Y2.8903
N18300 X6.8942 Y2.9363
N18305 X6.8835 Y2.9817
N18310 X6.8703 Y3.0265
N18315 X6.8548 Y3.0705
N18320 X6.8371 Y3.1137
N18325 X6.8171 Y3.1559
N18330 X6.7951 Y3.1971
N18335 X6.7709 Y3.2371
N18340 X6.7447 Y3.2757
N18345 X6.7164 Y3.3129
N18350 X6.6863 Y3.3485
N18355 X6.6543 Y3.3826
N18360 X6.6207 Y3.415
N18365 X6.5855 Y3.4456
N18370 X6.5487 Y3.4744
N18375 X6.5104 Y3.5011
N18380 X6.4708 Y3.5259
N18385 X6.43 Y3.5485
N18390 X6.3881 Y3.569
N18395 X6.3451 Y3.5874
N18400 X6.3013 Y3.6036
N18405 X6.2567 Y3.6174
N18410 X6.2115 Y3.6289
N18415 X6.1657 Y3.638
N18420 X6.1195 Y3.6447
N18425 X6.073 Y3.649
N18430 X6.0263 Y3.651
N18435 X5.9796 Y3.6505
N18440 X5.933 Y3.6476
N18445 X5.8867 Y3.6422
N18450 X5.8406 Y3.6344
N18455 X5.795 Y3.6243
N18460 X5.75 Y3.6119
N18465 X5.7057 Y3.5974
N18470 X5.662 Y3.5807
N18475 X5.6192 Y3.5621
N18480 X5.5773 Y3.5416
N18485 X5.5362 Y3.5194
N18490 X5.4961 Y3.4954
N18495 X5.4571 Y3.4698
N18500 X5.4191 Y3.4427
N18505 X5.3822 Y3.414
N18510 X5.3466 Y3.3839
N18515 X5.3123 Y3.3522
N18520 X5.2794 Y3.319
N18525 X5.2481 Y3.2844
N18530 X5.2184 Y3.2483
N18535 X5.1905 Y3.2109
N18540 X5.1643 Y3.1723
N18545 X5.1399 Y3.1324
N18550 X5.1177 Y3.0914
N18555 X5.0975 Y3.0493
N18560 X5.0795 Y3.0062
N18565 X5.0637 Y2.9623
N18570 X5.0501 Y2.9176
N18575 X5.0473 Y2.9063
N18580 X5.0446 Y2.8949
N18585 X5.0344 Y2.8493
N18590 X5.0266 Y2.8033
N18595 X5.0211 Y2.7569
N18600 X5.018 Y2.7103
N18605 X5.0174 Y2.6637
N18610 X5.0191 Y2.617
N18615 X5.0233 Y2.5705
N18620 X5.0237 Y2.5647
N18625 X5.0241 Y2.5587
N18630 X5.0246 Y2.5527
N18635 X5.0252 Y2.5467
N18640 X5.0257 Y2.5408
N18645 X5.0264 Y2.5348
N18650 X5.0271 Y2.5288
N18655 X5.0278 Y2.5229
N18660 X5.0286 Y2.5169
N18665 X5.0294 Y2.511
N18670 X5.0303 Y2.505
N18675 X5.0312 Y2.4989
N18680 X5.0323 Y2.4926
N18685 X5.0333 Y2.4867
N18690 X5.0343 Y2.4808
N18695 X5.0354 Y2.4749
N18700 X5.0366 Y2.469
N18705 X5.0378 Y2.4631
N18710 X5.039 Y2.4571
N18715 X5.0404 Y2.4509
N18720 X5.0418 Y2.4444
N18725 X5.0434 Y2.438
N18730 X5.0448 Y2.4321
N18735 X5.0462 Y2.4263
N18740 X5.0477 Y2.4205
N18745 X5.0493 Y2.4147
N18750 X5.0509 Y2.4087
N18755 X5.0527 Y2.4025
N18760 X5.0545 Y2.396
N18765 X5.0565 Y2.3893
N18770 X5.0585 Y2.383
N18775 X5.0603 Y2.3772
N18780 X5.0621 Y2.3715
N18785 X5.064 Y2.3658
N18790 X5.066 Y2.3598
N18795 X5.0682 Y2.3536
N18800 X5.0705 Y2.3471
N18805 X5.0729 Y2.3404
N18810 X5.0754 Y2.3337
N18815 X5.0776 Y2.3279
N18820 X5.0798 Y2.3223
N18825 X5.0821 Y2.3165
N18830 X5.0845 Y2.3106
N18835 X5.087 Y2.3044
N18840 X5.0897 Y2.298
N18845 X5.0926 Y2.2914
N18850 X5.0956 Y2.2846
N18855 X5.0983 Y2.2786
N18860 X5.1008 Y2.2731
N18865 X5.1034 Y2.2675
N18870 X5.1062 Y2.2616
N18875 X5.1091 Y2.2556
N18880 X5.1122 Y2.2493
N18885 X5.1155 Y2.2428
N18890 X5.1189 Y2.2361
N18895 X5.1221 Y2.23
N18900 X5.125 Y2.2246
N18905 X5.128 Y2.2191
N18910 X5.1311 Y2.2133
N18915 X5.1344 Y2.2074
N18920 X5.1379 Y2.2013
N18925 X5.1416 Y2.1949
N18930 X5.1455 Y2.1882
N18935 X5.1491 Y2.1823
N18940 X5.1523 Y2.177
N18945 X5.1557 Y2.1715
N18950 X5.1592 Y2.1659
N18955 X5.1629 Y2.1601
N18960 X5.1669 Y2.154
N18965 X5.171 Y2.1477
N18970 X5.1754 Y2.1413
N18975 X5.1792 Y2.1356
N18980 X5.1828 Y2.1304
N18985 X5.1866 Y2.125
N18990 X5.1905 Y2.1195
N18995 X5.1947 Y2.1138
N19000 X5.1991 Y2.1078
N19005 X5.2037 Y2.1016
N19010 X5.2084 Y2.0954
N19015 X5.2125 Y2.0901
N19020 X5.2165 Y2.085
N19025 X5.2206 Y2.0798
N19030 X5.225 Y2.0743
N19035 X5.2297 Y2.0687
N19040 X5.2345 Y2.0628
N19045 X5.2397 Y2.0568
N19050 X5.2445 Y2.0511
N19055 X5.2488 Y2.0462
N19060 X5.2532 Y2.0412
N19065 X5.2578 Y2.036
N19070 X5.2626 Y2.0307
N19075 X5.2677 Y2.0252
N19080 X5.2731 Y2.0194
N19085 X5.2786 Y2.0136
N19090 X5.2835 Y2.0086
N19095 X5.288 Y2.0039
N19100 X5.2928 Y1.9991
N19105 X5.2978 Y1.9941
N19110 X5.3031 Y1.989
N19115 X5.3086 Y1.9836
N19120 X5.3144 Y1.9781
N19125 X5.32 Y1.9728
N19130 X5.3249 Y1.9684
N19135 X5.3298 Y1.9639
N19140 X5.3349 Y1.9593
N19145 X5.3403 Y1.9545
N19150 X5.346 Y1.9496
N19155 X5.352 Y1.9445
N19160 X5.3582 Y1.9392
N19165 X5.3636 Y1.9347
N19170 X5.3687 Y1.9306
N19175 X5.374 Y1.9263
N19180 X5.3795 Y1.9219
N19185 X5.3854 Y1.9173
N19190 X5.3915 Y1.9126
N19195 X5.3979 Y1.9077
N19200 X5.4041 Y1.903
N19205 X5.4095 Y1.8991
N19210 X5.415 Y1.8951
N19215 X5.4207 Y1.891
N19220 X5.4267 Y1.8868
N19225 X5.433 Y1.8824
N19230 X5.4396 Y1.8779
N19235 X5.4464 Y1.8733
N19240 X5.4522 Y1.8695
N19245 X5.4578 Y1.8658
N19250 X5.4637 Y1.8621
N19255 X5.4699 Y1.8582
N19260 X5.4764 Y1.8542
N19265 X5.4832 Y1.85
N19270 X5.4903 Y1.8457
N19275 X5.4967 Y1.842
N19280 X5.5025 Y1.8386
N19285 X5.5086 Y1.8352
N19290 X5.5149 Y1.8316
N19295 X5.5215 Y1.828
N19300 X5.5285 Y1.8242
N19305 X5.5358 Y1.8203
N19310 X5.5428 Y1.8167
N19315 X5.5488 Y1.8136
N19320 X5.555 Y1.8105
N19325 X5.5615 Y1.8073
N19330 X5.5682 Y1.804
N19335 X5.5753 Y1.8006
N19340 X5.5828 Y1.7971
N19345 X5.5902 Y1.7937
N19350 X5.5965 Y1.7909
N19355 X5.6028 Y1.7881
N19360 X5.6093 Y1.7853
N19365 X5.6161 Y1.7824
N19370 X5.6233 Y1.7794
N19375 X5.6308 Y1.7764
N19380 X5.6385 Y1.7733
N19385 X5.6452 Y1.7707
N19390 X5.6515 Y1.7683
N19395 X5.6581 Y1.7658
N19400 X5.665 Y1.7633
N19405 X5.6722 Y1.7608
N19410 X5.6797 Y1.7581
N19415 X5.6877 Y1.7555
N19420 X5.6949 Y1.7531
N19425 X5.7013 Y1.751
N19430 X5.7079 Y1.7489
N19435 X5.7149 Y1.7468
N19440 X5.7222 Y1.7446
N19445 X5.7298 Y1.7424
N19450 X5.7378 Y1.7401
N19455 X5.7455 Y1.738
N19460 X5.7521 Y1.7362
N19465 X5.7588 Y1.7345
N19470 X5.7659 Y1.7327
N19475 X5.7732 Y1.7309
N19480 X5.785 Y1.7282
N19485 X5.7971 Y1.7255
N19490 X5.8039 Y1.724
N19495 X5.8107 Y1.7226
N19500 X5.8178 Y1.7212
N19505 X5.8252 Y1.7198
N19510 X5.833 Y1.7184
N19515 X5.8412 Y1.717
N19520 X5.8495 Y1.7156
N19525 X5.8564 Y1.7145
N19530 X5.8633 Y1.7134
N19535 X5.8705 Y1.7124
N19540 X5.8779 Y1.7114
N19545 X5.8858 Y1.7103
N19550 X5.894 Y1.7093
N19555 X5.9024 Y1.7084
N19560 X5.9096 Y1.7076
N19565 X5.9164 Y1.7069
N19570 X5.9236 Y1.7062
N19575 X5.931 Y1.7056
N19580 X5.9389 Y1.705
N19585 X5.947 Y1.7044
N19590 X5.9556 Y1.7039
N19595 X5.9629 Y1.7035
N19600 X5.9697 Y1.7031
N19605 X5.9768 Y1.7029
N19610 X5.9842 Y1.7026
N19615 X5.9919 Y1.7024
N19620 X6. Y1.7022
N19625 X6.0084 Y1.7021
N19630 X6.0161
N19635 X6.0229
N19640 X6.0299 Y1.7022
N19645 X6.0372 Y1.7023
N19650 X6.0449 Y1.7025
N19655 X6.0529 Y1.7028
N19660 X6.0613 Y1.7031
N19665 X6.0692 Y1.7035
N19670 X6.0761 Y1.7039
N19675 X6.0831 Y1.7043
N19680 X6.0904 Y1.7048
N19685 X6.098 Y1.7054
N19690 X6.1059 Y1.706
N19695 X6.1143 Y1.7068
N19700 X6.1224 Y1.7076
N19705 X6.1293 Y1.7083
N19710 X6.1363 Y1.7091
N19715 X6.1435 Y1.71
N19720 X6.1511 Y1.711
N19725 X6.159 Y1.7121
N19730 X6.1673 Y1.7132
N19735 X6.1755 Y1.7145
N19740 X6.1824 Y1.7156
N19745 X6.1893 Y1.7167
N19750 X6.1965 Y1.718
N19755 X6.2041 Y1.7193
N19760 X6.2119 Y1.7208
N19765 X6.2201 Y1.7224
N19770 X6.2284 Y1.7241
N19775 X6.2353 Y1.7256
N19780 X6.2421 Y1.7271
N19785 X6.2493 Y1.7287
N19790 X6.2567 Y1.7304
N19795 X6.2645 Y1.7323
N19800 X6.2726 Y1.7343
N19805 X6.2808 Y1.7365
N19810 X6.2877 Y1.7383
N19815 X6.2944 Y1.7401
N19820 X6.3013 Y1.7421
N19825 X6.3086 Y1.7442
N19830 X6.3161 Y1.7464
N19835 X6.324 Y1.7488
N19840 X6.3322 Y1.7514
N19845 X6.3391 Y1.7536
N19850 X6.3456 Y1.7558
N19855 X6.3524 Y1.758
N19860 X6.3594 Y1.7605
N19865 X6.3668 Y1.7631
N19870 X6.3745 Y1.7659
N19875 X6.3825 Y1.7689
N19880 X6.3894 Y1.7715
N19885 X6.3958 Y1.774
N19890 X6.4025 Y1.7766
N19895 X6.4094 Y1.7794
N19900 X6.4166 Y1.7824
N19905 X6.4241 Y1.7855
N19910 X6.4319 Y1.7889
N19915 X6.4389 Y1.792
N19920 X6.4452 Y1.7948
N19925 X6.4517 Y1.7977
N19930 X6.4584 Y1.8009
N19935 X6.4654 Y1.8042
N19940 X6.4728 Y1.8078
N19945 X6.4805 Y1.8116
N19950 X6.4874 Y1.8151
N19955 X6.4936 Y1.8182
N19960 X6.4999 Y1.8215
N19965 X6.5065 Y1.825
N19970 X6.5134 Y1.8287
N19975 X6.5205 Y1.8326
N19980 X6.528 Y1.8368
N19985 X6.5349 Y1.8407
N19990 X6.5409 Y1.8442
N19995 X6.5471 Y1.8478
N20000 X6.5535 Y1.8516
N20005 X6.5602 Y1.8557
N20010 X6.5672 Y1.86
N20015 X6.5744 Y1.8646
N20020 X6.5811 Y1.8688
N20025 X6.5869 Y1.8726
N20030 X6.5929 Y1.8765
N20035 X6.5991 Y1.8807
N20040 X6.6056 Y1.8851
N20045 X6.6123 Y1.8897
N20050 X6.6193 Y1.8947
N20055 X6.6258 Y1.8993
N20060 X6.6314 Y1.9033
N20065 X6.6371 Y1.9075
N20070 X6.643 Y1.912
N20075 X6.6492 Y1.9166
N20080 X6.6556 Y1.9215
N20085 X6.6622 Y1.9267
N20090 X6.6686 Y1.9318
N20095 X6.674 Y1.9361
N20100 X6.6794 Y1.9406
N20105 X6.6851 Y1.9453
N20110 X6.6909 Y1.9502
N20115 X6.697 Y1.9554
N20120 X6.7034 Y1.9609
N20125 X6.7096 Y1.9664
N20130 X6.7148 Y1.971
N20135 X6.72 Y1.9757
N20140 X6.7254 Y1.9807
N20145 X6.731 Y1.9859
N20150 X6.7368 Y1.9914
N20155 X6.7428 Y1.9972
N20160 X6.7488 Y2.0031
N20165 X6.7538 Y2.008
N20170 X6.7587 Y2.013
N20175 X6.7639 Y2.0182
N20180 X6.7692 Y2.0238
N20185 X6.7747 Y2.0296
N20190 X6.7805 Y2.0357
N20195 X6.7862 Y2.0419
N20200 X6.791 Y2.0471
N20205 X6.7957 Y2.0524
N20210 X6.8006 Y2.0579
N20215 X6.8056 Y2.0637
N20220 X6.8108 Y2.0698
N20225 X6.8163 Y2.0762
N20230 X6.8217 Y2.0827
N20235 X6.8262 Y2.0882
N20240 X6.8307 Y2.0937
N20245 X6.8352 Y2.0995
N20250 X6.84 Y2.1055
N20255 X6.8449 Y2.1119
N20260 X6.85 Y2.1186
N20265 X6.8551 Y2.1254
N20270 X6.8593 Y2.1311
N20275 X6.8635 Y2.1368
N20280 X6.8677 Y2.1427
N20285 X6.8721 Y2.1489
N20290 X6.8766 Y2.1555
N20295 X6.8814 Y2.1624
N20300 X6.8861 Y2.1694
N20305 X6.8901 Y2.1754
N20310 X6.8938 Y2.1812
N20315 X6.8977 Y2.1873
N20320 X6.9018 Y2.1937
N20325 X6.9059 Y2.2004
N20330 X6.9102 Y2.2074
N20335 X6.9146 Y2.2147
N20340 X6.9183 Y2.221
N20345 X6.9218 Y2.227
N20350 X6.9253 Y2.2332
N20355 X6.929 Y2.2397
N20360 X6.9328 Y2.2466
N20365 X6.9367 Y2.2538
N20370 X6.9407 Y2.2614
N20375 X6.9442 Y2.268
N20380 X6.9473 Y2.2741
N20385 X6.9506 Y2.2805
N20390 X6.9539 Y2.2872
N20395 X6.9573 Y2.2943
N20400 X6.9608 Y2.3017
N20405 X6.9645 Y2.3094
N20410 X6.9677 Y2.3164
N20415 X6.9705 Y2.3227
N20420 X6.9734 Y2.3292
N20425 X6.9764 Y2.3361
N20430 X6.9794 Y2.3433
N20435 X6.9826 Y2.3509
N20440 X6.9858 Y2.3589
N20445 X6.9887 Y2.3661
N20450 X6.9912 Y2.3725
N20455 X6.9938 Y2.3792
N20460 X6.9964 Y2.3863
N20465 X6.9991 Y2.3937
N20470 X7.0019 Y2.4014
N20475 X7.0047 Y2.4096
N20480 X7.0072 Y2.4169
N20485 X7.0094 Y2.4235
N20490 X7.0116 Y2.4304
N20495 X7.0139 Y2.4375
N20500 X7.0162 Y2.445
N20505 X7.0186 Y2.4529
N20510 X7.021 Y2.4612
N20515 X7.0231 Y2.4687
N20520 X7.0249 Y2.4753
N20525 X7.0268 Y2.4822
N20530 X7.0287 Y2.4894
N20535 X7.0306 Y2.497
N20540 X7.0325 Y2.5049
N20545 X7.0345 Y2.5132
N20550 X7.037 Y2.5242
N20555 X7.0392 Y2.5345
N20560 X7.0407 Y2.5418
N20565 X7.0422 Y2.5493
N20570 X7.0437 Y2.5572
N20575 X7.0452 Y2.5655
N20580 X7.0466 Y2.5735
N20585 X7.0477 Y2.5803
N20590 X7.0489 Y2.5873
N20595 X7.05 Y2.5945
N20600 X7.0511 Y2.6021
N20605 X7.0522 Y2.6101
N20610 X7.0533 Y2.6185
N20615 X7.0543 Y2.6266
N20620 X7.0551 Y2.6335
N20625 X7.0558 Y2.6406
N20630 X7.0566 Y2.6479
N20635 X7.0573 Y2.6555
N20640 X7.058 Y2.6635
N20645 X7.0586 Y2.672
N20650 X7.0592 Y2.6803
N20655 X7.0597 Y2.6873
N20660 X7.0601 Y2.6943
N20665 X7.0604 Y2.7017
N20670 X7.0608 Y2.7094
N20675 X7.061 Y2.7175
N20680 X7.0613 Y2.726
N20685 X7.0614 Y2.7343
N20690 X7.0615 Y2.7414
N20695 X7.0616 Y2.7485
N20700 X7.0615 Y2.7559
N20705 Y2.7636
N20710 X7.0613 Y2.7717
N20715 X7.0611 Y2.7802
N20720 X7.0609 Y2.7886
N20725 X7.0606 Y2.7956
N20730 X7.0603 Y2.8027
N20735 X7.0599 Y2.8101
N20740 X7.0594 Y2.8177
N20745 X7.0588 Y2.8258
N20750 X7.0582 Y2.8342
N20755 X7.0575 Y2.8426
N20760 X7.0569 Y2.8496
N20765 X7.0562 Y2.8566
N20770 X7.0554 Y2.8638
N20775 X7.0546 Y2.8714
N20780 X7.0536 Y2.8793
N20785 X7.0526 Y2.8875
N20790 X7.0514 Y2.8959
N20795 X7.0504 Y2.903
N20800 X7.0494 Y2.9098
N20805 X7.0483 Y2.917
N20810 X7.0471 Y2.9244
N20815 X7.0457 Y2.9322
N20820 X7.0442 Y2.9404
N20825 X7.0427 Y2.9488
N20830 X7.0413 Y2.9558
N20835 X7.0399 Y2.9626
N20840 X7.0384 Y2.9697
N20845 X7.0368 Y2.9771
N20850 X7.0351 Y2.9848
N20855 X7.0332 Y2.9928
N20860 X7.0312 Y3.0012
N20865 X7.0294 Y3.0083
N20870 X7.0277 Y3.015
N20875 X7.0258 Y3.022
N20880 X7.0238 Y3.0293
N20885 X7.0217 Y3.0369
N20890 X7.0194 Y3.0449
N20895 X7.0169 Y3.0531
N20900 X7.0148 Y3.0602
N20905 X7.0127 Y3.0669
N20910 X7.0105 Y3.0738
N20915 X7.0081 Y3.081
N20920 X7.0056 Y3.0885
N20925 X7.0029 Y3.0963
N20930 X7. Y3.1045
N20935 X6.9975 Y3.1115
N20940 X6.995 Y3.118
N20945 X6.9925 Y3.1248
N20950 X6.9897 Y3.1319
N20955 X6.9868 Y3.1393
N20960 X6.9837 Y3.147
N20965 X6.9804 Y3.155
N20970 X6.9775 Y3.1619
N20975 X6.9748 Y3.1682
N20980 X6.9719 Y3.1748
N20985 X6.9688 Y3.1816
N20990 X6.9656 Y3.1888
N20995 X6.9621 Y3.1962
N21000 X6.9584 Y3.204
N21005 X6.9551 Y3.2108
N21010 X6.9521 Y3.217
N21015 X6.9489 Y3.2233
N21020 X6.9456 Y3.2299
N21025 X6.942 Y3.2368
N21030 X6.9382 Y3.244
N21035 X6.9342 Y3.2515
N21040 X6.9304 Y3.2584
N21045 X6.9271 Y3.2643
N21050 X6.9236 Y3.2705
N21055 X6.9199 Y3.2769
N21060 X6.916 Y3.2835
N21065 X6.9119 Y3.2905
N21070 X6.9075 Y3.2977
N21075 X6.9033 Y3.3045
N21080 X6.8996 Y3.3104
N21085 X6.8958 Y3.3163
N21090 X6.8918 Y3.3225
N21095 X6.8875 Y3.329
N21100 X6.8831 Y3.3357
N21105 X6.8783 Y3.3427
N21110 X6.8737 Y3.3494
N21115 X6.8697 Y3.3551
N21120 X6.8656 Y3.3609
N21125 X6.8613 Y3.3668
N21130 X6.8567 Y3.3731
N21135 X6.8518 Y3.3796
N21140 X6.8467 Y3.3863
N21145 X6.8417 Y3.3929
N21150 X6.8374 Y3.3984
N21155 X6.833 Y3.4039
N21160 X6.8283 Y3.4097
N21165 X6.8234 Y3.4157
N21170 X6.8183 Y3.422
N21175 X6.8128 Y3.4285
N21180 X6.8074 Y3.4348
N21185 X6.8028 Y3.4401
N21190 X6.7981 Y3.4454
N21195 X6.7932 Y3.4509
N21200 X6.788 Y3.4567
N21205 X6.7826 Y3.4626
N21210 X6.7768 Y3.4688
N21215 X6.7711 Y3.4749
N21220 X6.7662 Y3.4799
N21225 X6.7613 Y3.4849
N21230 X6.7562 Y3.4901
N21235 X6.7508 Y3.4955
N21240 X6.7451 Y3.5011
N21245 X6.739 Y3.5069
N21250 X6.733 Y3.5127
N21255 X6.7279 Y3.5175
N21260 X6.7227 Y3.5223
N21265 X6.7174 Y3.5272
N21270 X6.7117 Y3.5322
N21275 X6.7058 Y3.5375
N21280 X6.6995 Y3.543
N21285 X6.6931 Y3.5485
N21290 X6.6877 Y3.5531
N21295 X6.6823 Y3.5575
N21300 X6.6767 Y3.5621
N21305 X6.6708 Y3.5669
N21310 X6.6647 Y3.5718
N21315 X6.6581 Y3.577
N21320 X6.6514 Y3.5822
N21325 X6.6456 Y3.5866
N21330 X6.6401 Y3.5908
N21335 X6.6342 Y3.5951
N21340 X6.6281 Y3.5996
N21345 X6.6216 Y3.6042
N21350 X6.6148 Y3.609
N21355 X6.6078 Y3.6139
N21360 X6.6018 Y3.618
N21365 X6.596 Y3.6219
N21370 X6.5899 Y3.6259
N21375 X6.5835 Y3.6301
N21380 X6.5768 Y3.6344
N21385 X6.5697 Y3.6389
N21390 X6.5624 Y3.6434
N21395 X6.5561 Y3.6473
N21400 X6.5501 Y3.6509
N21405 X6.5438 Y3.6546
N21410 X6.5372 Y3.6584
N21415 X6.5303 Y3.6624
N21420 X6.523 Y3.6665
N21425 X6.5154 Y3.6707
N21430 X6.509 Y3.6742
N21435 X6.5028 Y3.6775
N21440 X6.4964 Y3.6808
N21445 X6.4896 Y3.6843
N21450 X6.4825 Y3.6879
N21455 X6.4751 Y3.6916
N21460 X6.4674 Y3.6954
N21465 X6.4607 Y3.6986
N21470 X6.4545 Y3.7015
N21475 X6.4479 Y3.7045
N21480 X6.4411 Y3.7076
N21485 X6.4339 Y3.7107
N21490 X6.4264 Y3.714
N21495 X6.4185 Y3.7174
N21500 X6.4115 Y3.7203
N21505 X6.4052 Y3.7229
N21510 X6.3986 Y3.7255
N21515 X6.3916 Y3.7282
N21520 X6.3843 Y3.731
N21525 X6.3767 Y3.7339
N21530 X6.3687 Y3.7368
N21535 X6.3614 Y3.7394
N21540 X6.3549 Y3.7417
N21545 X6.3482 Y3.744
N21550 X6.3411 Y3.7463
N21555 X6.3337 Y3.7487
N21560 X6.3259 Y3.7512
N21565 X6.3178 Y3.7537
N21570 X6.3103 Y3.756
N21575 X6.3036 Y3.7579
N21580 X6.2968 Y3.7598
N21585 X6.2896 Y3.7618
N21590 X6.282 Y3.7639
N21595 X6.2741 Y3.7659
N21600 X6.2658 Y3.768
N21605 X6.2581 Y3.7699
N21610 X6.2514 Y3.7715
N21615 X6.2407 Y3.7739
N21620 X6.2294 Y3.7764
N21625 X6.2213 Y3.778
N21630 X6.2129 Y3.7797
N21635 X6.2051 Y3.7812
N21640 X6.1983 Y3.7825
N21645 X6.1912 Y3.7837
N21650 X6.1838 Y3.785
N21655 X6.1761 Y3.7862
N21660 X6.168 Y3.7875
N21665 X6.1595 Y3.7887
N21670 X6.1516 Y3.7898
N21675 X6.1448 Y3.7907
N21680 X6.1377 Y3.7916
N21685 X6.1304 Y3.7924
N21690 X6.1227 Y3.7933
N21695 X6.1147 Y3.7941
N21700 X6.1062 Y3.7949
N21705 X6.0981 Y3.7956
N21710 X6.0913 Y3.7961
N21715 X6.0843 Y3.7966
N21720 X6.077 Y3.7971
N21725 X6.0693 Y3.7975
N21730 X6.0613 Y3.7979
N21735 X6.0529 Y3.7983
N21740 X6.0447 Y3.7986
N21745 X6.0377 Y3.7988
N21750 X6.0307 Y3.7989
N21755 X6.0234 Y3.799
N21760 X6.0158
N21765 X6.0078
N21770 X5.9995
N21775 X5.9911 Y3.7988
N21780 X5.9841 Y3.7987
N21785 X5.9771 Y3.7984
N21790 X5.9697 Y3.7982
N21795 X5.9621 Y3.7978
N21800 X5.9541 Y3.7974
N21805 X5.9458 Y3.7969
N21810 X5.9373 Y3.7963
N21815 X5.9302 Y3.7958
N21820 X5.9232 Y3.7952
N21825 X5.9158 Y3.7945
N21830 X5.9082 Y3.7938
N21835 X5.9001 Y3.793
N21840 X5.8917 Y3.792
N21845 X5.8833 Y3.791
N21850 X5.8762 Y3.7901
N21855 X5.8691 Y3.7891
N21860 X5.8616 Y3.7881
N21865 X5.8539 Y3.7869
N21870 X5.8458 Y3.7857
N21875 X5.8373 Y3.7843
N21880 X5.829 Y3.7828
N21885 X5.8219 Y3.7816
N21890 X5.8146 Y3.7802
N21895 X5.8071 Y3.7787
N21900 X5.7992 Y3.7771
N21905 X5.7909 Y3.7754
N21910 X5.7822 Y3.7735
N21915 X5.7743 Y3.7717
N21920 X5.7672 Y3.7701
N21925 X5.7598 Y3.7683
N21930 X5.7521 Y3.7664
N21935 X5.744 Y3.7643
N21940 X5.7356 Y3.7621
N21945 X5.7269 Y3.7597
N21950 X5.7195 Y3.7577
N21955 X5.7122 Y3.7555
N21960 X5.7046 Y3.7533
N21965 X5.6967 Y3.7509
N21970 X5.6883 Y3.7483
N21975 X5.6796 Y3.7455
N21980 X5.6716 Y3.7429
N21985 X5.6643 Y3.7404
N21990 X5.6568 Y3.7378
N21995 X5.6488 Y3.735
N22000 X5.6405 Y3.732
N22005 X5.6318 Y3.7288
N22010 X5.6234 Y3.7256
N22015 X5.6161 Y3.7228
N22020 X5.6086 Y3.7198
N22025 X5.6007 Y3.7166
N22030 X5.5924 Y3.7132
N22035 X5.5837 Y3.7096
N22040 X5.5751 Y3.7059
N22045 X5.5678 Y3.7027
N22050 X5.5602 Y3.6993
N22055 X5.5523 Y3.6957
N22060 X5.544 Y3.6919
N22065 X5.5352 Y3.6877
N22070 X5.5267 Y3.6836
N22075 X5.5194 Y3.68
N22080 X5.5118 Y3.6763
N22085 X5.5039 Y3.6722
N22090 X5.4956 Y3.6679
N22095 X5.4868 Y3.6633
N22100 X5.4786 Y3.6589
N22105 X5.4714 Y3.6549
N22110 X5.4638 Y3.6507
N22115 X5.4559 Y3.6462
N22120 X5.4475 Y3.6414
N22125 X5.4387 Y3.6362
N22130 X5.4311 Y3.6317
N22135 X5.4239 Y3.6273
N22140 X5.4164 Y3.6227
N22145 X5.4085 Y3.6178
N22150 X5.4002 Y3.6125
N22155 X5.3916 Y3.6069
N22160 X5.3845 Y3.6023
N22165 X5.3775 Y3.5976
N22170 X5.3702 Y3.5926
N22175 X5.3624 Y3.5873
N22180 X5.3543 Y3.5816
N22185 X5.3462 Y3.5759
N22190 X5.3396 Y3.5711
N22195 X5.3328 Y3.5661
N22200 X5.3258 Y3.5609
N22205 X5.3184 Y3.5553
N22210 X5.3106 Y3.5493
N22215 X5.3029 Y3.5433
N22220 X5.2966 Y3.5383
