%
O01002
(Using high feed G1 F300. instead of G0.)
(T6 D=0.375 CR=0. - ZMIN=-1.02 - flat end mill)
(T17 D=0.266 CR=0. TAPER=118deg - ZMIN=-1.02 - drill)
(T18 D=0.75 CR=0. - ZMIN=-0.96 - reamer)
N10 G90 G17
N15 G20
N20 G53 G0 Z0.

(2D Adaptive3)
N25 T6 M6
N30 S2546 M3
N35 G54
N40 G17 G90
N45 M8
N50 G1 X9.501 Y2.6672 F300.
N55 G0 G43 Z0.6 H6
N60 T18
N65 G0 Z0.2
N70 Z0.13
N75 G1 X9.5008 Y2.6674 Z0.1188 F20.
N80 X9.5001 Y2.6681 Z0.1076
N85 X9.4989 Y2.6691 Z0.0965
N90 X9.4972 Y2.6705 Z0.0855
N95 X9.4951 Y2.6724 Z0.0746
N100 X9.4926 Y2.6747 Z0.0639
N105 X9.4896 Y2.6773 Z0.0535
N110 X9.4861 Y2.6803 Z0.0432
N115 X9.4823 Y2.6837 Z0.0333
N120 X9.478 Y2.6875 Z0.0236
N125 X9.4733 Y2.6916 Z0.0143
N130 X9.4683 Y2.6961 Z0.0053
N135 X9.4628 Y2.7009 Z-0.0033
N140 X9.457 Y2.7059 Z-0.0114
N145 X9.4509 Y2.7113 Z-0.0191
N150 X9.4445 Y2.717 Z-0.0264
N155 X9.4378 Y2.7229 Z-0.0331
N160 X9.4308 Y2.7291 Z-0.0393
N165 X9.4235 Y2.7355 Z-0.045
N170 X9.416 Y2.7421 Z-0.0502
N175 X9.4083 Y2.7488 Z-0.0548
N180 X9.4005 Y2.7558 Z-0.0588
N185 X9.3925 Y2.7628 Z-0.0622
N190 X9.3843 Y2.77 Z-0.065
N195 X9.376 Y2.7773 Z-0.0672
N200 X9.3677 Y2.7846 Z-0.0687
N205 X9.3593 Y2.792 Z-0.0697
N210 X9.3509 Y2.7994 Z-0.07
N215 G3 X9.1823 Y2.9182 I-0.6327 J-0.7185
N220 G1 X9.177 Y2.921 F50.
N225 X9.171 Y2.9214
N230 X9.165 Y2.9207
N235 X9.1585 Y2.9192
N240 X9.1513 Y2.9169
N245 X9.1451 Y2.9145
N250 X9.1376 Y2.9107
N255 X9.1288 Y2.9053
N260 X9.1186 Y2.898
N265 X9.1089 Y2.8898
N270 X9.1001 Y2.881
N275 X9.0904 Y2.8696
N280 X9.0797 Y2.8548
N285 X9.0702 Y2.8392
N290 X9.0622 Y2.8232
N295 X9.054 Y2.8029
N300 X9.0464 Y2.7788
N305 X9.0416 Y2.7577
N310 X9.0378 Y2.7314
N315 X9.036 Y2.7015
N320 X9.0364 Y2.6753
N325 X9.0396 Y2.6426
N330 X9.0451 Y2.6121
N335 X9.0534 Y2.5807
N340 X9.0657 Y2.5458
N345 X9.0787 Y2.5166
N350 X9.0984 Y2.4805
N355 X9.1157 Y2.4541
N360 X9.1407 Y2.4219
N365 X9.1643 Y2.396
N370 X9.1936 Y2.3687
N375 X9.2231 Y2.3454
N380 X9.2559 Y2.3235
N385 X9.2902 Y2.3043
N390 X9.3255 Y2.2882
N395 X9.3637 Y2.2743
N400 X9.4006 Y2.2642
N405 X9.4415 Y2.2564
N410 X9.4789 Y2.2524
N415 X9.5214 Y2.2513
N420 X9.5584 Y2.2532
N425 X9.6012 Y2.259
N430 X9.6368 Y2.2668
N435 X9.6788 Y2.2795
N440 X9.7123 Y2.2927
N445 X9.7522 Y2.3122
N450 X9.7827 Y2.3303
N455 X9.8194 Y2.3563
N460 X9.8463 Y2.3787
N465 X9.8787 Y2.4106
N470 X9.9013 Y2.4366
N475 X9.928 Y2.473
N480 X9.9465 Y2.5029
N485 X9.9667 Y2.5424
N490 X9.9805 Y2.5757
N495 X9.9939 Y2.6172
N500 X10.0023 Y2.653
N505 X10.0088 Y2.6954
N510 X10.0115 Y2.733
N515 X10.0111 Y2.7752
N520 X10.0077 Y2.8134
N525 X10.0007 Y2.8544
N530 X9.991 Y2.8922
N535 X9.9777 Y2.9308
N540 X9.9619 Y2.9672
N545 X9.9429 Y3.0027
N550 X9.9211 Y3.0366
N555 X9.8971 Y3.0681
N560 X9.8697 Y3.0986
N565 X9.8414 Y3.1254
N570 X9.809 Y3.1514
N575 X9.7773 Y3.173
N580 X9.7406 Y3.1939
N585 X9.7064 Y3.2098
N590 X9.6663 Y3.2248
N595 X9.6305 Y3.2349
N600 X9.5881 Y3.2434
N605 X9.5516 Y3.2476
N610 X9.5078 Y3.2491
N615 X9.4717 Y3.2475
N620 X9.4276 Y3.2419
N625 X9.3928 Y3.2347
N630 X9.3497 Y3.222
N635 X9.317 Y3.2094
N640 X9.2759 Y3.1897
N645 X9.2461 Y3.1723
N650 X9.2077 Y3.1457
N655 X9.1698 Y3.1184
N660 X9.1318 Y3.0913
N665 X9.0948 Y3.0628
N670 X9.0596 Y3.0321
N675 X9.0315 Y3.0033
N680 X9.007 Y2.9738
N685 X8.9853 Y2.943
N690 X8.9669 Y2.9116
N695 X8.951 Y2.8788
N700 X8.9375 Y2.8442
N705 X8.9269 Y2.8089
N710 X8.9189 Y2.7715
N715 X8.9138 Y2.7331
N720 X8.9119 Y2.6936
N725 X8.9131 Y2.6525
N730 X8.9177 Y2.6114
N735 X8.9259 Y2.5689
N740 X8.9375 Y2.5272
N745 X8.9527 Y2.4858
N750 X8.9715 Y2.4449
N755 X8.9937 Y2.4055
N760 X9.0196 Y2.367
N765 X9.0487 Y2.3305
N770 X9.0806 Y2.2964
N775 X9.1151 Y2.2649
N780 X9.152 Y2.2362
N785 X9.1909 Y2.2105
N790 X9.2317 Y2.1877
N795 X9.2741 Y2.1682
N800 X9.3178 Y2.1518
N805 X9.3627 Y2.1389
N810 X9.4084 Y2.1292
N815 X9.4547 Y2.123
N820 X9.5013 Y2.1203
N825 X9.548 Y2.121
N830 X9.5945 Y2.1253
N835 X9.6405 Y2.133
N840 X9.6858 Y2.1441
N845 X9.7302 Y2.1586
N850 X9.7734 Y2.1763
N855 X9.8152 Y2.1972
N860 X9.8553 Y2.2211
N865 X9.8935 Y2.2479
N870 X9.9297 Y2.2775
N875 X9.9636 Y2.3096
N880 X9.995 Y2.3441
N885 X10.0238 Y2.3809
N890 X10.0497 Y2.4197
N895 X10.0727 Y2.4604
N900 X10.0926 Y2.5026
N905 X10.1093 Y2.5462
N910 X10.1227 Y2.5909
N915 X10.1327 Y2.6365
N920 X10.1393 Y2.6828
N925 X10.1425 Y2.7293
N930 X10.1423 Y2.776
N935 X10.1386 Y2.8226
N940 X10.1316 Y2.8687
N945 X10.1211 Y2.9142
N950 X10.1073 Y2.9588
N955 X10.0903 Y3.0023
N960 X10.07 Y3.0444
N965 X10.0467 Y3.0848
N970 X10.0204 Y3.1234
N975 X9.9913 Y3.1599
N980 X9.9596 Y3.1942
N985 X9.9254 Y3.2261
N990 X9.8891 Y3.2553
N995 X9.8506 Y3.2818
N1000 X9.8103 Y3.3054
N1005 X9.7684 Y3.3259
N1010 X9.7251 Y3.3434
N1015 X9.6806 Y3.3575
N1020 X9.6351 Y3.3684
N1025 X9.589 Y3.3758
N1030 X9.5425 Y3.3797
N1035 X9.4958 Y3.3802
N1040 X9.4492 Y3.3772
N1045 X9.403 Y3.3708
N1050 X9.3573 Y3.3609
N1055 X9.3125 Y3.3478
N1060 X9.2688 Y3.3314
N1065 X9.2264 Y3.312
N1070 X9.1849 Y3.2904
N1075 X9.1444 Y3.2672
N1080 X9.1048 Y3.2425
N1085 X9.0663 Y3.2161
N1090 X9.0292 Y3.1878
N1095 X8.9937 Y3.1574
N1100 X8.9602 Y3.1249
N1105 X8.929 Y3.0902
N1110 X8.9002 Y3.0534
N1115 X8.8741 Y3.0147
N1120 X8.851 Y2.9741
N1125 X8.831 Y2.9319
N1130 X8.8142 Y2.8883
N1135 X8.8008 Y2.8436
N1140 X8.7909 Y2.798
N1145 X8.7843 Y2.7518
N1150 X8.7812 Y2.7052
N1155 X8.7814 Y2.6585
N1160 X8.785 Y2.6119
N1165 X8.7919 Y2.5658
N1170 X8.8022 Y2.5202
N1175 X8.8156 Y2.4755
N1180 X8.832 Y2.4318
N1185 X8.8514 Y2.3893
N1190 X8.8734 Y2.3482
N1195 X8.8983 Y2.3086
N1200 X8.9258 Y2.2709
N1205 X8.9557 Y2.235
N1210 X8.9877 Y2.2011
N1215 X9.0219 Y2.1693
N1220 X9.0581 Y2.1397
N1225 X9.0961 Y2.1126
N1230 X9.1357 Y2.0879
N1235 X9.1768 Y2.0657
N1240 X9.2192 Y2.0461
N1245 X9.2627 Y2.0292
N1250 X9.3072 Y2.015
N1255 X9.3525 Y2.0036
N1260 X9.3984 Y1.9951
N1265 X9.4447 Y1.9893
N1270 X9.4913 Y1.9864
N1275 X9.538 Y1.9863
N1280 X9.5846 Y1.9892
N1285 X9.6309 Y1.995
N1290 X9.6768 Y2.0037
N1295 X9.7221 Y2.015
N1300 X9.7666 Y2.0291
N1305 X9.8102 Y2.0459
N1310 X9.8526 Y2.0654
N1315 X9.8938 Y2.0874
N1320 X9.9335 Y2.112
N1325 X9.9717 Y2.1388
N1330 X10.0083 Y2.1679
N1335 X10.0429 Y2.1992
N1340 X10.0755 Y2.2326
N1345 X10.1061 Y2.2679
N1350 X10.1344 Y2.305
N1355 X10.1605 Y2.3437
N1360 X10.1841 Y2.384
N1365 X10.2052 Y2.4257
N1370 X10.2236 Y2.4686
N1375 X10.2394 Y2.5125
N1380 X10.2525 Y2.5573
N1385 X10.2629 Y2.6028
N1390 X10.2705 Y2.6489
N1395 X10.2752 Y2.6954
N1400 X10.277 Y2.742
N1405 X10.2761 Y2.7887
N1410 X10.2723 Y2.8352
N1415 X10.2658 Y2.8815
N1420 X10.2564 Y2.9272
N1425 X10.2441 Y2.9723
N1430 X10.2292 Y3.0165
N1435 X10.2115 Y3.0597
N1440 X10.1914 Y3.1018
N1445 X10.1687 Y3.1426
N1450 X10.1434 Y3.1819
N1455 X10.1158 Y3.2196
N1460 X10.086 Y3.2555
N1465 X10.054 Y3.2895
N1470 X10.0201 Y3.3216
N1475 X9.9843 Y3.3516
N1480 X9.9467 Y3.3792
N1485 X9.9074 Y3.4045
N1490 X9.8667 Y3.4274
N1495 X9.8247 Y3.4478
N1500 X9.7816 Y3.4657
N1505 X9.7374 Y3.4808
N1510 X9.6924 Y3.4931
N1515 X9.6467 Y3.5027
N1520 X9.6005 Y3.5095
N1525 X9.5539 Y3.5135
N1530 X9.5073 Y3.5146
N1535 X9.4606 Y3.5129
N1540 X9.4141 Y3.5082
N1545 X9.3681 Y3.5008
N1550 X9.3225 Y3.4906
N1555 X9.2776 Y3.4777
N1560 X9.2335 Y3.4625
N1565 X9.1902 Y3.445
N1570 X9.1477 Y3.4256
N1575 X9.1061 Y3.4044
N1580 X9.0655 Y3.3813
N1585 X9.026 Y3.3565
N1590 X8.9876 Y3.3299
N1595 X8.9505 Y3.3015
N1600 X8.9149 Y3.2714
N1605 X8.8809 Y3.2394
N1610 X8.8487 Y3.2055
N1615 X8.8185 Y3.1699
N1620 X8.7903 Y3.1327
N1625 X8.7642 Y3.094
N1630 X8.7406 Y3.0537
N1635 X8.7195 Y3.0121
N1640 X8.7009 Y2.9692
N1645 X8.685 Y2.9253
N1650 X8.6718 Y2.8805
N1655 X8.6612 Y2.8351
N1660 X8.6535 Y2.789
N1665 X8.6486 Y2.7426
N1670 X8.6466 Y2.6959
N1675 X8.6473 Y2.6492
N1680 X8.6508 Y2.6027
N1685 X8.657 Y2.5564
N1690 X8.6659 Y2.5106
N1695 X8.6775 Y2.4653
N1700 X8.6918 Y2.4209
N1705 X8.7085 Y2.3773
N1710 X8.7276 Y2.3347
N1715 X8.7491 Y2.2932
N1720 X8.773 Y2.2531
N1725 X8.799 Y2.2144
N1730 X8.8272 Y2.1771
N1735 X8.8574 Y2.1415
N1740 X8.8894 Y2.1075
N1745 X8.9232 Y2.0753
N1750 X8.9587 Y2.045
N1755 X8.9959 Y2.0167
N1760 X9.0345 Y1.9904
N1765 X9.0744 Y1.9662
N1770 X9.1156 Y1.9442
N1775 X9.1578 Y1.9243
N1780 X9.201 Y1.9067
N1785 X9.2452 Y1.8914
N1790 X9.29 Y1.8785
N1795 X9.3355 Y1.8679
N1800 X9.3815 Y1.8598
N1805 X9.4278 Y1.854
N1810 X9.4744 Y1.8506
N1815 X9.5211 Y1.8497
N1820 X9.5677 Y1.8512
N1825 X9.6143 Y1.8553
N1830 X9.6605 Y1.8617
N1835 X9.7064 Y1.8705
N1840 X9.7517 Y1.8816
N1845 X9.7964 Y1.8951
N1850 X9.8403 Y1.9109
N1855 X9.8834 Y1.929
N1860 X9.9254 Y1.9493
N1865 X9.9663 Y1.9718
N1870 X10.0061 Y1.9963
N1875 X10.0445 Y2.0228
N1880 X10.0815 Y2.0513
N1885 X10.117 Y2.0817
N1890 X10.1508 Y2.1139
N1895 X10.1829 Y2.1478
N1900 X10.2132 Y2.1833
N1905 X10.2416 Y2.2204
N1910 X10.2682 Y2.2588
N1915 X10.2926 Y2.2985
N1920 X10.3149 Y2.3396
N1925 X10.335 Y2.3817
N1930 X10.353 Y2.4248
N1935 X10.3687 Y2.4688
N1940 X10.3821 Y2.5135
N1945 X10.3932 Y2.5589
N1950 X10.4019 Y2.6047
N1955 X10.4082 Y2.651
N1960 X10.4121 Y2.6975
N1965 X10.4128 Y2.7209
N1970 X10.4132 Y2.7676
N1975 X10.4111 Y2.8142
N1980 X10.4066 Y2.8607
N1985 X10.3997 Y2.9068
N1990 X10.3904 Y2.9526
N1995 X10.3788 Y2.9978
N2000 X10.3649 Y3.0424
N2005 X10.3486 Y3.0861
N2010 X10.33 Y3.129
N2015 X10.3092 Y3.1708
N2020 X10.2863 Y3.2115
N2025 X10.2614 Y3.251
N2030 X10.2345 Y3.2891
N2035 X10.2056 Y3.3258
N2040 X10.1748 Y3.3609
N2045 X10.1422 Y3.3944
N2050 X10.108 Y3.4261
N2055 X10.0721 Y3.456
N2060 X10.0348 Y3.4841
N2065 X9.9961 Y3.5102
N2070 X9.9561 Y3.5343
N2075 X9.9149 Y3.5562
N2080 X9.8725 Y3.5759
N2085 X9.8293 Y3.5935
N2090 X9.7852 Y3.6088
N2095 X9.7403 Y3.6218
N2100 X9.6949 Y3.6325
N2105 X9.6489 Y3.6407
N2110 X9.6026 Y3.6466
N2115 X9.556 Y3.65
N2120 X9.5093 Y3.651
N2125 X9.4627 Y3.6497
N2130 X9.4161 Y3.6459
N2135 X9.3698 Y3.6398
N2140 X9.3239 Y3.6313
N2145 X9.2785 Y3.6205
N2150 X9.2336 Y3.6077
N2155 X9.1893 Y3.5929
N2160 X9.1457 Y3.5762
N2165 X9.1028 Y3.5577
N2170 X9.0608 Y3.5375
N2175 X9.0196 Y3.5155
N2180 X8.9793 Y3.4918
N2185 X8.9401 Y3.4665
N2190 X8.902 Y3.4396
N2195 X8.865 Y3.411
N2200 X8.8294 Y3.3808
N2205 X8.7952 Y3.349
N2210 X8.7624 Y3.3158
N2215 X8.7313 Y3.2809
N2220 X8.7019 Y3.2446
N2225 X8.6744 Y3.207
N2230 X8.6487 Y3.168
N2235 X8.625 Y3.1277
N2240 X8.6033 Y3.0864
N2245 X8.5838 Y3.044
N2250 X8.5665 Y3.0006
N2255 X8.5514 Y2.9564
N2260 X8.5482 Y2.9452
N2265 X8.5467 Y2.9396
N2270 X8.5347 Y2.8944
N2275 X8.525 Y2.8488
N2280 X8.5178 Y2.8026
N2285 X8.5129 Y2.7562
N2290 X8.5103 Y2.7096
N2295 X8.5085 Y2.6863
N2300 X8.5082 Y2.6803
N2305 X8.508 Y2.6743
N2310 X8.5079 Y2.6683
N2315 X8.5077 Y2.6621
N2320 Y2.656
N2325 X8.5076 Y2.65
N2330 X8.5077 Y2.644
N2335 Y2.638
N2340 X8.5079 Y2.632
N2345 X8.508 Y2.626
N2350 X8.5082 Y2.62
N2355 X8.5085 Y2.6137
N2360 X8.5088 Y2.6072
N2365 X8.5092 Y2.6008
N2370 X8.5096 Y2.5949
N2375 X8.51 Y2.5889
N2380 X8.5105 Y2.5829
N2385 X8.511 Y2.5769
N2390 X8.5116 Y2.5708
N2395 X8.5123 Y2.5645
N2400 X8.513 Y2.5579
N2405 X8.5138 Y2.5511
N2410 X8.5146 Y2.5447
N2415 X8.5154 Y2.5388
N2420 X8.5162 Y2.5328
N2425 X8.5171 Y2.5269
N2430 X8.5181 Y2.5208
N2435 X8.5191 Y2.5144
N2440 X8.5203 Y2.5078
N2445 X8.5215 Y2.501
N2450 X8.5228 Y2.494
N2455 X8.524 Y2.4879
N2460 X8.5252 Y2.482
N2465 X8.5264 Y2.4761
N2470 X8.5277 Y2.4699
N2475 X8.5292 Y2.4636
N2480 X8.5307 Y2.457
N2485 X8.5324 Y2.4501
N2490 X8.5342 Y2.4429
N2495 X8.5358 Y2.4364
N2500 X8.5373 Y2.4306
N2505 X8.539 Y2.4247
N2510 X8.5407 Y2.4186
N2515 X8.5425 Y2.4122
N2520 X8.5445 Y2.4056
N2525 X8.5466 Y2.3987
N2530 X8.5488 Y2.3916
N2535 X8.5509 Y2.3849
N2540 X8.5528 Y2.379
N2545 X8.5548 Y2.3732
N2550 X8.5569 Y2.3671
N2555 X8.5591 Y2.3608
N2560 X8.5615 Y2.3543
N2565 X8.564 Y2.3475
N2570 X8.5667 Y2.3404
N2575 X8.5693 Y2.3337
N2580 X8.5715 Y2.3278
N2585 X8.5739 Y2.3221
N2590 X8.5763 Y2.3161
N2595 X8.579 Y2.3098
N2600 X8.5817 Y2.3034
N2605 X8.5847 Y2.2967
N2610 X8.5878 Y2.2897
N2615 X8.5908 Y2.283
N2620 X8.5934 Y2.2773
N2625 X8.5962 Y2.2716
N2630 X8.599 Y2.2656
N2635 X8.6021 Y2.2595
N2640 X8.6053 Y2.2531
N2645 X8.6086 Y2.2464
N2650 X8.6122 Y2.2395
N2655 X8.6156 Y2.2331
N2660 X8.6186 Y2.2275
N2665 X8.6217 Y2.2218
N2670 X8.625 Y2.2159
N2675 X8.6285 Y2.2098
N2680 X8.6321 Y2.2035
N2685 X8.636 Y2.1968
N2690 X8.64 Y2.19
N2695 X8.6436 Y2.1841
N2700 X8.647 Y2.1787
N2705 X8.6505 Y2.173
N2710 X8.6542 Y2.1672
N2715 X8.6581 Y2.1611
N2720 X8.6623 Y2.1548
N2725 X8.6667 Y2.1482
N2730 X8.671 Y2.1418
N2735 X8.6748 Y2.1363
N2740 X8.6786 Y2.1309
N2745 X8.6825 Y2.1254
N2750 X8.6867 Y2.1196
N2755 X8.6911 Y2.1136
N2760 X8.6957 Y2.1073
N2765 X8.7006 Y2.1009
N2770 X8.705 Y2.0951
N2775 X8.709 Y2.09
N2780 X8.7132 Y2.0847
N2785 X8.7176 Y2.0792
N2790 X8.7222 Y2.0736
N2795 X8.7271 Y2.0677
N2800 X8.7322 Y2.0616
N2805 X8.7374 Y2.0555
N2810 X8.7418 Y2.0504
N2815 X8.7461 Y2.0455
N2820 X8.7507 Y2.0404
N2825 X8.7555 Y2.0351
N2830 X8.7605 Y2.0296
N2835 X8.7658 Y2.0239
N2840 X8.7714 Y2.0179
N2845 X8.7765 Y2.0126
N2850 X8.7811 Y2.008
N2855 X8.7858 Y2.0031
N2860 X8.7908 Y1.9982
N2865 X8.796 Y1.993
N2870 X8.8015 Y1.9877
N2875 X8.8073 Y1.9821
N2880 X8.8132 Y1.9767
N2885 X8.8181 Y1.9721
N2890 X8.8231 Y1.9675
N2895 X8.8283 Y1.9629
N2900 X8.8337 Y1.958
N2905 X8.8394 Y1.953
N2910 X8.8454 Y1.9479
N2915 X8.8517 Y1.9425
N2920 X8.8573 Y1.9379
N2925 X8.8624 Y1.9336
N2930 X8.8678 Y1.9293
N2935 X8.8735 Y1.9248
N2940 X8.8794 Y1.9201
N2945 X8.8856 Y1.9153
N2950 X8.8922 Y1.9102
N2955 X8.8984 Y1.9056
N2960 X8.9038 Y1.9016
N2965 X8.9094 Y1.8975
N2970 X8.9152 Y1.8933
N2975 X8.9213 Y1.889
N2980 X8.9278 Y1.8845
N2985 X8.9346 Y1.8798
N2990 X8.9413 Y1.8753
N2995 X8.947 Y1.8715
N3000 X8.9528 Y1.8677
N3005 X8.9588 Y1.8639
N3010 X8.9651 Y1.8599
N3015 X8.9717 Y1.8557
N3020 X8.9787 Y1.8515
N3025 X8.9858 Y1.8472
N3030 X8.9919 Y1.8436
N3035 X8.9978 Y1.8401
N3040 X9.0039 Y1.8366
N3045 X9.0103 Y1.833
N3050 X9.0171 Y1.8293
N3055 X9.0241 Y1.8255
N3060 X9.0315 Y1.8215
N3065 X9.0381 Y1.818
N3070 X9.0441 Y1.815
N3075 X9.0503 Y1.8118
N3080 X9.0568 Y1.8086
N3085 X9.0636 Y1.8052
N3090 X9.0708 Y1.8018
N3095 X9.0783 Y1.7983
N3100 X9.0855 Y1.795
N3105 X9.0916 Y1.7922
N3110 X9.098 Y1.7894
N3115 X9.1046 Y1.7865
N3120 X9.1115 Y1.7835
N3125 X9.1188 Y1.7805
N3130 X9.1264 Y1.7774
N3135 X9.134 Y1.7743
N3140 X9.1405 Y1.7718
N3145 X9.1469 Y1.7693
N3150 X9.1536 Y1.7668
N3155 X9.1607 Y1.7642
N3160 X9.1681 Y1.7616
N3165 X9.1759 Y1.7589
N3170 X9.1838 Y1.7561
N3175 X9.1905 Y1.7539
N3180 X9.1971 Y1.7518
N3185 X9.2039 Y1.7496
N3190 X9.2111 Y1.7474
N3195 X9.2186 Y1.7451
N3200 X9.2265 Y1.7428
N3205 X9.2347 Y1.7405
N3210 X9.2416 Y1.7385
N3215 X9.2483 Y1.7367
N3220 X9.2553 Y1.7349
N3225 X9.2663 Y1.7321
N3230 X9.2741 Y1.7302
N3235 X9.2823 Y1.7283
N3240 X9.2903 Y1.7265
N3245 X9.297 Y1.725
N3250 X9.3039 Y1.7236
N3255 X9.311 Y1.7221
N3260 X9.3185 Y1.7207
N3265 X9.3644 Y1.712
N3270 X9.4106 Y1.7056
N3275 X9.4571 Y1.7015
N3280 X9.5038 Y1.6996
N3285 X9.5505 Y1.6998
N3290 X9.5738 Y1.701
N3295 X9.5817 Y1.7016
N3300 X9.59 Y1.7023
N3305 X9.5987 Y1.7031
N3310 X9.6078 Y1.7039
N3315 X9.6163 Y1.7048
N3320 X9.6236 Y1.7056
N3325 X9.6312 Y1.7065
N3330 X9.639 Y1.7075
N3335 X9.6473 Y1.7086
N3340 X9.6559 Y1.7098
N3345 X9.6649 Y1.7112
N3350 X9.6726 Y1.7124
N3355 X9.6797 Y1.7135
N3360 X9.6871 Y1.7148
N3365 X9.6949 Y1.7162
N3370 X9.703 Y1.7177
N3375 X9.7115 Y1.7193
N3380 X9.7201 Y1.7211
N3385 X9.7274 Y1.7226
N3390 X9.7344 Y1.7241
N3395 X9.7416 Y1.7258
N3400 X9.7492 Y1.7275
N3405 X9.7571 Y1.7294
N3410 X9.7654 Y1.7315
N3415 X9.7738 Y1.7336
N3420 X9.7809 Y1.7355
N3425 X9.7877 Y1.7373
N3430 X9.7948 Y1.7393
N3435 X9.8023 Y1.7415
N3440 X9.81 Y1.7437
N3445 X9.8182 Y1.7462
N3450 X9.8264 Y1.7488
N3455 X9.8333 Y1.751
N3460 X9.84 Y1.7532
N3465 X9.847 Y1.7555
N3470 X9.8543 Y1.758
N3475 X9.862 Y1.7607
N3480 X9.87 Y1.7636
N3485 X9.878 Y1.7666
N3490 X9.8847 Y1.7691
N3495 X9.8914 Y1.7716
N3500 X9.8983 Y1.7744
N3505 X9.9055 Y1.7773
N3510 X9.913 Y1.7803
N3515 X9.9208 Y1.7836
N3520 X9.9286 Y1.787
N3525 X9.9352 Y1.7898
N3530 X9.9417 Y1.7927
N3535 X9.9485 Y1.7958
N3540 X9.9555 Y1.7991
N3545 X9.9629 Y1.8025
N3550 X9.9706 Y1.8062
N3555 X9.9782 Y1.81
N3560 X9.9845 Y1.8131
N3565 X9.9909 Y1.8164
N3570 X9.9975 Y1.8198
N3575 X10.0044 Y1.8234
N3580 X10.0115 Y1.8272
N3585 X10.019 Y1.8313
N3590 X10.0264 Y1.8354
N3595 X10.0325 Y1.8389
N3600 X10.0386 Y1.8424
N3605 X10.045 Y1.8461
N3610 X10.0515 Y1.85
N3615 X10.0584 Y1.8542
N3620 X10.0656 Y1.8586
N3625 X10.0727 Y1.8631
N3630 X10.0787 Y1.8668
N3635 X10.0846 Y1.8706
N3640 X10.0907 Y1.8746
N3645 X10.097 Y1.8789
N3650 X10.1036 Y1.8833
N3655 X10.1105 Y1.888
N3660 X10.1174 Y1.8929
N3665 X10.1233 Y1.897
N3670 X10.1289 Y1.9011
N3675 X10.1348 Y1.9054
N3680 X10.1409 Y1.9099
N3685 X10.1472 Y1.9147
N3690 X10.1538 Y1.9198
N3695 X10.1606 Y1.925
N3700 X10.1662 Y1.9295
N3705 X10.1717 Y1.9339
N3710 X10.1773 Y1.9384
N3715 X10.1832 Y1.9433
N3720 X10.1893 Y1.9484
N3725 X10.1956 Y1.9538
N3730 X10.2021 Y1.9594
N3735 X10.2076 Y1.9642
N3740 X10.2128 Y1.9688
N3745 X10.2182 Y1.9737
N3750 X10.2238 Y1.9789
N3755 X10.2296 Y1.9843
N3760 X10.2357 Y1.99
N3765 X10.2419 Y1.996
N3770 X10.2472 Y2.0011
N3775 X10.2522 Y2.006
N3780 X10.2573 Y2.0112
N3785 X10.2627 Y2.0166
N3790 X10.2682 Y2.0223
N3795 X10.274 Y2.0283
N3800 X10.2799 Y2.0346
N3805 X10.2849 Y2.04
N3810 X10.2896 Y2.0451
N3815 X10.2945 Y2.0505
N3820 X10.2995 Y2.0562
N3825 X10.3047 Y2.0621
N3830 X10.3101 Y2.0684
N3835 X10.3157 Y2.0749
N3840 X10.3204 Y2.0806
N3845 X10.3248 Y2.0859
N3850 X10.3293 Y2.0915
N3855 X10.334 Y2.0973
N3860 X10.3388 Y2.1034
N3865 X10.3438 Y2.1099
N3870 X10.349 Y2.1167
N3875 X10.3536 Y2.1228
N3880 X10.3577 Y2.1283
N3885 X10.3619 Y2.134
N3890 X10.3662 Y2.14
N3895 X10.3707 Y2.1464
N3900 X10.3753 Y2.153
N3905 X10.3801 Y2.16
N3910 X10.3845 Y2.1665
N3915 X10.3883 Y2.1722
N3920 X10.3922 Y2.1782
N3925 X10.3962 Y2.1844
N3930 X10.4004 Y2.1909
N3935 X10.4046 Y2.1978
N3940 X10.4091 Y2.2051
N3945 X10.4132 Y2.2119
N3950 X10.4167 Y2.2178
N3955 X10.4203 Y2.224
N3960 X10.424 Y2.2304
N3965 X10.4278 Y2.2372
N3970 X10.4318 Y2.2443
N3975 X10.4358 Y2.2517
N3980 X10.4396 Y2.2589
N3985 X10.4429 Y2.265
N3990 X10.4461 Y2.2713
N3995 X10.4495 Y2.278
N4000 X10.453 Y2.2849
N4005 X10.4566 Y2.2922
N4010 X10.4602 Y2.2999
N4015 X10.4637 Y2.3073
N4020 X10.4666 Y2.3136
N4025 X10.4696 Y2.3201
N4030 X10.4726 Y2.3269
N4035 X10.4757 Y2.334
N4040 X10.4789 Y2.3415
N4045 X10.4822 Y2.3494
N4050 X10.4853 Y2.357
N4055 X10.4879 Y2.3634
N4060 X10.4904 Y2.37
N4065 X10.4931 Y2.3768
N4070 X10.4958 Y2.384
N4075 X10.4986 Y2.3916
N4080 X10.5014 Y2.3995
N4085 X10.5042 Y2.4073
N4090 X10.5064 Y2.4139
N4095 X10.5086 Y2.4205
N4100 X10.5109 Y2.4275
N4105 X10.5132 Y2.4347
N4110 X10.5156 Y2.4423
N4115 X10.518 Y2.4503
N4120 X10.5203 Y2.4584
N4125 X10.5223 Y2.4651
N4130 X10.5242 Y2.4719
N4135 X10.5261 Y2.4789
N4140 X10.528 Y2.4862
N4145 X10.5299 Y2.4939
N4150 X10.5319 Y2.5021
N4155 X10.5339 Y2.5103
N4160 X10.5355 Y2.5173
N4165 X10.537 Y2.5241
N4170 X10.5386 Y2.5312
N4175 X10.5401 Y2.5386
N4180 X10.5415 Y2.5456
N4185 X10.5429 Y2.5527
N4190 X10.5514 Y2.5986
N4195 X10.5524 Y2.6059
N4200 X10.5534 Y2.6134
N4205 X10.5543 Y2.6214
N4210 X10.5553 Y2.6297
N4215 X10.5562 Y2.6385
N4220 X10.5571 Y2.6467
N4225 X10.5577 Y2.6538
N4230 X10.5583 Y2.661
N4235 X10.5589 Y2.6686
N4240 X10.5595 Y2.6766
N4245 X10.56 Y2.6849
N4250 X10.5605 Y2.6936
N4255 X10.5608 Y2.7017
N4260 X10.5611 Y2.7087
N4265 X10.5614 Y2.7159
N4270 X10.5616 Y2.7235
N4275 X10.5617 Y2.7314
N4280 X10.5618 Y2.7397
N4285 Y2.7484
N4290 Y2.7564
N4295 X10.5617 Y2.7634
N4300 X10.5616 Y2.7706
N4305 X10.5614 Y2.7782
N4310 X10.5611 Y2.7861
N4315 X10.5608 Y2.7944
N4320 X10.5604 Y2.803
N4325 X10.56 Y2.8109
N4330 X10.5595 Y2.8179
N4335 X10.559 Y2.8251
N4340 X10.5584 Y2.8327
N4345 X10.5578 Y2.8406
N4350 X10.557 Y2.8489
N4355 X10.5561 Y2.8575
N4360 X10.5553 Y2.8653
N4365 X10.5545 Y2.8722
N4370 X10.5537 Y2.8794
N4375 X10.5527 Y2.8869
N4380 X10.5516 Y2.8947
N4385 X10.5504 Y2.9029
N4390 X10.5491 Y2.9115
N4395 X10.5479 Y2.9192
N4400 X10.5468 Y2.926
N4405 X10.5456 Y2.933
N4410 X10.5442 Y2.9404
N4415 X10.5428 Y2.9481
N4420 X10.5412 Y2.9561
N4425 X10.5395 Y2.9645
N4430 X10.5378 Y2.9722
N4435 X10.5364 Y2.9789
N4440 X10.5348 Y2.9859
N4445 X10.5331 Y2.9931
N4450 X10.5312 Y3.0006
N4455 X10.5293 Y3.0085
N4460 X10.5271 Y3.0168
N4465 X10.5251 Y3.0245
N4470 X10.5232 Y3.0311
N4475 X10.5213 Y3.038
N4480 X10.5193 Y3.0451
N4485 X10.5171 Y3.0525
N4490 X10.5147 Y3.0602
N4495 X10.5121 Y3.0683
N4500 X10.5097 Y3.076
N4505 X10.5075 Y3.0826
N4510 X10.5052 Y3.0893
N4515 X10.5028 Y3.0963
N4520 X10.5002 Y3.1035
N4525 X10.4975 Y3.1111
N4530 X10.4945 Y3.119
N4535 X10.4916 Y3.1267
N4540 X10.4891 Y3.1332
N4545 X10.4865 Y3.1398
N4550 X10.4837 Y3.1466
N4555 X10.4807 Y3.1538
N4560 X10.4776 Y3.1612
N4565 X10.4742 Y3.169
N4570 X10.4709 Y3.1766
N4575 X10.468 Y3.183
N4580 X10.4651 Y3.1894
N4585 X10.4619 Y3.1961
N4590 X10.4586 Y3.2031
N4595 X10.4551 Y3.2104
N4600 X10.4513 Y3.218
N4605 X10.4476 Y3.2255
N4610 X10.4444 Y3.2317
N4615 X10.4411 Y3.2379
N4620 X10.4377 Y3.2444
N4625 X10.434 Y3.2512
N4630 X10.4302 Y3.2583
N4635 X10.4261 Y3.2656
N4640 X10.4219 Y3.2729
N4645 X10.4184 Y3.279
N4650 X10.4148 Y3.285
N4655 X10.4111 Y3.2913
N4660 X10.4071 Y3.2978
N4665 X10.4029 Y3.3046
N4670 X10.3985 Y3.3117
N4675 X10.3939 Y3.3188
N4680 X10.3901 Y3.3247
N4685 X10.3862 Y3.3305
N4690 X10.3822 Y3.3366
N4695 X10.3779 Y3.3429
N4700 X10.3734 Y3.3494
N4705 X10.3686 Y3.3562
N4710 X10.3637 Y3.3631
N4715 X10.3595 Y3.3689
N4720 X10.3553 Y3.3745
N4725 X10.351 Y3.3803
N4730 X10.3464 Y3.3864
N4735 X10.3416 Y3.3927
N4740 X10.3365 Y3.3992
N4745 X10.3311 Y3.4059
N4750 X10.3266 Y3.4115
N4755 X10.3222 Y3.4169
N4760 X10.3175 Y3.4225
N4765 X10.3126 Y3.4283
N4770 X10.3075 Y3.4343
N4775 X10.302 Y3.4406
N4780 X10.2964 Y3.4471
N4785 X10.2915 Y3.4525
N4790 X10.2868 Y3.4577
N4795 X10.2818 Y3.4631
N4800 X10.2766 Y3.4686
N4805 X10.2712 Y3.4744
N4810 X10.2654 Y3.4804
N4815 X10.2593 Y3.4865
N4820 X10.2541 Y3.4918
N4825 X10.2492 Y3.4967
N4830 X10.244 Y3.5018
N4835 X10.2385 Y3.5071
N4840 X10.2327 Y3.5126
N4845 X10.2267 Y3.5183
N4850 X10.2203 Y3.5241
N4855 X10.2148 Y3.5291
N4860 X10.2097 Y3.5337
N4865 X10.2043 Y3.5385
N4870 X10.1986 Y3.5435
N4875 X10.1926 Y3.5486
N4880 X10.1862 Y3.554
N4885 X10.1796 Y3.5595
N4890 X10.1738 Y3.5642
N4895 X10.1685 Y3.5685
N4900 X10.1628 Y3.573
N4905 X10.1569 Y3.5777
N4910 X10.1507 Y3.5824
N4915 X10.1442 Y3.5874
N4920 X10.1373 Y3.5926
N4925 X10.1312 Y3.5971
N4930 X10.1256 Y3.6011
N4935 X10.1198 Y3.6053
N4940 X10.1137 Y3.6096
N4945 X10.1072 Y3.6141
N4950 X10.1005 Y3.6187
N4955 X10.0934 Y3.6234
N4960 X10.0869 Y3.6277
N4965 X10.0811 Y3.6315
N4970 X10.0751 Y3.6353
N4975 X10.0688 Y3.6393
N4980 X10.0622 Y3.6434
N4985 X10.0552 Y3.6477
N4990 X10.0478 Y3.6521
N4995 X10.0411 Y3.6561
N5000 X10.0351 Y3.6595
N5005 X10.0289 Y3.6631
N5010 X10.0224 Y3.6667
N5015 X10.0155 Y3.6705
N5020 X10.0084 Y3.6744
N5025 X10.0008 Y3.6784
N5030 X9.9938 Y3.6821
N5035 X9.9876 Y3.6852
N5040 X9.9812 Y3.6884
N5045 X9.9745 Y3.6918
N5050 X9.9674 Y3.6952
N5055 X9.96 Y3.6987
N5060 X9.9523 Y3.7023
N5065 X9.945 Y3.7057
N5070 X9.9387 Y3.7085
N5075 X9.9322 Y3.7114
N5080 X9.9254 Y3.7143
N5085 X9.9182 Y3.7174
N5090 X9.9107 Y3.7205
N5095 X9.9028 Y3.7237
N5100 X9.8953 Y3.7267
N5105 X9.8888 Y3.7292
N5110 X9.8822 Y3.7317
N5115 X9.8753 Y3.7343
N5120 X9.8681 Y3.7369
N5125 X9.8605 Y3.7396
N5130 X9.8525 Y3.7424
N5135 X9.8447 Y3.745
N5140 X9.8382 Y3.7472
N5145 X9.8315 Y3.7494
N5150 X9.8245 Y3.7516
N5155 X9.8171 Y3.7538
N5160 X9.8094 Y3.7561
N5165 X9.8014 Y3.7585
N5170 X9.7934 Y3.7607
N5175 X9.7867 Y3.7626
N5180 X9.7799 Y3.7644
N5185 X9.7728 Y3.7662
N5190 X9.7615 Y3.769
N5195 X9.7535 Y3.771
N5200 X9.7452 Y3.7729
N5205 X9.7377 Y3.7746
N5210 X9.731 Y3.776
N5215 X9.724 Y3.7775
N5220 X9.7167 Y3.779
N5225 X9.709 Y3.7805
N5230 X9.6631 Y3.789
N5235 X9.6168 Y3.7953
N5240 X9.5703 Y3.7994
N5245 X9.5237 Y3.8013
N5250 X9.477 Y3.8011
N5255 X9.4536 Y3.7999
N5260 X9.4453 Y3.7993
N5265 X9.4366 Y3.7986
N5270 X9.4274 Y3.7978
N5275 X9.4182 Y3.7969
N5280 X9.4105 Y3.7961
N5285 X9.4027 Y3.7953
N5290 X9.3946 Y3.7943
N5295 X9.3861 Y3.7933
N5300 X9.3771 Y3.7921
N5305 X9.3677 Y3.7908
N5310 X9.3597 Y3.7896
N5315 X9.352 Y3.7884
N5320 X9.3439 Y3.7871
N5325 X9.3355 Y3.7857
N5330 X9.3266 Y3.7841
N5335 X9.3173 Y3.7824
N5340 X9.3089 Y3.7808
N5345 X9.3012 Y3.7792
N5350 X9.2931 Y3.7775
N5355 X9.2847 Y3.7757
N5360 X9.2758 Y3.7737
N5365 X9.2665 Y3.7716
N5370 X9.2578 Y3.7695
N5375 X9.25 Y3.7676
N5380 X9.2419 Y3.7656
N5385 X9.2334 Y3.7633
N5390 X9.2245 Y3.7609
N5395 X9.2151 Y3.7583
N5400 X9.2065 Y3.7559
N5405 X9.1987 Y3.7536
N5410 X9.1905 Y3.7511
N5415 X9.1819 Y3.7484
N5420 X9.1729 Y3.7456
N5425 X9.1634 Y3.7425
N5430 X9.155 Y3.7397
N5435 X9.1472 Y3.737
N5440 X9.139 Y3.7341
N5445 X9.1304 Y3.7311
N5450 X9.1213 Y3.7277
N5455 X9.1118 Y3.7242
N5460 X9.1038 Y3.7211
N5465 X9.096 Y3.7181
N5470 X9.0878 Y3.7148
N5475 X9.0792 Y3.7113
N5480 X9.0702 Y3.7075
N5485 X9.0609 Y3.7035
N5490 X9.0533 Y3.7002
N5495 X9.0455 Y3.6968
N5500 X9.0373 Y3.6931
N5505 X9.0287 Y3.6891
N5510 X9.0197 Y3.6849
N5515 X9.0109 Y3.6806
N5520 X9.0035 Y3.677
N5525 X8.9958 Y3.6732
N5530 X8.9877 Y3.6691
N5535 X8.9792 Y3.6647
N5540 X8.9703 Y3.66
N5545 X8.962 Y3.6556
N5550 X8.9548 Y3.6517
N5555 X8.9472 Y3.6475
N5560 X8.9393 Y3.643
N5565 X8.9309 Y3.6382
N5570 X8.9221 Y3.6331
N5575 X8.9145 Y3.6286
N5580 X8.9075 Y3.6243
N5585 X8.9001 Y3.6198
N5590 X8.8923 Y3.615
N5595 X8.8842 Y3.6099
N5600 X8.8757 Y3.6044
N5605 X8.8685 Y3.5997
N5610 X8.8617 Y3.5952
N5615 X8.8545 Y3.5903
N5620 X8.8471 Y3.5852
N5625 X8.8392 Y3.5797
N5630 X8.831 Y3.5739
N5635 X8.8242 Y3.5691
N5640 X8.8177 Y3.5643
N5645 X8.8108 Y3.5592
N5650 X8.8037 Y3.5539
N5655 X8.7962 Y3.5481
N5660 X8.7884 Y3.5421
N5665 X8.7819 Y3.5369
N5670 X8.7757 Y3.532
N5675 X8.7693 Y3.5268
N5680 X8.7626 Y3.5213
N5685 X8.7555 Y3.5154
N5690 X8.7482 Y3.5092
N5695 X8.7416 Y3.5035
N5700 X8.7358 Y3.4984
N5705 X8.7298 Y3.4931
N5710 X8.7236 Y3.4875
N5715 X8.717 Y3.4815
N5720 X8.7102 Y3.4751
N5725 X8.7035 Y3.4689
N5730 X8.698 Y3.4636
N5735 X8.6924 Y3.4582
N5740 X8.6866 Y3.4525
N5745 X8.6805 Y3.4464
N5750 X8.6742 Y3.44
N5755 X8.6676 Y3.4333
N5760 X8.6622 Y3.4276
N5765 X8.657 Y3.4221
N5770 X8.6516 Y3.4163
N5775 X8.646 Y3.4102
N5780 X8.6402 Y3.4037
N5785 X8.6117 Y3.3667
N5790 X8.5843 Y3.3289
N5795 X8.5581 Y3.2903
N5800 X8.5332 Y3.2508
N5805 X8.5097 Y3.2104
N5810 X8.4879 Y3.1691
N5815 X8.4678 Y3.127
N5820 X8.4495 Y3.084
N5825 X8.433 Y3.0404
N5830 X8.4257 Y3.0182
N5835 X8.4008 Y2.9787
N5840 X8.3683 Y2.9452
N5845 X8.3338 Y2.9137
N5850 X8.3172 Y2.8973
N5855 X8.3036 Y2.8821
N5860 X8.3025 Y2.8806
N5865 X8.2953 Y2.8696
N5870 X8.2898 Y2.8577
N5875 X8.2863 Y2.8451
N5880 X8.2846 Y2.8321
N5885 X8.2835 Y2.8118
N5890 Y2.8058
N5895 X8.2848 Y2.8
N5900 X8.3027 Y2.7569
N5905 X8.317 Y2.7124
N5910 X8.3291 Y2.6673
N5915 X8.3398 Y2.6219
N5920 X8.3501 Y2.5763
N5925 X8.3605 Y2.5308
N5930 X8.3715 Y2.4854
N5935 X8.3835 Y2.4403
N5940 X8.3966 Y2.3955
N5945 X8.4112 Y2.3512
N5950 X8.4273 Y2.3073
N5955 X8.445 Y2.2641
N5960 X8.4643 Y2.2216
N5965 X8.4852 Y2.1798
N5970 X8.5078 Y2.139
N5975 X8.532 Y2.099
N5980 X8.5578 Y2.0601
N5985 X8.5851 Y2.0223
N5990 X8.614 Y1.9856
N5995 X8.6444 Y1.9501
N6000 X8.6761 Y1.9159
N6005 X8.7093 Y1.883
N6010 X8.7437 Y1.8515
N6015 X8.7794 Y1.8214
N6020 X8.8163 Y1.7928
N6025 X8.8544 Y1.7657
N6030 X8.8934 Y1.7401
N6035 X8.9335 Y1.7162
N6040 X8.9745 Y1.6938
N6045 X9.0164 Y1.6732
N6050 X9.059 Y1.6542
N6055 X9.1024 Y1.6369
N6060 X9.1465 Y1.6214
N6065 X9.1911 Y1.6076
N6070 X9.2361 Y1.5954
N6075 X9.2787 Y1.5763
N6080 X9.318 Y1.551
N6085 X9.3319 Y1.5415
N6090 X9.3437 Y1.5347
N6095 X9.3565 Y1.5298
N6100 X9.3698 Y1.527
N6105 X9.3719 Y1.5267
N6110 X9.3944 Y1.5244
N6115 X9.4057 Y1.5234
N6120 X9.4506 Y1.521
N6125 X9.4566
N6130 X9.5025 Y1.5299
N6135 X9.5484 Y1.5381
N6140 X9.5944 Y1.5462
N6145 X9.6403 Y1.5547
N6150 X9.6861 Y1.5639
N6155 X9.7317 Y1.574
N6160 X9.777 Y1.5853
N6165 X9.822 Y1.5979
N6170 X9.8665 Y1.6119
N6175 X9.9106 Y1.6274
N6180 X9.954 Y1.6444
N6185 X9.9969 Y1.663
N6190 X10.039 Y1.6831
N6195 X10.0804 Y1.7048
N6200 X10.1209 Y1.728
N6205 X10.1604 Y1.7528
N6210 X10.199 Y1.7791
N6215 X10.2366 Y1.8068
N6220 X10.273 Y1.836
N6225 X10.3083 Y1.8666
N6230 X10.3424 Y1.8985
N6235 X10.3752 Y1.9318
N6240 X10.4066 Y1.9663
N6245 X10.4367 Y2.002
N6250 X10.4654 Y2.0388
N6255 X10.4925 Y2.0768
N6260 X10.5182 Y2.1158
N6265 X10.5423 Y2.1558
N6270 X10.5649 Y2.1967
N6275 X10.5858 Y2.2384
N6280 X10.605 Y2.2809
N6285 X10.6226 Y2.3242
N6290 X10.6385 Y2.3681
N6295 X10.6526 Y2.4126
N6300 X10.6651 Y2.4576
N6305 X10.6794 Y2.5021
N6310 X10.7033 Y2.5422
N6315 X10.7204 Y2.5668
N6320 X10.7274 Y2.5788
N6325 X10.7324 Y2.5917
N6330 X10.7352 Y2.6052
N6335 X10.7358 Y2.6095
N6340 X10.7381 Y2.6319
N6345 X10.7391 Y2.6432
N6350 X10.7415 Y2.6882
N6355 Y2.6942
N6360 X10.7323 Y2.7399
N6365 X10.7239 Y2.7859
N6370 X10.7158 Y2.8319
N6375 X10.7074 Y2.8778
N6380 X10.6982 Y2.9236
N6385 X10.6882 Y2.9692
N6390 X10.6769 Y3.0145
N6395 X10.6644 Y3.0595
N6400 X10.6504 Y3.104
N6405 X10.635 Y3.1481
N6410 X10.618 Y3.1916
N6415 X10.5994 Y3.2344
N6420 X10.5793 Y3.2765
N6425 X10.5576 Y3.3179
N6430 X10.5344 Y3.3584
N6435 X10.5096 Y3.398
N6440 X10.4833 Y3.4365
N6445 X10.4555 Y3.4741
N6450 X10.4263 Y3.5105
N6455 X10.3957 Y3.5458
N6460 X10.3638 Y3.5798
N6465 X10.3305 Y3.6126
N6470 X10.296 Y3.644
N6475 X10.2603 Y3.6741
N6480 X10.2234 Y3.7028
N6485 X10.1854 Y3.7299
N6490 X10.1464 Y3.7556
N6495 X10.1065 Y3.7797
N6500 X10.0656 Y3.8023
N6505 X10.0238 Y3.8232
N6510 X9.9813 Y3.8424
N6515 X9.938 Y3.86
N6520 X9.8941 Y3.8759
N6525 X9.8496 Y3.89
N6530 X9.8046 Y3.9026
N6535 X9.7602 Y3.9169
N6540 X9.7202 Y3.9409
N6545 X9.6956 Y3.9579
N6550 X9.6836 Y3.9649
N6555 X9.6707 Y3.9699
N6560 X9.6571 Y3.9728
N6565 X9.653 Y3.9733
N6570 X9.6305 Y3.9756
N6575 X9.6193 Y3.9766
N6580 X9.5743 Y3.979
N6585 X9.5683
N6590 X9.5225 Y3.9703
N6595 X9.4765 Y3.9622
N6600 X9.4305 Y3.9542
N6605 X9.3845 Y3.946
N6610 X9.3387 Y3.937
N6615 X9.293 Y3.9272
N6620 X9.2476 Y3.9163
N6625 X9.2025 Y3.9043
N6630 X9.1578 Y3.891
N6635 X9.1134 Y3.8763
N6640 X9.0695 Y3.8604
N6645 X9.0262 Y3.8431
N6650 X8.9834 Y3.8244
N6655 X8.9412 Y3.8043
N6660 X8.8998 Y3.7828
N6665 X8.859 Y3.76
N6670 X8.819 Y3.7359
N6675 X8.7799 Y3.7104
N6680 X8.7417 Y3.6836
N6685 X8.7044 Y3.6555
N6690 X8.6681 Y3.6261
N6695 X8.6329 Y3.5954
N6700 X8.5992 Y3.5632
N6705 X8.5669 Y3.5294
N6710 X8.536 Y3.4944
N6715 X8.5064 Y3.4583
N6720 X8.5001 Y3.45
N6725 X8.499 Y3.4484
N6730 X8.4979 Y3.4469
N6735 X8.4943 Y3.4415
N6740 X8.4499 Y3.3731
N6745 X8.444 Y3.3628
N6750 X8.4265 Y3.3291
N6755 X8.3921 Y3.2616
N6760 X8.3869 Y3.2504
N6765 X8.3825 Y3.2398
N6770 X8.3487 Y3.1519
N6775 X8.3477 Y3.1492
N6780 X8.3366 Y3.1154
N6785 X8.3335 Y3.1042
N6790 X8.3124 Y3.0255
N6795 X8.3095 Y3.0142
N6800 X8.3067 Y3.003
N6805 X8.2907 Y2.9018
N6810 X8.2892 Y2.8905
N6815 X8.2869 Y2.8681
N6820 X8.2859 Y2.8568
N6825 X8.2846 Y2.8321
N6830 X8.2848 Y2.8276
N6835 X8.2849 Y2.8244
N6840 X8.2848 Y2.8211
N6845 X8.2844 Y2.8179
N6850 X8.2835 Y2.8118
N6855 X8.2806 Y2.7556
N6860 Y2.7444
N6865 X8.2859 Y2.6432
N6870 X8.2869 Y2.6319
N6875 X8.2892 Y2.6095
N6880 X8.2907 Y2.5982
N6885 X8.3067 Y2.497
N6890 X8.3095 Y2.4858
N6895 X8.3124 Y2.4745
N6900 X8.3335 Y2.3958
N6905 X8.3366 Y2.3846
N6910 X8.3477 Y2.3508
N6915 X8.3487 Y2.3481
N6920 X8.3825 Y2.2602
N6925 X8.3869 Y2.2496
N6930 X8.3921 Y2.2384
N6935 X8.4274 Y2.1691
N6940 X8.444 Y2.1372
N6945 X8.4499 Y2.1269
N6950 X8.4949 Y2.0577
N6955 X8.5174 Y2.0238
N6960 X8.5255 Y2.0135
N6965 X8.5736 Y1.9541
N6970 X8.5803 Y1.9461
N6975 X8.5994 Y1.9236
N6980 X8.6073 Y1.9149
N6985 X8.6774 Y1.8449
N6990 X8.6861 Y1.8369
N6995 X8.7085 Y1.8178
N7000 X8.7166 Y1.8111
N7005 X8.776 Y1.763
N7010 X8.7863 Y1.7549
N7015 X8.821 Y1.7319
N7020 X8.8893 Y1.6874
N7025 X8.8997 Y1.6815
N7030 X8.9334 Y1.664
N7035 X9.0009 Y1.6296
N7040 X9.0121 Y1.6244
N7045 X9.0226 Y1.62
N7050 X9.1105 Y1.5863
N7055 X9.1133 Y1.5852
N7060 X9.1471 Y1.5741
N7065 X9.1583 Y1.571
N7070 X9.237 Y1.5499
N7075 X9.2482 Y1.547
N7080 X9.2595 Y1.5442
N7085 X9.3607 Y1.5282
N7090 X9.3698 Y1.527
N7095 G3 X9.4119 Y1.5593 Z-0.062 I0.0049 J0.0372
N7100 X9.3737 Y1.5267 I-0.0372 J0.0049
N7105 G1 X9.4414 Y1.525
N7110 G3 X9.4059 Y1.5534 I0.0009 J0.0375
N7115 X9.4215 Y1.5313 Z-0.0658 I0.0364 J0.0091
N7120 G1 X9.422 Y1.5309
N7125 G3 X9.4506 Y1.521 Z-0.07 I0.0341 J0.0521 F20.
N7130 G1 X9.5069 Y1.5181 F50.
N7135 X9.5181
N7140 X9.6193 Y1.5234
N7145 X9.6305 Y1.5244
N7150 X9.653 Y1.5267
N7155 X9.6643 Y1.5282
N7160 X9.7655 Y1.5442
N7165 X9.7767 Y1.547
N7170 X9.788 Y1.5499
N7175 X9.8667 Y1.571
N7180 X9.8779 Y1.5741
N7185 X9.9116 Y1.5852
N7190 X9.9145 Y1.5863
N7195 X10.0024 Y1.62
N7200 X10.0128 Y1.6244
N7205 X10.0241 Y1.6296
N7210 X10.0934 Y1.665
N7215 X10.1253 Y1.6815
N7220 X10.1356 Y1.6874
N7225 X10.2049 Y1.7324
N7230 X10.2387 Y1.7549
N7235 X10.249 Y1.763
N7240 X10.3084 Y1.8111
N7245 X10.3164 Y1.8178
N7250 X10.3389 Y1.8368
N7255 X10.3476 Y1.8449
N7260 X10.4176 Y1.9149
N7265 X10.4256 Y1.9236
N7270 X10.4447 Y1.9461
N7275 X10.4513 Y1.9541
N7280 X10.4995 Y2.0135
N7285 X10.5076 Y2.0237
N7290 X10.5307 Y2.0585
N7295 X10.575 Y2.1268
N7300 X10.581 Y2.1372
N7305 X10.5985 Y2.1709
N7310 X10.6329 Y2.2384
N7315 X10.6381 Y2.2496
N7320 X10.6425 Y2.2601
N7325 X10.6762 Y2.348
N7330 X10.6773 Y2.3508
N7335 X10.6884 Y2.3846
N7340 X10.6915 Y2.3958
N7345 X10.7126 Y2.4745
N7350 X10.7155 Y2.4858
N7355 X10.7183 Y2.497
N7360 X10.7343 Y2.5982
N7365 X10.7352 Y2.6052
N7370 G3 X10.703 Y2.6473 Z-0.062 I-0.0372 J0.0049
N7375 X10.7355 Y2.6091 I-0.0049 J-0.0372
N7380 G1 X10.7375 Y2.6788
N7385 G3 X10.7091 Y2.6434 I-0.0375 J0.0011
N7390 X10.7312 Y2.659 Z-0.0658 I-0.0091 J0.0364
N7395 G1 X10.7315 Y2.6595
N7400 G3 X10.7415 Y2.6882 Z-0.07 I-0.0522 J0.0341 F20.
N7405 G1 X10.7444 Y2.7444 F50.
N7410 Y2.7556
N7415 X10.7391 Y2.8568
N7420 X10.7381 Y2.8681
N7425 X10.7358 Y2.8905
N7430 X10.7343 Y2.9018
N7435 X10.7183 Y3.003
N7440 X10.7155 Y3.0142
N7445 X10.7126 Y3.0255
N7450 X10.6915 Y3.1042
N7455 X10.6884 Y3.1154
N7460 X10.6773 Y3.1492
N7465 X10.6762 Y3.152
N7470 X10.6425 Y3.2399
N7475 X10.6381 Y3.2504
N7480 X10.6329 Y3.2616
N7485 X10.5975 Y3.331
N7490 X10.581 Y3.3628
N7495 X10.575 Y3.3732
N7500 X10.5301 Y3.4424
N7505 X10.5076 Y3.4763
N7510 X10.4995 Y3.4865
N7515 X10.4513 Y3.5459
N7520 X10.4447 Y3.5539
N7525 X10.4256 Y3.5764
N7530 X10.4176 Y3.5851
N7535 X10.3476 Y3.6551
N7540 X10.3389 Y3.6632
N7545 X10.3164 Y3.6822
N7550 X10.3084 Y3.6889
N7555 X10.249 Y3.737
N7560 X10.2387 Y3.7451
N7565 X10.204 Y3.7682
N7570 X10.1357 Y3.8126
N7575 X10.1253 Y3.8185
N7580 X10.0915 Y3.836
N7585 X10.0241 Y3.8704
N7590 X10.0128 Y3.8756
N7595 X10.0024 Y3.88
N7600 X9.9145 Y3.9137
N7605 X9.9116 Y3.9148
N7610 X9.8779 Y3.9259
N7615 X9.8667 Y3.929
N7620 X9.788 Y3.9501
N7625 X9.7767 Y3.9531
N7630 X9.7655 Y3.9558
N7635 X9.6643 Y3.9718
N7640 X9.6571 Y3.9728
N7645 G3 X9.6151 Y3.9405 Z-0.062 I-0.0049 J-0.0372
N7650 X9.6533 Y3.9731 I0.0372 J-0.0049
N7655 G1 X9.5837 Y3.975
N7660 G3 X9.619 Y3.9467 I-0.0011 J-0.0375
N7665 X9.6035 Y3.9687 Z-0.0658 I-0.0364 J-0.0091
N7670 G1 X9.603 Y3.9691
N7675 G3 X9.5743 Y3.979 Z-0.07 I-0.0341 J-0.0522 F20.
N7680 G1 X9.5181 Y3.9819 F50.
N7685 X9.5069
N7690 X9.4057 Y3.9766
N7695 X9.3944 Y3.9756
N7700 X9.3719 Y3.9733
N7705 X9.3607 Y3.9718
N7710 X9.2595 Y3.9558
N7715 X9.2482 Y3.953
N7720 X9.237 Y3.9501
N7725 X9.1583 Y3.929
N7730 X9.1471 Y3.9259
N7735 X9.1133 Y3.9148
N7740 X9.1105 Y3.9137
N7745 X9.0226 Y3.88
N7750 X9.0121 Y3.8756
N7755 X9.0009 Y3.8704
N7760 X8.9315 Y3.835
N7765 X8.8997 Y3.8185
N7770 X8.8893 Y3.8126
N7775 X8.8201 Y3.7676
N7780 X8.7863 Y3.7451
N7785 X8.776 Y3.737
N7790 X8.7166 Y3.6889
N7795 X8.7085 Y3.6822
N7800 X8.6861 Y3.6631
N7805 X8.6774 Y3.6551
N7810 X8.6073 Y3.5851
N7815 X8.5994 Y3.5764
N7820 X8.5803 Y3.5539
N7825 X8.5736 Y3.5459
N7830 X8.5255 Y3.4865
N7835 X8.5174 Y3.4762
N7840 X8.4979 Y3.4469
N7845 X8.4965 Y3.4435 Z-0.0698
N7850 X8.495 Y3.4402 Z-0.0691
N7855 X8.4936 Y3.437 Z-0.068
N7860 X8.4932 Y3.4335 Z-0.0665
N7865 X8.4928 Y3.4302 Z-0.0645
N7870 X8.4924 Y3.4272 Z-0.0621
N7875 X8.4928 Y3.4243 Z-0.059
N7880 X8.4931 Y3.4218 Z-0.0555
N7885 X8.4934 Y3.4198 Z-0.0517
N7890 X8.4936 Y3.4183 Z-0.0476
N7895 X8.4937 Y3.4174 Z-0.0434
N7900 X8.4938 Y3.4171 Z-0.0391
N7905 G0 Z0.2
N7910 G1 X9.5663 Y2.6861 F300.
N7915 G0 Z0.06
N7920 G1 X9.566 Y2.686 Z0.0488 F20.
N7925 X9.5651 Y2.6859 Z0.0376
N7930 X9.5635 Y2.6857 Z0.0265
N7935 X9.5613 Y2.6855 Z0.0155
N7940 X9.5586 Y2.6852 Z0.0046
N7945 X9.5552 Y2.6848 Z-0.0061
N7950 X9.5512 Y2.6843 Z-0.0165
N7955 X9.5467 Y2.6838 Z-0.0268
N7960 X9.5415 Y2.6832 Z-0.0367
N7965 X9.5359 Y2.6825 Z-0.0464
N7970 X9.5297 Y2.6818 Z-0.0557
N7975 X9.523 Y2.681 Z-0.0647
N7980 X9.5158 Y2.6802 Z-0.0733
N7985 X9.5081 Y2.6793 Z-0.0814
N7990 X9.5 Y2.6784 Z-0.0891
N7995 X9.4915 Y2.6774 Z-0.0964
N8000 X9.4826 Y2.6763 Z-0.1031
N8005 X9.4734 Y2.6752 Z-0.1093
N8010 X9.4638 Y2.6741 Z-0.115
N8015 X9.4539 Y2.673 Z-0.1202
N8020 X9.4437 Y2.6718 Z-0.1248
N8025 X9.4333 Y2.6706 Z-0.1288
N8030 X9.4227 Y2.6694 Z-0.1322
N8035 X9.4119 Y2.6681 Z-0.135
N8040 X9.4009 Y2.6668 Z-0.1372
N8045 X9.3899 Y2.6655 Z-0.1387
N8050 X9.3788 Y2.6643 Z-0.1397
N8055 X9.3677 Y2.663 Z-0.14
N8060 G3 X9.1666 Y2.6172 I0.1106 J-0.951
N8065 G1 X9.161 Y2.6151 F50.
N8070 X9.1567 Y2.6108
N8075 X9.1533 Y2.6059
N8080 X9.1499 Y2.5999
N8085 X9.1471 Y2.5939
N8090 X9.1448 Y2.5875
N8095 X9.1425 Y2.5793
N8100 X9.1404 Y2.569
N8105 X9.139 Y2.5563
N8110 X9.1386 Y2.5447
N8115 X9.1392 Y2.532
N8120 X9.1412 Y2.5169
N8125 X9.145 Y2.4988
N8130 X9.1499 Y2.4824
N8135 X9.1565 Y2.4653
N8140 X9.1661 Y2.4453
N8145 X9.1784 Y2.4244
N8150 X9.1909 Y2.4064
N8155 X9.2082 Y2.3855
N8160 X9.2282 Y2.3648
N8165 X9.2483 Y2.3472
N8170 X9.2753 Y2.3272
N8175 X9.3004 Y2.3114
N8180 X9.3298 Y2.2962
N8185 X9.363 Y2.2822
N8190 X9.394 Y2.272
N8195 X9.4332 Y2.2625
N8200 X9.465 Y2.2574
N8205 X9.5066 Y2.2542
N8210 X9.5403 Y2.2543
N8215 X9.5812 Y2.2577
N8220 X9.6171 Y2.2637
N8225 X9.6562 Y2.2734
N8230 X9.6926 Y2.2856
N8235 X9.7291 Y2.3013
N8240 X9.7642 Y2.3198
N8245 X9.7972 Y2.3408
N8250 X9.8297 Y2.3653
N8255 X9.8585 Y2.3908
N8260 X9.8873 Y2.4209
N8265 X9.9112 Y2.4502
N8270 X9.9353 Y2.4851
N8275 X9.9539 Y2.5175
N8280 X9.9724 Y2.5564
N8285 X9.9854 Y2.5908
N8290 X9.9976 Y2.6327
N8295 X10.0048 Y2.6681
N8300 X10.0102 Y2.712
N8305 X10.0117 Y2.7477
N8310 X10.0099 Y2.7925
N8315 X10.0057 Y2.8274
N8320 X9.9967 Y2.8718
N8325 X9.9871 Y2.9052
N8330 X9.971 Y2.9478
N8335 X9.9563 Y2.979
N8340 X9.934 Y3.0178
N8345 X9.9139 Y3.0472
N8350 X9.8861 Y3.0813
N8355 X9.8609 Y3.1077
N8360 X9.8286 Y3.1365
N8365 X9.7989 Y3.159
N8370 X9.7631 Y3.1818
N8375 X9.7295 Y3.1996
N8380 X9.691 Y3.2162
N8385 X9.6543 Y3.2286
N8390 X9.6144 Y3.2386
N8395 X9.5755 Y3.2452
N8400 X9.5352 Y3.2486
N8405 X9.4951 Y3.2488
N8410 X9.4554 Y3.2458
N8415 X9.4152 Y3.2395
N8420 X9.377 Y3.2303
N8425 X9.3378 Y3.2175
N8430 X9.3021 Y3.2026
N8435 X9.2649 Y3.1833
N8440 X9.2326 Y3.1632
N8445 X9.1985 Y3.1379
N8450 X9.1703 Y3.1132
N8455 X9.1402 Y3.0824
N8460 X9.1167 Y3.054
N8465 X9.0916 Y3.0183
N8470 X9.0732 Y2.9869
N8475 X9.0539 Y2.9471
N8480 X9.0409 Y2.9137
N8485 X9.0281 Y2.8709
N8490 X9.0208 Y2.8364
N8495 X9.0147 Y2.7901
N8500 X9.0097 Y2.7437
N8505 X9.0045 Y2.6973
N8510 X9.0007 Y2.6508
N8515 X8.9999 Y2.6041
N8520 X9.0023 Y2.5638
N8525 X9.0077 Y2.5257
N8530 X9.016 Y2.489
N8535 X9.0268 Y2.4542
N8540 X9.0404 Y2.4203
N8545 X9.057 Y2.3872
N8550 X9.076 Y2.3556
N8555 X9.0984 Y2.3245
N8560 X9.1233 Y2.2951
N8565 X9.1513 Y2.2671
N8570 X9.1824 Y2.2405
N8575 X9.2159 Y2.2163
N8580 X9.2528 Y2.1939
N8585 X9.2914 Y2.1745
N8590 X9.3324 Y2.1579
N8595 X9.3754 Y2.1444
N8600 X9.4194 Y2.1343
N8605 X9.4655 Y2.1276
N8610 X9.512 Y2.1246
N8615 X9.5587 Y2.1254
N8620 X9.6052 Y2.1298
N8625 X9.6512 Y2.1379
N8630 X9.6964 Y2.1494
N8635 X9.7407 Y2.1644
N8640 X9.7836 Y2.1827
N8645 X9.8251 Y2.2041
N8650 X9.8648 Y2.2287
N8655 X9.9027 Y2.2561
N8660 X9.9383 Y2.2862
N8665 X9.9716 Y2.3189
N8670 X10.0024 Y2.354
N8675 X10.0305 Y2.3913
N8680 X10.0557 Y2.4306
N8685 X10.0779 Y2.4717
N8690 X10.097 Y2.5143
N8695 X10.1128 Y2.5583
N8700 X10.1254 Y2.6032
N8705 X10.1345 Y2.649
N8710 X10.1403 Y2.6953
N8715 X10.1427 Y2.742
N8720 X10.1416 Y2.7886
N8725 X10.1371 Y2.8351
N8730 X10.1292 Y2.8811
N8735 X10.1179 Y2.9264
N8740 X10.1032 Y2.9708
N8745 X10.0853 Y3.0139
N8750 X10.0642 Y3.0555
N8755 X10.0401 Y3.0955
N8760 X10.013 Y3.1335
N8765 X9.9832 Y3.1695
N8770 X9.9508 Y3.2031
N8775 X9.9161 Y3.2343
N8780 X9.8791 Y3.2628
N8785 X9.8401 Y3.2886
N8790 X9.7994 Y3.3114
N8795 X9.7571 Y3.3311
N8800 X9.7134 Y3.3476
N8805 X9.6686 Y3.3609
N8810 X9.623 Y3.3707
N8815 X9.5767 Y3.3772
N8820 X9.5301 Y3.3801
N8825 X9.4835 Y3.3796
N8830 X9.4369 Y3.3757
N8835 X9.3908 Y3.3684
N8840 X9.3454 Y3.3576
N8845 X9.3008 Y3.3436
N8850 X9.2575 Y3.3263
N8855 X9.2155 Y3.3059
N8860 X9.1751 Y3.2824
N8865 X9.1366 Y3.256
N8870 X9.1001 Y3.2268
N8875 X9.066 Y3.195
N8880 X9.0343 Y3.1607
N8885 X9.0052 Y3.1242
N8890 X8.9789 Y3.0856
N8895 X8.9556 Y3.0451
N8900 X8.9353 Y3.0031
N8905 X8.9181 Y2.9597
N8910 X8.904 Y2.9152
N8915 X8.8922 Y2.87
N8920 X8.8823 Y2.8244
N8925 X8.8741 Y2.7784
N8930 X8.8679 Y2.7321
N8935 X8.864 Y2.6856
N8940 X8.8627 Y2.6389
N8945 X8.8644 Y2.5923
N8950 X8.8691 Y2.5458
N8955 X8.877 Y2.4998
N8960 X8.8882 Y2.4545
N8965 X8.9027 Y2.4101
N8970 X8.9206 Y2.367
N8975 X8.9416 Y2.3253
N8980 X8.9658 Y2.2853
N8985 X8.9929 Y2.2473
N8990 X9.0228 Y2.2114
N8995 X9.0552 Y2.1778
N9000 X9.0899 Y2.1466
N9005 X9.1269 Y2.118
N9010 X9.1658 Y2.0922
N9015 X9.2064 Y2.0693
N9020 X9.2486 Y2.0492
N9025 X9.292 Y2.032
N9030 X9.3365 Y2.0178
N9035 X9.3818 Y2.0066
N9040 X9.4278 Y1.9985
N9045 X9.4742 Y1.9935
N9050 X9.5209 Y1.9916
N9055 X9.5675 Y1.9926
N9060 X9.6141 Y1.9966
N9065 X9.6602 Y2.0036
N9070 X9.7058 Y2.0136
N9075 X9.7507 Y2.0264
N9080 X9.7947 Y2.042
N9085 X9.8377 Y2.0603
N9090 X9.8795 Y2.0812
N9095 X9.9198 Y2.1046
N9100 X9.9586 Y2.1306
N9105 X9.9958 Y2.1589
N9110 X10.0311 Y2.1894
N9115 X10.0645 Y2.222
N9120 X10.0959 Y2.2566
N9125 X10.125 Y2.2931
N9130 X10.1518 Y2.3314
N9135 X10.1762 Y2.3712
N9140 X10.1981 Y2.4124
N9145 X10.2176 Y2.4549
N9150 X10.2343 Y2.4984
N9155 X10.2483 Y2.543
N9160 X10.2596 Y2.5883
N9165 X10.268 Y2.6342
N9170 X10.2738 Y2.6806
N9175 X10.2767 Y2.7272
N9180 Y2.7739
N9185 X10.2739 Y2.8205
N9190 X10.2682 Y2.8668
N9195 X10.2597 Y2.9127
N9200 X10.2484 Y2.958
N9205 X10.2344 Y3.0026
N9210 X10.2177 Y3.0462
N9215 X10.1983 Y3.0886
N9220 X10.1763 Y3.1298
N9225 X10.1518 Y3.1696
N9230 X10.1251 Y3.2078
N9235 X10.096 Y3.2444
N9240 X10.0647 Y3.279
N9245 X10.0313 Y3.3117
N9250 X9.9961 Y3.3423
N9255 X9.959 Y3.3707
N9260 X9.9203 Y3.3969
N9265 X9.8801 Y3.4206
N9270 X9.8385 Y3.4417
N9275 X9.7956 Y3.4603
N9280 X9.7518 Y3.4762
N9285 X9.707 Y3.4895
N9290 X9.6615 Y3.5001
N9295 X9.6154 Y3.5077
N9300 X9.569 Y3.5125
N9305 X9.5223 Y3.5144
N9310 X9.4757 Y3.5136
N9315 X9.4291 Y3.5099
N9320 X9.3829 Y3.5035
N9325 X9.3371 Y3.4941
N9330 X9.292 Y3.482
N9335 X9.2478 Y3.4671
N9340 X9.2045 Y3.4496
N9345 X9.1623 Y3.4296
N9350 X9.1214 Y3.407
N9355 X9.0821 Y3.3819
N9360 X9.0443 Y3.3544
N9365 X9.0083 Y3.3247
N9370 X8.9742 Y3.2929
N9375 X8.942 Y3.259
N9380 X8.912 Y3.2233
N9385 X8.8843 Y3.1857
N9390 X8.8589 Y3.1465
N9395 X8.8359 Y3.1059
N9400 X8.8153 Y3.0639
N9405 X8.797 Y3.021
N9410 X8.7809 Y2.9771
N9415 X8.7669 Y2.9326
N9420 X8.7548 Y2.8875
N9425 X8.7447 Y2.8419
N9430 X8.7366 Y2.796
N9435 X8.7306 Y2.7497
N9440 X8.7268 Y2.7031
N9445 X8.7252 Y2.6564
N9450 X8.7262 Y2.6098
N9455 X8.7297 Y2.5632
N9460 X8.7358 Y2.5169
N9465 X8.7445 Y2.471
N9470 X8.7558 Y2.4257
N9475 X8.7698 Y2.3812
N9480 X8.7865 Y2.3376
N9485 X8.8059 Y2.2951
N9490 X8.8278 Y2.2539
N9495 X8.8521 Y2.214
N9500 X8.8787 Y2.1757
N9505 X8.9077 Y2.139
N9510 X8.9389 Y2.1043
N9515 X8.9721 Y2.0715
N9520 X9.0072 Y2.0407
N9525 X9.0441 Y2.012
N9530 X9.0825 Y1.9856
N9535 X9.1225 Y1.9615
N9540 X9.1639 Y1.9398
N9545 X9.2064 Y1.9205
N9550 X9.25 Y1.9037
N9555 X9.2944 Y1.8893
N9560 X9.3396 Y1.8775
N9565 X9.3853 Y1.8682
N9570 X9.4315 Y1.8616
N9575 X9.478 Y1.8575
N9580 X9.5247 Y1.856
N9585 X9.5714 Y1.8569
N9590 X9.618 Y1.8604
N9595 X9.6643 Y1.8665
N9600 X9.7102 Y1.875
N9605 X9.7555 Y1.8861
N9610 X9.8002 Y1.8995
N9615 X9.8442 Y1.9152
N9620 X9.8873 Y1.9332
N9625 X9.9294 Y1.9535
N9630 X9.9703 Y1.976
N9635 X10.0099 Y2.0006
N9640 X10.0483 Y2.0273
N9645 X10.0851 Y2.0559
N9650 X10.1205 Y2.0864
N9655 X10.1542 Y2.1187
N9660 X10.1862 Y2.1527
N9665 X10.2163 Y2.1884
N9670 X10.2445 Y2.2256
N9675 X10.2708 Y2.2642
N9680 X10.295 Y2.3042
N9685 X10.3171 Y2.3453
N9690 X10.3371 Y2.3875
N9695 X10.3548 Y2.4307
N9700 X10.3702 Y2.4747
N9705 X10.3833 Y2.5196
N9710 X10.3941 Y2.565
N9715 X10.4025 Y2.6109
N9720 X10.4086 Y2.6572
N9725 X10.4123 Y2.7038
N9730 X10.4127 Y2.7154
N9735 X10.4134 Y2.7621
N9740 X10.4116 Y2.8088
N9745 X10.4074 Y2.8553
N9750 X10.4008 Y2.9015
N9755 X10.3918 Y2.9473
N9760 X10.3804 Y2.9926
N9765 X10.3667 Y3.0372
N9770 X10.3508 Y3.0811
N9775 X10.3325 Y3.1241
N9780 X10.312 Y3.166
N9785 X10.2893 Y3.2069
N9790 X10.2646 Y3.2465
N9795 X10.2379 Y3.2848
N9800 X10.2092 Y3.3216
N9805 X10.1787 Y3.357
N9810 X10.1463 Y3.3906
N9815 X10.1123 Y3.4226
N9820 X10.0766 Y3.4527
N9825 X10.0395 Y3.481
N9830 X10.0009 Y3.5073
N9835 X9.9611 Y3.5316
N9840 X9.92 Y3.5538
N9845 X9.8778 Y3.5738
N9850 X9.8346 Y3.5916
N9855 X9.7906 Y3.6071
N9860 X9.7458 Y3.6204
N9865 X9.7004 Y3.6313
N9870 X9.6545 Y3.6399
N9875 X9.6082 Y3.646
N9880 X9.5617 Y3.6497
N9885 X9.55 Y3.65
N9890 X9.5033 Y3.6508
N9895 X9.4567 Y3.6491
N9900 X9.4102 Y3.645
N9905 X9.3639 Y3.6385
N9910 X9.3181 Y3.6297
N9915 X9.2727 Y3.6185
N9920 X9.2281 Y3.6049
N9925 X9.1842 Y3.589
N9930 X9.1411 Y3.5709
N9935 X9.0991 Y3.5505
N9940 X9.0582 Y3.528
N9945 X9.0185 Y3.5035
N9950 X8.9801 Y3.4769
N9955 X8.9431 Y3.4484
N9960 X8.9077 Y3.4179
N9965 X8.874 Y3.3857
N9970 X8.8419 Y3.3517
N9975 X8.8116 Y3.3162
N9980 X8.7832 Y3.2792
N9985 X8.7567 Y3.2407
N9990 X8.7323 Y3.2009
N9995 X8.7098 Y3.16
N10000 X8.6892 Y3.1181
N10005 X8.6705 Y3.0753
N10010 X8.6537 Y3.0317
N10015 X8.6387 Y2.9875
N10020 X8.6255 Y2.9427
N10025 X8.6142 Y2.8974
N10030 X8.6048 Y2.8517
N10035 X8.6029 Y2.8402
N10040 X8.602 Y2.8344
N10045 X8.5951 Y2.7882
N10050 X8.5902 Y2.7418
N10055 X8.5875 Y2.6952
N10060 X8.5868 Y2.6485
N10065 X8.5883 Y2.6018
N10070 X8.5919 Y2.5553
N10075 X8.5976 Y2.5089
N10080 X8.6056 Y2.4629
N10085 X8.6159 Y2.4174
N10090 X8.6285 Y2.3724
N10095 X8.6433 Y2.3282
N10100 X8.6604 Y2.2847
N10105 X8.6796 Y2.2421
N10110 X8.7009 Y2.2006
N10115 X8.7243 Y2.1602
N10120 X8.7498 Y2.1211
N10125 X8.7773 Y2.0833
N10130 X8.8067 Y2.0471
N10135 X8.8379 Y2.0123
N10140 X8.8708 Y1.9792
N10145 X8.8748 Y1.975
N10150 X8.879 Y1.9706
N10155 X8.8832 Y1.9664
N10160 X8.8874 Y1.9621
N10165 X8.8917 Y1.9579
N10170 X8.896 Y1.9537
N10175 X8.9004 Y1.9496
N10180 X8.9048 Y1.9454
N10185 X8.9093 Y1.9413
N10190 X8.9137 Y1.9372
N10195 X8.9182 Y1.9332
N10200 X8.9227 Y1.9293
N10205 X8.9272 Y1.9253
N10210 X8.9317 Y1.9214
N10215 X8.9364 Y1.9175
N10220 X8.9412 Y1.9135
N10225 X8.9462 Y1.9094
N10230 X8.9511 Y1.9055
N10235 X8.9558 Y1.9018
N10240 X8.9606 Y1.8981
N10245 X8.9653 Y1.8944
N10250 X8.9701 Y1.8908
N10255 X8.975 Y1.8871
N10260 X8.9802 Y1.8834
N10265 X8.9855 Y1.8795
N10270 X8.9911 Y1.8756
N10275 X8.9963 Y1.8719
N10280 X9.0013 Y1.8685
N10285 X9.0062 Y1.8652
N10290 X9.0112 Y1.8618
N10295 X9.0164 Y1.8584
N10300 X9.0218 Y1.855
N10305 X9.0275 Y1.8514
N10310 X9.0334 Y1.8477
N10315 X9.0394 Y1.844
N10320 X9.0446 Y1.8408
N10325 X9.0498 Y1.8378
N10330 X9.055 Y1.8347
N10335 X9.0605 Y1.8316
N10340 X9.0662 Y1.8284
N10345 X9.0721 Y1.8251
N10350 X9.0783 Y1.8217
N10355 X9.0848 Y1.8182
N10360 X9.0907 Y1.8151
N10365 X9.096 Y1.8124
N10370 X9.1015 Y1.8096
N10375 X9.1072 Y1.8068
N10380 X9.1132 Y1.8038
N10385 X9.1194 Y1.8009
N10390 X9.1259 Y1.7978
N10395 X9.1327 Y1.7946
N10400 X9.139 Y1.7918
N10405 X9.1446 Y1.7893
N10410 X9.1503 Y1.7868
N10415 X9.1562 Y1.7843
N10420 X9.1624 Y1.7817
N10425 X9.1688 Y1.7791
N10430 X9.1756 Y1.7764
N10435 X9.1826 Y1.7736
N10440 X9.1893 Y1.7711
N10445 X9.1951 Y1.7689
N10450 X9.201 Y1.7667
N10455 X9.2071 Y1.7645
N10460 X9.2135 Y1.7623
N10465 X9.2201 Y1.76
N10470 X9.2271 Y1.7577
N10475 X9.2343 Y1.7553
N10480 X9.2412 Y1.7531
N10485 X9.2472 Y1.7513
N10490 X9.2533 Y1.7494
N10495 X9.2597 Y1.7475
N10500 X9.2663 Y1.7457
N10505 X9.2768 Y1.7428
N10510 X9.2842 Y1.7408
N10515 X9.2916 Y1.7389
N10520 X9.298 Y1.7373
N10525 X9.3042 Y1.7358
N10530 X9.3106 Y1.7343
N10535 X9.3173 Y1.7327
N10540 X9.3243 Y1.7312
N10545 X9.3317 Y1.7296
N10550 X9.3394 Y1.7281
N10555 X9.3467 Y1.7266
N10560 X9.3531 Y1.7254
N10565 X9.3595 Y1.7242
N10570 X9.3662 Y1.7231
N10575 X9.3732 Y1.7219
N10580 X9.3805 Y1.7208
N10585 X9.3881 Y1.7196
N10590 X9.3961 Y1.7185
N10595 X9.4031 Y1.7175
N10600 X9.4095 Y1.7167
N10605 X9.4162 Y1.7159
N10610 X9.4231 Y1.7151
N10615 X9.4304 Y1.7143
N10620 X9.4379 Y1.7135
N10625 X9.4459 Y1.7128
N10630 X9.4537 Y1.7122
N10635 X9.4603 Y1.7116
N10640 X9.4669 Y1.7112
N10645 X9.4738 Y1.7108
N10650 X9.4809 Y1.7104
N10655 X9.4884 Y1.71
N10660 X9.4962 Y1.7097
N10665 X9.5044 Y1.7094
N10670 X9.5116 Y1.7092
N10675 X9.5181 Y1.7091
N10680 X9.5248 Y1.709
N10685 X9.5318
N10690 X9.5391
N10695 X9.5468 Y1.7091
N10700 X9.5547 Y1.7093
N10705 X9.5627 Y1.7095
N10710 X9.5694 Y1.7097
N10715 X9.5761 Y1.71
N10720 X9.583 Y1.7103
N10725 X9.5901 Y1.7107
N10730 X9.5976 Y1.7112
N10735 X9.6054 Y1.7117
N10740 X9.6136 Y1.7124
N10745 X9.6209 Y1.713
N10750 X9.6275 Y1.7136
N10755 X9.6343 Y1.7142
N10760 X9.6413 Y1.715
N10765 X9.6487 Y1.7158
N10770 X9.6564 Y1.7168
N10775 X9.6645 Y1.7178
N10780 X9.6723 Y1.7189
N10785 X9.679 Y1.7199
N10790 X9.6857 Y1.7209
N10795 X9.6927 Y1.722
N10800 X9.7 Y1.7232
N10805 X9.7076 Y1.7245
N10810 X9.7155 Y1.726
N10815 X9.7236 Y1.7275
N10820 X9.7305 Y1.7289
N10825 X9.7372 Y1.7302
N10830 X9.7441 Y1.7317
N10835 X9.7512 Y1.7333
N10840 X9.7587 Y1.735
N10845 X9.7665 Y1.7368
N10850 X9.7747 Y1.7388
N10855 X9.7819 Y1.7406
N10860 X9.7884 Y1.7423
N10865 X9.7952 Y1.7441
N10870 X9.8022 Y1.746
N10875 X9.8096 Y1.7481
N10880 X9.8172 Y1.7503
N10885 X9.8252 Y1.7527
N10890 X9.8327 Y1.755
N10895 X9.8391 Y1.757
N10900 X9.8457 Y1.7592
N10905 X9.8526 Y1.7614
N10910 X9.8597 Y1.7638
N10915 X9.8671 Y1.7664
N10920 X9.8749 Y1.7692
N10925 X9.8825 Y1.7719
N10930 X9.889 Y1.7743
N10935 X9.8953 Y1.7768
N10940 X9.902 Y1.7793
N10945 X9.9089 Y1.7821
N10950 X9.9161 Y1.785
N10955 X9.9236 Y1.7881
N10960 X9.9313 Y1.7914
N10965 X9.9378 Y1.7942
N10970 X9.944 Y1.7969
N10975 X9.9505 Y1.7998
N10980 X9.9572 Y1.8029
N10985 X9.9641 Y1.8061
N10990 X9.9714 Y1.8096
N10995 X9.979 Y1.8133
N11000 X9.9857 Y1.8166
N11005 X9.9918 Y1.8196
N11010 X9.998 Y1.8228
N11015 X10.0045 Y1.8262
N11020 X10.0113 Y1.8298
N11025 X10.0184 Y1.8337
N11030 X10.0258 Y1.8377
N11035 X10.0326 Y1.8415
N11040 X10.0385 Y1.8449
N11045 X10.0446 Y1.8484
N11050 X10.0509 Y1.8521
N11055 X10.0575 Y1.8561
N11060 X10.0643 Y1.8602
N11065 X10.0715 Y1.8647
N11070 X10.0783 Y1.869
N11075 X10.0841 Y1.8727
N11080 X10.09 Y1.8765
N11085 X10.0961 Y1.8805
N11090 X10.1025 Y1.8848
N11095 X10.1091 Y1.8893
N11100 X10.116 Y1.8941
N11105 X10.1227 Y1.8988
N11110 X10.1284 Y1.9028
N11115 X10.134 Y1.9069
N11120 X10.1399 Y1.9113
N11125 X10.146 Y1.9158
N11130 X10.1523 Y1.9206
N11135 X10.1589 Y1.9257
N11140 X10.1655 Y1.9309
N11145 X10.171 Y1.9352
N11150 X10.1764 Y1.9396
N11155 X10.1819 Y1.9441
N11160 X10.1877 Y1.9489
N11165 X10.1937 Y1.954
N11170 X10.1999 Y1.9593
N11175 X10.2063 Y1.9648
N11180 X10.2117 Y1.9696
N11185 X10.2168 Y1.9742
N11190 X10.2221 Y1.979
N11195 X10.2275 Y1.984
N11200 X10.2332 Y1.9893
N11205 X10.2391 Y1.9949
N11210 X10.2452 Y2.0008
N11215 X10.2505 Y2.006
N11220 X10.2554 Y2.0108
N11225 X10.2604 Y2.0158
N11230 X10.2656 Y2.0211
N11235 X10.2709 Y2.0267
N11240 X10.2765 Y2.0326
N11245 X10.2823 Y2.0388
N11250 X10.2875 Y2.0444
N11255 X10.2921 Y2.0495
N11260 X10.2969 Y2.0548
N11265 X10.3018 Y2.0603
N11270 X10.3069 Y2.0662
N11275 X10.3121 Y2.0723
N11280 X10.3176 Y2.0788
N11285 X10.3227 Y2.0849
N11290 X10.327 Y2.0902
N11295 X10.3315 Y2.0957
N11300 X10.3361 Y2.1015
N11305 X10.3409 Y2.1076
N11310 X10.3458 Y2.114
N11315 X10.351 Y2.1208
N11320 X10.3558 Y2.1273
N11325 X10.3599 Y2.1328
N11330 X10.3641 Y2.1386
N11335 X10.3684 Y2.1446
N11340 X10.3728 Y2.1509
N11345 X10.3774 Y2.1576
N11350 X10.3822 Y2.1646
N11355 X10.3868 Y2.1714
N11360 X10.3906 Y2.1771
N11365 X10.3944 Y2.183
N11370 X10.3984 Y2.1892
N11375 X10.4025 Y2.1957
N11380 X10.4067 Y2.2025
N11385 X10.4111 Y2.2097
N11390 X10.4153 Y2.2168
N11395 X10.4188 Y2.2228
N11400 X10.4223 Y2.2288
N11405 X10.4259 Y2.2351
N11410 X10.4296 Y2.2418
N11415 X10.4335 Y2.2487
N11420 X10.4374 Y2.256
N11425 X10.4413 Y2.2634
N11430 X10.4446 Y2.2697
N11435 X10.4478 Y2.2758
N11440 X10.451 Y2.2823
N11445 X10.4544 Y2.2891
N11450 X10.4578 Y2.2962
N11455 X10.4614 Y2.3037
N11460 X10.465 Y2.3113
N11465 X10.4679 Y2.3179
N11470 X10.4708 Y2.3242
N11475 X10.4737 Y2.3308
N11480 X10.4767 Y2.3377
N11485 X10.4798 Y2.345
N11490 X10.483 Y2.3527
N11495 X10.4862 Y2.3606
N11500 X10.4889 Y2.3674
N11505 X10.4914 Y2.3738
N11510 X10.494 Y2.3806
N11515 X10.4966 Y2.3877
N11520 X10.4993 Y2.3951
N11525 X10.5021 Y2.403
N11530 X10.5049 Y2.4111
N11535 X10.5073 Y2.4181
N11540 X10.5095 Y2.4247
N11545 X10.5117 Y2.4316
N11550 X10.514 Y2.4388
N11555 X10.5163 Y2.4464
N11560 X10.5187 Y2.4544
N11565 X10.5211 Y2.4627
N11570 X10.5231 Y2.4698
N11575 X10.525 Y2.4766
N11580 X10.5269 Y2.4836
N11585 X10.5288 Y2.4909
N11590 X10.5307 Y2.4986
N11595 X10.5337 Y2.5109
N11600 X10.5355 Y2.519
N11605 X10.537 Y2.5257
N11610 X10.5385 Y2.5326
N11615 X10.54 Y2.5395
N11620 X10.5414 Y2.5465
N11625 X10.5428 Y2.5539
N11630 X10.5514 Y2.5998
N11635 X10.5524 Y2.6074
N11640 X10.5534 Y2.6153
N11645 X10.5544 Y2.6236
N11650 X10.5554 Y2.6323
N11655 X10.5563 Y2.6405
N11660 X10.557 Y2.6475
N11665 X10.5577 Y2.6547
N11670 X10.5583 Y2.6623
N11675 X10.5589 Y2.6702
N11680 X10.5595 Y2.6784
N11685 X10.56 Y2.6871
N11690 X10.5605 Y2.6952
N11695 X10.5608 Y2.7022
N11700 X10.5611 Y2.7094
N11705 X10.5613 Y2.7169
N11710 X10.5615 Y2.7248
N11715 X10.5617 Y2.733
N11720 X10.5618 Y2.7417
N11725 Y2.7497
N11730 Y2.7566
N11735 X10.5617 Y2.7638
N11740 X10.5616 Y2.7713
N11745 X10.5614 Y2.7792
N11750 X10.5611 Y2.7874
N11755 X10.5607 Y2.796
N11760 X10.5604 Y2.804
N11765 X10.56 Y2.8109
N11770 X10.5595 Y2.8181
N11775 X10.559 Y2.8256
N11780 X10.5584 Y2.8334
N11785 X10.5577 Y2.8416
N11790 X10.5569 Y2.8502
N11795 X10.5561 Y2.8581
N11800 X10.5554 Y2.865
N11805 X10.5546 Y2.8722
N11810 X10.5537 Y2.8796
N11815 X10.5527 Y2.8874
N11820 X10.5516 Y2.8955
N11825 X10.5503 Y2.904
N11830 X10.5491 Y2.9119
N11835 X10.5481 Y2.9188
N11840 X10.5469 Y2.9259
N11845 X10.5456 Y2.9332
N11850 X10.5442 Y2.9409
N11855 X10.5427 Y2.949
N11860 X10.541 Y2.9574
N11865 X10.5394 Y2.9653
N11870 X10.538 Y2.972
N11875 X10.5364 Y2.979
N11880 X10.5348 Y2.9862
N11885 X10.533 Y2.9937
N11890 X10.5311 Y3.0016
N11895 X10.529 Y3.0098
N11900 X10.527 Y3.0177
N11905 X10.5252 Y3.0244
N11910 X10.5234 Y3.0312
N11915 X10.5214 Y3.0382
N11920 X10.5192 Y3.0456
N11925 X10.5169 Y3.0533
N11930 X10.5145 Y3.0614
N11935 X10.512 Y3.0692
N11940 X10.5099 Y3.0759
N11945 X10.5076 Y3.0825
N11950 X10.5053 Y3.0895
N11955 X10.5028 Y3.0967
N11960 X10.5001 Y3.1043
N11965 X10.4972 Y3.1122
N11970 X10.4943 Y3.12
N11975 X10.4918 Y3.1266
N11980 X10.4893 Y3.1331
N11985 X10.4866 Y3.1399
N11990 X10.4837 Y3.147
N11995 X10.4806 Y3.1544
N12000 X10.4774 Y3.1621
N12005 X10.474 Y3.1698
N12010 X10.4712 Y3.1763
N12015 X10.4683 Y3.1827
N12020 X10.4653 Y3.1894
N12025 X10.462 Y3.1963
N12030 X10.4586 Y3.2035
N12035 X10.4549 Y3.2111
N12040 X10.4512 Y3.2187
N12045 X10.448 Y3.2251
N12050 X10.4448 Y3.2313
N12055 X10.4414 Y3.2378
N12060 X10.4378 Y3.2446
N12065 X10.434 Y3.2516
N12070 X10.4299 Y3.259
N12075 X10.4258 Y3.2664
N12080 X10.4223 Y3.2727
N12085 X10.4187 Y3.2787
N12090 X10.415 Y3.285
N12095 X10.4111 Y3.2916
N12100 X10.407 Y3.2984
N12105 X10.4026 Y3.3055
N12110 X10.398 Y3.3127
N12115 X10.3942 Y3.3188
N12120 X10.3904 Y3.3246
N12125 X10.3864 Y3.3306
N12130 X10.3822 Y3.3369
N12135 X10.3777 Y3.3434
N12140 X10.373 Y3.3502
N12145 X10.3681 Y3.3572
N12150 X10.3639 Y3.3632
N12155 X10.3598 Y3.3688
N12160 X10.3555 Y3.3746
N12165 X10.351 Y3.3806
N12170 X10.3463 Y3.3869
N12175 X10.3412 Y3.3934
N12180 X10.3359 Y3.4002
N12185 X10.3313 Y3.406
N12190 X10.327 Y3.4114
N12195 X10.3224 Y3.417
N12200 X10.3176 Y3.4228
N12205 X10.3125 Y3.4288
N12210 X10.3072 Y3.435
N12215 X10.3015 Y3.4415
N12220 X10.2965 Y3.4472
N12225 X10.2919 Y3.4523
N12230 X10.2871 Y3.4577
N12235 X10.282 Y3.4632
N12240 X10.2766 Y3.4689
N12245 X10.2709 Y3.4749
N12250 X10.265 Y3.4811
N12255 X10.2596 Y3.4866
N12260 X10.2547 Y3.4915
N12265 X10.2496 Y3.4966
N12270 X10.2442 Y3.5018
N12275 X10.2386 Y3.5073
N12280 X10.2326 Y3.513
N12285 X10.2263 Y3.5189
N12290 X10.2207 Y3.5241
N12295 X10.2155 Y3.5288
N12300 X10.2101 Y3.5336
N12305 X10.2045 Y3.5386
N12310 X10.1986 Y3.5437
N12315 X10.1923 Y3.5491
N12320 X10.1857 Y3.5547
N12325 X10.1798 Y3.5596
N12330 X10.1744 Y3.564
N12335 X10.1689 Y3.5685
N12340 X10.163 Y3.5731
N12345 X10.1569 Y3.578
N12350 X10.1504 Y3.583
N12355 X10.1436 Y3.5881
N12360 X10.1373 Y3.5928
N12365 X10.1318 Y3.5969
N12370 X10.126 Y3.6011
N12375 X10.12 Y3.6054
N12380 X10.1137 Y3.6099
N12385 X10.107 Y3.6145
N12390 X10.1 Y3.6193
N12395 X10.0933 Y3.6237
N12400 X10.0876 Y3.6275
N12405 X10.0817 Y3.6314
N12410 X10.0754 Y3.6354
N12415 X10.0689 Y3.6395
N12420 X10.062 Y3.6437
N12425 X10.0548 Y3.6481
N12430 X10.0478 Y3.6523
N12435 X10.0419 Y3.6558
N12440 X10.0358 Y3.6594
N12445 X10.0293 Y3.663
N12450 X10.0226 Y3.6668
N12455 X10.0155 Y3.6707
N12460 X10.0081 Y3.6747
N12465 X10.0009 Y3.6786
N12470 X9.9947 Y3.6818
N12475 X9.9884 Y3.685
N12480 X9.9818 Y3.6883
N12485 X9.9749 Y3.6917
N12490 X9.9676 Y3.6953
N12495 X9.96 Y3.6989
N12500 X9.9525 Y3.7024
N12505 X9.9461 Y3.7053
N12510 X9.9397 Y3.7082
N12515 X9.9329 Y3.7112
N12520 X9.9258 Y3.7143
N12525 X9.9184 Y3.7174
N12530 X9.9106 Y3.7207
N12535 X9.9029 Y3.7238
N12540 X9.8963 Y3.7264
N12545 X9.8898 Y3.729
N12550 X9.8829 Y3.7316
N12555 X9.8757 Y3.7343
N12560 X9.8681 Y3.737
N12565 X9.8602 Y3.7398
N12570 X9.8522 Y3.7426
N12575 X9.8456 Y3.7449
N12580 X9.8389 Y3.747
N12585 X9.832 Y3.7493
N12590 X9.8248 Y3.7516
N12595 X9.8172 Y3.7539
N12600 X9.8092 Y3.7563
N12605 X9.801 Y3.7587
N12610 X9.7942 Y3.7606
N12615 X9.7875 Y3.7624
N12620 X9.7805 Y3.7643
N12625 X9.7732 Y3.7662
N12630 X9.7615 Y3.7691
N12635 X9.7532 Y3.7711
N12640 X9.7454 Y3.7729
N12645 X9.7387 Y3.7744
N12650 X9.7318 Y3.7759
N12655 X9.725 Y3.7773
N12660 X9.7179 Y3.7788
N12665 X9.7105 Y3.7802
N12670 X9.6645 Y3.7888
N12675 X9.6569 Y3.7898
N12680 X9.6489 Y3.7908
N12685 X9.6405 Y3.7919
N12690 X9.6317 Y3.7929
N12695 X9.6239 Y3.7937
N12700 X9.6168 Y3.7944
N12705 X9.6095 Y3.7951
N12710 X9.5629 Y3.7956
N12715 X9.5162 Y3.7948
N12720 X9.4695 Y3.7925
N12725 X9.423 Y3.7884
N12730 X9.3767 Y3.7825
N12735 X9.3306 Y3.7748
N12740 X9.285 Y3.7652
N12745 X9.2397 Y3.7536
N12750 X9.195 Y3.7401
N12755 X9.1509 Y3.7248
N12760 X9.1076 Y3.7075
N12765 X9.065 Y3.6882
N12770 X9.0234 Y3.6671
N12775 X8.9827 Y3.6442
N12780 X8.9431 Y3.6194
N12785 X8.9046 Y3.593
N12790 X8.8674 Y3.5648
N12795 X8.8314 Y3.535
N12800 X8.7969 Y3.5036
N12805 X8.7637 Y3.4707
N12810 X8.7322 Y3.4363
N12815 X8.7021 Y3.4006
N12820 X8.6737 Y3.3636
N12825 X8.6469 Y3.3253
N12830 X8.6217 Y3.286
N12835 X8.5983 Y3.2456
N12840 X8.5765 Y3.2043
N12845 X8.5563 Y3.1622
N12850 X8.5379 Y3.1193
N12855 X8.5211 Y3.0757
N12860 X8.506 Y3.0315
N12865 X8.4993 Y3.0092
N12870 X8.4962 Y2.9979
N12875 X8.4931 Y2.9867
N12880 X8.4902 Y2.9754
N12885 X8.4857 Y2.9646
N12890 X8.4799 Y2.9545
N12895 X8.4727 Y2.9453
N12900 X8.4644 Y2.9371
N12905 X8.4271 Y2.909
N12910 X8.3841 Y2.8907
N12915 X8.3581 Y2.8781
N12920 X8.3401 Y2.8675
N12925 X8.3296 Y2.8602
N12930 X8.3186 Y2.8511
N12935 X8.3128 Y2.8454
N12940 X8.3062 Y2.8379
N12945 X8.3024 Y2.8328
N12950 X8.3007 Y2.8301
N12955 X8.2989 Y2.8269
N12960 X8.3313 Y2.7933
N12965 X8.3568 Y2.7541
N12970 X8.377 Y2.712
N12975 X8.3934 Y2.6683
N12980 X8.4073 Y2.6237
N12985 X8.4197 Y2.5787
N12990 X8.4431 Y2.4883
N12995 X8.4552 Y2.4432
N13000 X8.4682 Y2.3984
N13005 X8.4822 Y2.3538
N13010 X8.4976 Y2.3098
N13015 X8.5144 Y2.2662
N13020 X8.5329 Y2.2233
N13025 X8.5529 Y2.1812
N13030 X8.5747 Y2.1398
N13035 X8.598 Y2.0994
N13040 X8.6231 Y2.06
N13045 X8.6499 Y2.0217
N13050 X8.6782 Y1.9847
N13055 X8.7079 Y1.9486
N13060 X8.7388 Y1.9136
N13065 X8.7711 Y1.8799
N13070 X8.8049 Y1.8477
N13075 X8.84 Y1.8169
N13080 X8.8765 Y1.7878
N13085 X8.9143 Y1.7603
N13090 X8.9532 Y1.7346
N13095 X8.9933 Y1.7106
N13100 X9.0344 Y1.6884
N13105 X9.0764 Y1.6681
N13110 X9.1193 Y1.6497
N13115 X9.163 Y1.6331
N13120 X9.2073 Y1.6185
N13125 X9.2522 Y1.6057
N13130 X9.2924 Y1.5819
N13135 X9.3297 Y1.5538
N13140 X9.3474 Y1.5406
N13145 X9.3603 Y1.533
N13150 X9.3744 Y1.5277
N13155 X9.3891 Y1.525
N13160 X9.3944 Y1.5244
N13165 X9.4057 Y1.5234
N13170 X9.4506 Y1.521
N13175 X9.4566
N13180 X9.5023 Y1.5307
N13185 X9.548 Y1.5404
N13190 X9.5938 Y1.5494
N13195 X9.6396 Y1.5584
N13200 X9.6854 Y1.5678
N13205 X9.7309 Y1.578
N13210 X9.7763 Y1.5892
N13215 X9.8213 Y1.6016
N13220 X9.8659 Y1.6155
N13225 X9.91 Y1.6307
N13230 X9.9535 Y1.6476
N13235 X9.9965 Y1.6659
N13240 X10.0387 Y1.6859
N13245 X10.0801 Y1.7074
N13250 X10.1207 Y1.7305
N13255 X10.1603 Y1.7551
N13260 X10.199 Y1.7813
N13265 X10.2366 Y1.809
N13270 X10.2731 Y1.8381
N13275 X10.3085 Y1.8686
N13280 X10.3426 Y1.9005
N13285 X10.3754 Y1.9337
N13290 X10.4069 Y1.9682
N13295 X10.437 Y2.0039
N13300 X10.4656 Y2.0408
N13305 X10.4928 Y2.0787
N13310 X10.5185 Y2.1177
N13315 X10.5426 Y2.1577
N13320 X10.5651 Y2.1986
N13325 X10.586 Y2.2404
N13330 X10.6052 Y2.2829
N13335 X10.6228 Y2.3262
N13340 X10.6386 Y2.3701
N13345 X10.6527 Y2.4146
N13350 X10.6652 Y2.4596
N13355 X10.6802 Y2.5038
N13360 X10.7044 Y2.5437
N13365 X10.7205 Y2.5669
N13370 X10.7274 Y2.5789
N13375 X10.7324 Y2.5918
N13380 X10.7352 Y2.6053
N13385 X10.7358 Y2.6095
N13390 X10.7381 Y2.6319
N13395 X10.7391 Y2.6432
N13400 X10.7415 Y2.6882
N13405 Y2.6942
N13410 X10.7323 Y2.7399
N13415 X10.724 Y2.7859
N13420 X10.7158 Y2.8319
N13425 X10.7074 Y2.8778
N13430 X10.6983 Y2.9236
N13435 X10.6882 Y2.9692
N13440 X10.677 Y3.0145
N13445 X10.6645 Y3.0595
N13450 X10.6505 Y3.104
N13455 X10.6351 Y3.1481
N13460 X10.6181 Y3.1916
N13465 X10.5996 Y3.2344
N13470 X10.5795 Y3.2766
N13475 X10.5578 Y3.3179
N13480 X10.5345 Y3.3584
N13485 X10.5098 Y3.398
N13490 X10.4835 Y3.4366
N13495 X10.4557 Y3.4742
N13500 X10.4265 Y3.5106
N13505 X10.3959 Y3.5459
N13510 X10.364 Y3.5799
N13515 X10.3307 Y3.6127
N13520 X10.2962 Y3.6441
N13525 X10.2605 Y3.6742
N13530 X10.2236 Y3.7029
N13535 X10.1857 Y3.73
N13540 X10.1467 Y3.7557
N13545 X10.1067 Y3.7798
N13550 X10.0658 Y3.8023
N13555 X10.024 Y3.8233
N13560 X9.9815 Y3.8425
N13565 X9.9382 Y3.8601
N13570 X9.8943 Y3.8759
N13575 X9.8498 Y3.89
N13580 X9.8048 Y3.9026
N13585 X9.7604 Y3.9169
N13590 X9.7203 Y3.9408
N13595 X9.6956 Y3.9579
N13600 X9.6837 Y3.9649
N13605 X9.6707 Y3.9699
N13610 X9.6572 Y3.9728
N13615 X9.653 Y3.9733
N13620 X9.6305 Y3.9756
N13625 X9.6193 Y3.9766
N13630 X9.5743 Y3.979
N13635 X9.5683
N13640 X9.5227 Y3.9692
N13645 X9.4771 Y3.959
N13650 X9.3857 Y3.9397
N13655 X9.3401 Y3.9296
N13660 X9.2947 Y3.9187
N13665 X9.2496 Y3.9068
N13670 X9.2048 Y3.8938
N13675 X9.1603 Y3.8794
N13680 X9.1164 Y3.8637
N13685 X9.073 Y3.8464
N13690 X9.0302 Y3.8277
N13695 X8.9882 Y3.8073
N13700 X8.947 Y3.7854
N13705 X8.9066 Y3.762
N13710 X8.8671 Y3.737
N13715 X8.8286 Y3.7106
N13720 X8.7912 Y3.6827
N13725 X8.7549 Y3.6534
N13730 X8.7197 Y3.6227
N13735 X8.6858 Y3.5905
N13740 X8.6532 Y3.5571
N13745 X8.6219 Y3.5224
N13750 X8.592 Y3.4866
N13755 X8.5635 Y3.4496
N13760 X8.5364 Y3.4116
N13765 X8.5108 Y3.3725
N13770 X8.4866 Y3.3326
N13775 X8.4639 Y3.2918
N13780 X8.4426 Y3.2502
N13785 X8.4229 Y3.2079
N13790 X8.4017 Y3.1663
N13795 X8.3743 Y3.1286
N13800 X8.3434 Y3.0935
N13805 X8.3412 Y3.0913
N13810 X8.332 Y3.0799
N13815 X8.3248 Y3.0672
N13820 X8.3199 Y3.0534
N13825 X8.3124 Y3.0255
N13830 X8.3095 Y3.0142
N13835 X8.3067 Y3.003
N13840 X8.2907 Y2.9018
N13845 X8.2892 Y2.8905
N13850 X8.2869 Y2.8681
N13855 X8.2859 Y2.8568
N13860 X8.2806 Y2.7556
N13865 Y2.7444
N13870 X8.2859 Y2.6432
N13875 X8.2869 Y2.6319
N13880 X8.2892 Y2.6095
N13885 X8.2907 Y2.5982
N13890 X8.3067 Y2.497
N13895 X8.3095 Y2.4858
N13900 X8.3124 Y2.4745
N13905 X8.3335 Y2.3958
N13910 X8.3366 Y2.3846
N13915 X8.3477 Y2.3508
N13920 X8.3487 Y2.3481
N13925 X8.3825 Y2.2602
N13930 X8.3869 Y2.2496
N13935 X8.3921 Y2.2384
N13940 X8.4274 Y2.1691
N13945 X8.444 Y2.1372
N13950 X8.4499 Y2.1269
N13955 X8.4949 Y2.0577
N13960 X8.5174 Y2.0238
N13965 X8.5255 Y2.0135
N13970 X8.5736 Y1.9541
N13975 X8.5803 Y1.9461
N13980 X8.5994 Y1.9236
N13985 X8.6073 Y1.9149
N13990 X8.6774 Y1.8449
N13995 X8.6861 Y1.8369
N14000 X8.7085 Y1.8178
N14005 X8.7166 Y1.8111
N14010 X8.776 Y1.763
N14015 X8.7863 Y1.7549
N14020 X8.821 Y1.7319
N14025 X8.8893 Y1.6874
N14030 X8.8997 Y1.6815
N14035 X8.9334 Y1.664
N14040 X9.0009 Y1.6296
N14045 X9.0121 Y1.6244
N14050 X9.0226 Y1.62
N14055 X9.1105 Y1.5863
N14060 X9.1133 Y1.5852
N14065 X9.1471 Y1.5741
N14070 X9.1583 Y1.571
N14075 X9.237 Y1.5499
N14080 X9.2482 Y1.547
N14085 X9.2595 Y1.5442
N14090 X9.3607 Y1.5282
N14095 X9.3719 Y1.5267
N14100 X9.3891 Y1.525
N14105 G3 X9.4302 Y1.5585 Z-0.132 I0.0038 J0.0373
N14110 X9.393 Y1.5248 I-0.0373 J0.0038
N14115 G1 X9.4424 Y1.525
N14120 G3 X9.4059 Y1.5534 I-0.0001 J0.0375
N14125 X9.4215 Y1.5313 Z-0.1358 I0.0364 J0.0091
N14130 G1 X9.422 Y1.5309
N14135 G3 X9.4506 Y1.521 Z-0.14 I0.0341 J0.0521 F20.
N14140 G1 X9.5069 Y1.5181 F50.
N14145 X9.5181
N14150 X9.6193 Y1.5234
N14155 X9.6305 Y1.5244
N14160 X9.653 Y1.5267
N14165 X9.6643 Y1.5282
N14170 X9.7655 Y1.5442
N14175 X9.7767 Y1.547
N14180 X9.788 Y1.5499
N14185 X9.8667 Y1.571
N14190 X9.8779 Y1.5741
N14195 X9.9116 Y1.5852
N14200 X9.9145 Y1.5863
N14205 X10.0024 Y1.62
N14210 X10.0128 Y1.6244
N14215 X10.0241 Y1.6296
N14220 X10.0934 Y1.665
N14225 X10.1253 Y1.6815
N14230 X10.1356 Y1.6874
N14235 X10.2049 Y1.7324
N14240 X10.2387 Y1.7549
N14245 X10.249 Y1.763
N14250 X10.3084 Y1.8111
N14255 X10.3164 Y1.8178
N14260 X10.3389 Y1.8368
N14265 X10.3476 Y1.8449
N14270 X10.4176 Y1.9149
N14275 X10.4256 Y1.9236
N14280 X10.4447 Y1.9461
N14285 X10.4513 Y1.9541
N14290 X10.4995 Y2.0135
N14295 X10.5076 Y2.0237
N14300 X10.5307 Y2.0585
N14305 X10.575 Y2.1268
N14310 X10.581 Y2.1372
N14315 X10.5985 Y2.1709
N14320 X10.6329 Y2.2384
N14325 X10.6381 Y2.2496
N14330 X10.6425 Y2.2601
N14335 X10.6762 Y2.348
N14340 X10.6773 Y2.3508
N14345 X10.6884 Y2.3846
N14350 X10.6915 Y2.3958
N14355 X10.7126 Y2.4745
N14360 X10.7155 Y2.4858
N14365 X10.7183 Y2.497
N14370 X10.7343 Y2.5982
N14375 X10.7352 Y2.6053
N14380 G3 X10.703 Y2.6474 Z-0.132 I-0.0372 J0.0049
N14385 X10.7356 Y2.6091 I-0.0049 J-0.0372
N14390 G1 X10.7375 Y2.6788
N14395 G3 X10.7091 Y2.6434 I-0.0375 J0.0011
N14400 X10.7312 Y2.659 Z-0.1358 I-0.0091 J0.0364
N14405 G1 X10.7315 Y2.6595
N14410 G3 X10.7415 Y2.6882 Z-0.14 I-0.0522 J0.0341 F20.
N14415 G1 X10.7444 Y2.7444 F50.
N14420 Y2.7556
N14425 X10.7391 Y2.8568
N14430 X10.7381 Y2.8681
N14435 X10.7358 Y2.8905
N14440 X10.7343 Y2.9018
N14445 X10.7183 Y3.003
N14450 X10.7155 Y3.0142
N14455 X10.7126 Y3.0255
N14460 X10.6915 Y3.1042
N14465 X10.6884 Y3.1154
N14470 X10.6773 Y3.1492
N14475 X10.6762 Y3.152
N14480 X10.6425 Y3.2399
N14485 X10.6381 Y3.2504
N14490 X10.6329 Y3.2616
N14495 X10.5975 Y3.331
N14500 X10.581 Y3.3628
N14505 X10.575 Y3.3732
N14510 X10.5301 Y3.4424
N14515 X10.5076 Y3.4763
N14520 X10.4995 Y3.4865
N14525 X10.4513 Y3.5459
N14530 X10.4447 Y3.5539
N14535 X10.4256 Y3.5764
N14540 X10.4176 Y3.5851
N14545 X10.3476 Y3.6551
N14550 X10.3389 Y3.6632
N14555 X10.3164 Y3.6822
N14560 X10.3084 Y3.6889
N14565 X10.249 Y3.737
N14570 X10.2387 Y3.7451
N14575 X10.204 Y3.7682
N14580 X10.1357 Y3.8126
N14585 X10.1253 Y3.8185
N14590 X10.0915 Y3.836
N14595 X10.0241 Y3.8704
N14600 X10.0128 Y3.8756
N14605 X10.0024 Y3.88
N14610 X9.9145 Y3.9137
N14615 X9.9116 Y3.9148
N14620 X9.8779 Y3.9259
N14625 X9.8667 Y3.929
N14630 X9.788 Y3.9501
N14635 X9.7767 Y3.9531
N14640 X9.7655 Y3.9558
N14645 X9.6643 Y3.9718
N14650 X9.6572 Y3.9728
N14655 G3 X9.6151 Y3.9405 Z-0.132 I-0.0049 J-0.0372
N14660 X9.6533 Y3.9731 I0.0372 J-0.0049
N14665 G1 X9.5837 Y3.975
N14670 G3 X9.619 Y3.9467 I-0.0011 J-0.0375
N14675 X9.6035 Y3.9687 Z-0.1358 I-0.0364 J-0.0091
N14680 G1 X9.603 Y3.9691
N14685 G3 X9.5743 Y3.979 Z-0.14 I-0.0341 J-0.0522 F20.
N14690 G1 X9.5181 Y3.9819 F50.
N14695 X9.5069
N14700 X9.4057 Y3.9766
N14705 X9.3944 Y3.9756
N14710 X9.3719 Y3.9733
N14715 X9.3607 Y3.9718
N14720 X9.2595 Y3.9558
N14725 X9.2482 Y3.953
N14730 X9.237 Y3.9501
N14735 X9.1583 Y3.929
N14740 X9.1471 Y3.9259
N14745 X9.1133 Y3.9148
N14750 X9.1105 Y3.9137
N14755 X9.0226 Y3.88
N14760 X9.0121 Y3.8756
N14765 X9.0009 Y3.8704
N14770 X8.9315 Y3.835
N14775 X8.8997 Y3.8185
N14780 X8.8893 Y3.8126
N14785 X8.8201 Y3.7676
N14790 X8.7863 Y3.7451
N14795 X8.776 Y3.737
N14800 X8.7166 Y3.6889
N14805 X8.7085 Y3.6822
N14810 X8.6861 Y3.6631
N14815 X8.6774 Y3.6551
N14820 X8.6073 Y3.5851
N14825 X8.5994 Y3.5764
N14830 X8.5803 Y3.5539
N14835 X8.5736 Y3.5459
N14840 X8.5255 Y3.4865
N14845 X8.5174 Y3.4762
N14850 X8.4943 Y3.4415
N14855 X8.4499 Y3.3731
N14860 X8.444 Y3.3628
N14865 X8.4265 Y3.3291
N14870 X8.3921 Y3.2616
N14875 X8.3869 Y3.2504
N14880 X8.3825 Y3.2398
N14885 X8.3487 Y3.1519
N14890 X8.3477 Y3.1492
N14895 X8.3366 Y3.1154
N14900 X8.3335 Y3.1042
N14905 X8.3199 Y3.0534
N14910 X8.3194 Y3.0491 Z-0.1397
N14915 X8.3189 Y3.045 Z-0.1388
N14920 X8.3195 Y3.0412 Z-0.1374
N14925 X8.32 Y3.0376 Z-0.1355
N14930 X8.3205 Y3.0343 Z-0.1332
N14935 X8.3218 Y3.0315 Z-0.1304
N14940 X8.3229 Y3.0291 Z-0.1271
N14945 X8.3238 Y3.0271 Z-0.1236
N14950 X8.3245 Y3.0255 Z-0.1198
N14955 X8.325 Y3.0245 Z-0.1158
N14960 X8.3253 Y3.024 Z-0.1124
N14965 X8.3254 Y3.0239 Z-0.1091
N14970 G0 Z0.2
N14975 G1 X9.5663 Y2.6861 F300.
N14980 G0 Z0.19
N14985 G1 Z-0.01 F20.
N14990 X9.566 Y2.686 Z-0.0212
N14995 X9.5651 Y2.6859 Z-0.0324
N15000 X9.5635 Y2.6857 Z-0.0435
N15005 X9.5613 Y2.6855 Z-0.0545
N15010 X9.5586 Y2.6852 Z-0.0654
N15015 X9.5552 Y2.6848 Z-0.0761
N15020 X9.5512 Y2.6843 Z-0.0865
N15025 X9.5467 Y2.6838 Z-0.0968
N15030 X9.5415 Y2.6832 Z-0.1067
N15035 X9.5359 Y2.6825 Z-0.1164
N15040 X9.5297 Y2.6818 Z-0.1257
N15045 X9.523 Y2.681 Z-0.1347
N15050 X9.5158 Y2.6802 Z-0.1433
N15055 X9.5081 Y2.6793 Z-0.1514
N15060 X9.5 Y2.6784 Z-0.1591
N15065 X9.4915 Y2.6774 Z-0.1664
N15070 X9.4826 Y2.6763 Z-0.1731
N15075 X9.4734 Y2.6752 Z-0.1793
N15080 X9.4638 Y2.6741 Z-0.185
N15085 X9.4539 Y2.673 Z-0.1902
N15090 X9.4437 Y2.6718 Z-0.1948
N15095 X9.4333 Y2.6706 Z-0.1988
N15100 X9.4227 Y2.6694 Z-0.2022
N15105 X9.4119 Y2.6681 Z-0.205
N15110 X9.4009 Y2.6668 Z-0.2072
N15115 X9.3899 Y2.6655 Z-0.2087
N15120 X9.3788 Y2.6643 Z-0.2097
N15125 X9.3677 Y2.663 Z-0.21
N15130 G3 X9.1666 Y2.6172 I0.1106 J-0.951
N15135 G1 X9.161 Y2.6151 F50.
N15140 X9.1567 Y2.6108
N15145 X9.1533 Y2.6059
N15150 X9.1499 Y2.5999
N15155 X9.1471 Y2.5939
N15160 X9.1448 Y2.5875
N15165 X9.1425 Y2.5793
N15170 X9.1404 Y2.569
N15175 X9.139 Y2.5563
N15180 X9.1386 Y2.5447
N15185 X9.1392 Y2.532
N15190 X9.1412 Y2.5169
N15195 X9.145 Y2.4988
N15200 X9.1499 Y2.4824
N15205 X9.1565 Y2.4653
N15210 X9.1661 Y2.4453
N15215 X9.1784 Y2.4244
N15220 X9.1909 Y2.4064
N15225 X9.2082 Y2.3855
N15230 X9.2282 Y2.3648
N15235 X9.2483 Y2.3472
N15240 X9.2753 Y2.3272
N15245 X9.3004 Y2.3114
N15250 X9.3298 Y2.2962
N15255 X9.363 Y2.2822
N15260 X9.394 Y2.272
N15265 X9.4332 Y2.2625
N15270 X9.465 Y2.2574
N15275 X9.5066 Y2.2542
N15280 X9.5403 Y2.2543
N15285 X9.5812 Y2.2577
N15290 X9.6171 Y2.2637
N15295 X9.6562 Y2.2734
N15300 X9.6926 Y2.2857
N15305 X9.7291 Y2.3013
N15310 X9.7642 Y2.3198
N15315 X9.7972 Y2.3408
N15320 X9.8297 Y2.3653
N15325 X9.8585 Y2.3908
N15330 X9.8873 Y2.4209
N15335 X9.9112 Y2.4502
N15340 X9.9353 Y2.4851
N15345 X9.9539 Y2.5175
N15350 X9.9724 Y2.5564
N15355 X9.9854 Y2.5908
N15360 X9.9976 Y2.6327
N15365 X10.0048 Y2.6681
N15370 X10.0102 Y2.712
N15375 X10.0117 Y2.7477
N15380 X10.0099 Y2.7925
N15385 X10.0057 Y2.8274
N15390 X9.9967 Y2.8719
N15395 X9.9871 Y2.9052
N15400 X9.971 Y2.9478
N15405 X9.9563 Y2.979
N15410 X9.934 Y3.0178
N15415 X9.9139 Y3.0472
N15420 X9.8861 Y3.0813
N15425 X9.8609 Y3.1077
N15430 X9.8286 Y3.1365
N15435 X9.7989 Y3.159
N15440 X9.7631 Y3.1818
N15445 X9.7295 Y3.1996
N15450 X9.691 Y3.2162
N15455 X9.6543 Y3.2286
N15460 X9.6144 Y3.2386
N15465 X9.5755 Y3.2452
N15470 X9.5352 Y3.2486
N15475 X9.4951 Y3.2488
N15480 X9.4554 Y3.2458
N15485 X9.4152 Y3.2395
N15490 X9.377 Y3.2303
N15495 X9.3378 Y3.2175
N15500 X9.3021 Y3.2026
N15505 X9.2649 Y3.1833
N15510 X9.2326 Y3.1632
N15515 X9.1985 Y3.1379
N15520 X9.1703 Y3.1132
N15525 X9.1402 Y3.0824
N15530 X9.1167 Y3.054
N15535 X9.0916 Y3.0183
N15540 X9.0732 Y2.9869
N15545 X9.0539 Y2.9471
N15550 X9.0409 Y2.9137
N15555 X9.0281 Y2.8709
N15560 X9.0208 Y2.8364
N15565 X9.0147 Y2.7901
N15570 X9.0097 Y2.7437
N15575 X9.0045 Y2.6973
N15580 X9.0007 Y2.6508
N15585 X8.9999 Y2.6041
N15590 X9.0023 Y2.5638
N15595 X9.0077 Y2.5257
N15600 X9.016 Y2.489
N15605 X9.0268 Y2.4542
N15610 X9.0404 Y2.4203
N15615 X9.057 Y2.3872
N15620 X9.076 Y2.3556
N15625 X9.0984 Y2.3245
N15630 X9.1233 Y2.2951
N15635 X9.1513 Y2.2671
N15640 X9.1824 Y2.2405
N15645 X9.2159 Y2.2163
N15650 X9.2528 Y2.1939
N15655 X9.2914 Y2.1745
N15660 X9.3324 Y2.1579
N15665 X9.3754 Y2.1444
N15670 X9.4194 Y2.1343
N15675 X9.4655 Y2.1276
N15680 X9.512 Y2.1246
N15685 X9.5587 Y2.1254
N15690 X9.6052 Y2.1298
N15695 X9.6512 Y2.1379
N15700 X9.6964 Y2.1494
N15705 X9.7407 Y2.1644
N15710 X9.7836 Y2.1827
N15715 X9.8251 Y2.2041
N15720 X9.8648 Y2.2287
N15725 X9.9027 Y2.2561
N15730 X9.9383 Y2.2862
N15735 X9.9716 Y2.3189
N15740 X10.0024 Y2.354
N15745 X10.0305 Y2.3913
N15750 X10.0557 Y2.4306
N15755 X10.0779 Y2.4717
N15760 X10.097 Y2.5143
N15765 X10.1128 Y2.5583
N15770 X10.1254 Y2.6032
N15775 X10.1345 Y2.649
N15780 X10.1403 Y2.6953
N15785 X10.1427 Y2.742
N15790 X10.1416 Y2.7887
N15795 X10.1371 Y2.8351
N15800 X10.1292 Y2.8811
N15805 X10.1179 Y2.9264
N15810 X10.1032 Y2.9708
N15815 X10.0853 Y3.0139
N15820 X10.0642 Y3.0555
N15825 X10.0401 Y3.0955
N15830 X10.013 Y3.1335
N15835 X9.9832 Y3.1695
N15840 X9.9508 Y3.2031
N15845 X9.9161 Y3.2343
N15850 X9.8791 Y3.2628
N15855 X9.8401 Y3.2886
N15860 X9.7994 Y3.3114
N15865 X9.7571 Y3.3311
N15870 X9.7134 Y3.3476
N15875 X9.6686 Y3.3609
N15880 X9.623 Y3.3707
N15885 X9.5767 Y3.3772
N15890 X9.5301 Y3.3801
N15895 X9.4834 Y3.3796
N15900 X9.4369 Y3.3757
N15905 X9.3908 Y3.3684
N15910 X9.3454 Y3.3576
N15915 X9.3008 Y3.3436
N15920 X9.2575 Y3.3263
N15925 X9.2155 Y3.3059
N15930 X9.1751 Y3.2824
N15935 X9.1366 Y3.256
N15940 X9.1001 Y3.2268
N15945 X9.066 Y3.195
N15950 X9.0343 Y3.1607
N15955 X9.0052 Y3.1242
N15960 X8.9789 Y3.0856
N15965 X8.9556 Y3.0451
N15970 X8.9353 Y3.0031
N15975 X8.9181 Y2.9597
N15980 X8.904 Y2.9152
N15985 X8.8922 Y2.87
N15990 X8.8823 Y2.8244
N15995 X8.8741 Y2.7784
N16000 X8.8679 Y2.7321
N16005 X8.864 Y2.6856
N16010 X8.8627 Y2.6389
N16015 X8.8644 Y2.5923
N16020 X8.8691 Y2.5458
N16025 X8.877 Y2.4998
N16030 X8.8882 Y2.4545
N16035 X8.9027 Y2.4101
N16040 X8.9206 Y2.367
N16045 X8.9416 Y2.3253
N16050 X8.9658 Y2.2853
N16055 X8.9929 Y2.2473
N16060 X9.0228 Y2.2114
N16065 X9.0552 Y2.1778
N16070 X9.0899 Y2.1466
N16075 X9.1269 Y2.118
N16080 X9.1658 Y2.0922
N16085 X9.2064 Y2.0693
N16090 X9.2486 Y2.0492
N16095 X9.292 Y2.032
N16100 X9.3365 Y2.0178
N16105 X9.3818 Y2.0066
N16110 X9.4278 Y1.9985
N16115 X9.4742 Y1.9935
N16120 X9.5209 Y1.9916
N16125 X9.5675 Y1.9926
N16130 X9.6141 Y1.9966
N16135 X9.6602 Y2.0036
N16140 X9.7058 Y2.0136
N16145 X9.7507 Y2.0264
N16150 X9.7947 Y2.042
N16155 X9.8377 Y2.0603
N16160 X9.8795 Y2.0812
N16165 X9.9198 Y2.1046
N16170 X9.9586 Y2.1306
N16175 X9.9958 Y2.1589
N16180 X10.0311 Y2.1895
N16185 X10.0645 Y2.222
N16190 X10.0959 Y2.2566
N16195 X10.125 Y2.2931
N16200 X10.1518 Y2.3314
N16205 X10.1762 Y2.3712
N16210 X10.1981 Y2.4124
N16215 X10.2176 Y2.4549
N16220 X10.2343 Y2.4984
N16225 X10.2483 Y2.543
N16230 X10.2596 Y2.5883
N16235 X10.268 Y2.6342
N16240 X10.2738 Y2.6806
N16245 X10.2767 Y2.7272
N16250 Y2.7739
N16255 X10.2739 Y2.8205
N16260 X10.2682 Y2.8668
N16265 X10.2597 Y2.9127
N16270 X10.2484 Y2.958
N16275 X10.2344 Y3.0026
N16280 X10.2177 Y3.0462
N16285 X10.1983 Y3.0886
N16290 X10.1763 Y3.1298
N16295 X10.1518 Y3.1696
N16300 X10.1251 Y3.2079
N16305 X10.096 Y3.2444
N16310 X10.0647 Y3.279
N16315 X10.0313 Y3.3117
N16320 X9.996 Y3.3423
N16325 X9.959 Y3.3707
N16330 X9.9203 Y3.3969
N16335 X9.8801 Y3.4206
N16340 X9.8385 Y3.4417
N16345 X9.7956 Y3.4603
N16350 X9.7518 Y3.4762
N16355 X9.707 Y3.4895
N16360 X9.6615 Y3.5001
N16365 X9.6154 Y3.5077
N16370 X9.569 Y3.5125
N16375 X9.5223 Y3.5144
N16380 X9.4757 Y3.5136
N16385 X9.4291 Y3.5099
N16390 X9.3829 Y3.5035
N16395 X9.3371 Y3.4941
N16400 X9.292 Y3.482
N16405 X9.2478 Y3.4671
N16410 X9.2045 Y3.4496
N16415 X9.1623 Y3.4296
N16420 X9.1214 Y3.407
N16425 X9.0821 Y3.3819
N16430 X9.0443 Y3.3544
N16435 X9.0083 Y3.3247
N16440 X8.9742 Y3.2929
N16445 X8.942 Y3.259
N16450 X8.912 Y3.2233
N16455 X8.8843 Y3.1857
N16460 X8.8589 Y3.1465
N16465 X8.8359 Y3.1058
N16470 X8.8153 Y3.0639
N16475 X8.797 Y3.021
N16480 X8.7809 Y2.9771
N16485 X8.7669 Y2.9326
N16490 X8.7548 Y2.8875
N16495 X8.7447 Y2.8419
N16500 X8.7366 Y2.796
N16505 X8.7306 Y2.7496
N16510 X8.7268 Y2.7031
N16515 X8.7252 Y2.6564
N16520 X8.7262 Y2.6098
N16525 X8.7297 Y2.5632
N16530 X8.7358 Y2.5169
N16535 X8.7445 Y2.471
N16540 X8.7558 Y2.4257
N16545 X8.7698 Y2.3812
N16550 X8.7865 Y2.3376
N16555 X8.8059 Y2.2951
N16560 X8.8278 Y2.2539
N16565 X8.8521 Y2.214
N16570 X8.8787 Y2.1757
N16575 X8.9077 Y2.139
N16580 X8.9389 Y2.1043
N16585 X8.9721 Y2.0715
N16590 X9.0072 Y2.0407
N16595 X9.0441 Y2.012
N16600 X9.0826 Y1.9856
N16605 X9.1225 Y1.9615
N16610 X9.1639 Y1.9398
N16615 X9.2064 Y1.9205
N16620 X9.25 Y1.9037
N16625 X9.2944 Y1.8893
N16630 X9.3396 Y1.8775
N16635 X9.3853 Y1.8682
N16640 X9.4315 Y1.8616
N16645 X9.4781 Y1.8575
N16650 X9.5247 Y1.856
N16655 X9.5714 Y1.8569
N16660 X9.618 Y1.8604
N16665 X9.6643 Y1.8665
N16670 X9.7102 Y1.875
N16675 X9.7555 Y1.8861
N16680 X9.8003 Y1.8995
N16685 X9.8442 Y1.9152
N16690 X9.8873 Y1.9332
N16695 X9.9294 Y1.9535
N16700 X9.9703 Y1.976
N16705 X10.0099 Y2.0006
N16710 X10.0483 Y2.0273
N16715 X10.0851 Y2.0559
N16720 X10.1205 Y2.0864
N16725 X10.1542 Y2.1187
N16730 X10.1862 Y2.1527
N16735 X10.2163 Y2.1884
N16740 X10.2445 Y2.2256
N16745 X10.2708 Y2.2642
N16750 X10.295 Y2.3042
N16755 X10.3171 Y2.3453
N16760 X10.3371 Y2.3875
N16765 X10.3548 Y2.4307
N16770 X10.3702 Y2.4747
N16775 X10.3833 Y2.5196
N16780 X10.3941 Y2.565
N16785 X10.4025 Y2.6109
N16790 X10.4086 Y2.6572
N16795 X10.4123 Y2.7038
N16800 X10.4127 Y2.7154
N16805 X10.4134 Y2.7621
N16810 X10.4116 Y2.8088
N16815 X10.4074 Y2.8553
N16820 X10.4008 Y2.9015
N16825 X10.3918 Y2.9473
N16830 X10.3804 Y2.9926
N16835 X10.3667 Y3.0372
N16840 X10.3507 Y3.0811
N16845 X10.3325 Y3.1241
N16850 X10.312 Y3.166
N16855 X10.2893 Y3.2069
N16860 X10.2646 Y3.2465
N16865 X10.2379 Y3.2848
N16870 X10.2092 Y3.3216
N16875 X10.1787 Y3.357
N16880 X10.1463 Y3.3906
N16885 X10.1123 Y3.4226
N16890 X10.0766 Y3.4527
N16895 X10.0395 Y3.481
N16900 X10.0009 Y3.5073
N16905 X9.9611 Y3.5316
N16910 X9.92 Y3.5538
N16915 X9.8778 Y3.5738
N16920 X9.8346 Y3.5916
N16925 X9.7906 Y3.6071
N16930 X9.7458 Y3.6204
N16935 X9.7004 Y3.6313
N16940 X9.6545 Y3.6399
N16945 X9.6082 Y3.646
N16950 X9.5617 Y3.6497
N16955 X9.55 Y3.65
N16960 X9.5033 Y3.6508
N16965 X9.4567 Y3.6491
N16970 X9.4102 Y3.645
N16975 X9.3639 Y3.6385
N16980 X9.3181 Y3.6297
N16985 X9.2727 Y3.6185
N16990 X9.2281 Y3.6049
N16995 X9.1842 Y3.589
N17000 X9.1411 Y3.5709
N17005 X9.0991 Y3.5505
N17010 X9.0582 Y3.528
N17015 X9.0185 Y3.5035
N17020 X8.9801 Y3.4769
N17025 X8.9431 Y3.4484
N17030 X8.9077 Y3.4179
N17035 X8.874 Y3.3857
N17040 X8.8419 Y3.3517
N17045 X8.8116 Y3.3162
N17050 X8.7832 Y3.2791
N17055 X8.7567 Y3.2407
N17060 X8.7323 Y3.2009
N17065 X8.7098 Y3.16
N17070 X8.6892 Y3.1181
N17075 X8.6705 Y3.0753
N17080 X8.6537 Y3.0317
N17085 X8.6387 Y2.9875
N17090 X8.6255 Y2.9427
N17095 X8.6142 Y2.8974
N17100 X8.6048 Y2.8517
N17105 X8.6029 Y2.8402
N17110 X8.602 Y2.8344
N17115 X8.5951 Y2.7882
N17120 X8.5902 Y2.7418
N17125 X8.5875 Y2.6952
N17130 X8.5868 Y2.6485
N17135 X8.5883 Y2.6018
N17140 X8.5919 Y2.5553
N17145 X8.5976 Y2.5089
N17150 X8.6056 Y2.4629
N17155 X8.6159 Y2.4174
N17160 X8.6285 Y2.3724
N17165 X8.6433 Y2.3281
N17170 X8.6604 Y2.2847
N17175 X8.6796 Y2.2421
N17180 X8.7009 Y2.2006
N17185 X8.7243 Y2.1602
N17190 X8.7498 Y2.1211
N17195 X8.7773 Y2.0833
N17200 X8.8067 Y2.0471
N17205 X8.8379 Y2.0123
N17210 X8.8708 Y1.9792
N17215 X8.8748 Y1.975
N17220 X8.879 Y1.9706
N17225 X8.8832 Y1.9664
N17230 X8.8874 Y1.9621
N17235 X8.8917 Y1.9579
N17240 X8.896 Y1.9537
N17245 X8.9004 Y1.9496
N17250 X8.9048 Y1.9454
N17255 X8.9093 Y1.9413
N17260 X8.9137 Y1.9372
N17265 X8.9182 Y1.9332
N17270 X8.9227 Y1.9293
N17275 X8.9272 Y1.9253
N17280 X8.9317 Y1.9214
N17285 X8.9364 Y1.9175
N17290 X8.9412 Y1.9135
N17295 X8.9462 Y1.9094
N17300 X8.9511 Y1.9055
N17305 X8.9558 Y1.9017
N17310 X8.9606 Y1.8981
N17315 X8.9653 Y1.8944
N17320 X8.9701 Y1.8908
N17325 X8.975 Y1.8871
N17330 X8.9802 Y1.8834
N17335 X8.9855 Y1.8795
N17340 X8.9911 Y1.8756
N17345 X8.9963 Y1.8719
N17350 X9.0013 Y1.8685
N17355 X9.0062 Y1.8652
N17360 X9.0112 Y1.8618
N17365 X9.0164 Y1.8584
N17370 X9.0218 Y1.8549
N17375 X9.0275 Y1.8514
N17380 X9.0334 Y1.8477
N17385 X9.0394 Y1.844
N17390 X9.0446 Y1.8408
N17395 X9.0498 Y1.8378
N17400 X9.055 Y1.8347
N17405 X9.0605 Y1.8316
N17410 X9.0662 Y1.8284
N17415 X9.0721 Y1.8251
N17420 X9.0783 Y1.8217
N17425 X9.0848 Y1.8182
N17430 X9.0907 Y1.8151
N17435 X9.096 Y1.8124
N17440 X9.1015 Y1.8096
N17445 X9.1072 Y1.8068
N17450 X9.1132 Y1.8038
N17455 X9.1194 Y1.8009
N17460 X9.1259 Y1.7978
N17465 X9.1327 Y1.7946
N17470 X9.1391 Y1.7918
N17475 X9.1446 Y1.7893
N17480 X9.1503 Y1.7868
N17485 X9.1562 Y1.7843
N17490 X9.1624 Y1.7817
N17495 X9.1688 Y1.7791
N17500 X9.1756 Y1.7764
N17505 X9.1826 Y1.7736
N17510 X9.1893 Y1.771
N17515 X9.1951 Y1.7689
N17520 X9.201 Y1.7667
N17525 X9.2071 Y1.7645
N17530 X9.2135 Y1.7623
N17535 X9.2201 Y1.76
N17540 X9.2271 Y1.7577
N17545 X9.2344 Y1.7553
N17550 X9.2412 Y1.7531
N17555 X9.2472 Y1.7512
N17560 X9.2533 Y1.7494
N17565 X9.2597 Y1.7475
N17570 X9.2663 Y1.7457
N17575 X9.2768 Y1.7428
N17580 X9.2842 Y1.7408
N17585 X9.2916 Y1.7389
N17590 X9.298 Y1.7373
N17595 X9.3042 Y1.7358
N17600 X9.3106 Y1.7343
N17605 X9.3173 Y1.7327
N17610 X9.3244 Y1.7312
N17615 X9.3317 Y1.7296
N17620 X9.3394 Y1.7281
N17625 X9.3467 Y1.7266
N17630 X9.3531 Y1.7254
N17635 X9.3595 Y1.7242
N17640 X9.3662 Y1.7231
N17645 X9.3732 Y1.7219
N17650 X9.3805 Y1.7207
N17655 X9.3881 Y1.7196
N17660 X9.3961 Y1.7185
N17665 X9.4031 Y1.7175
N17670 X9.4095 Y1.7167
N17675 X9.4162 Y1.7159
N17680 X9.4231 Y1.7151
N17685 X9.4304 Y1.7143
N17690 X9.4379 Y1.7135
N17695 X9.4459 Y1.7128
N17700 X9.4537 Y1.7122
N17705 X9.4603 Y1.7116
N17710 X9.4669 Y1.7112
N17715 X9.4738 Y1.7108
N17720 X9.4809 Y1.7104
N17725 X9.4884 Y1.71
N17730 X9.4962 Y1.7097
N17735 X9.5044 Y1.7094
N17740 X9.5116 Y1.7092
N17745 X9.5181 Y1.7091
N17750 X9.5249 Y1.709
N17755 X9.5319
N17760 X9.5392
N17765 X9.5468 Y1.7091
N17770 X9.5548 Y1.7093
N17775 X9.5627 Y1.7095
N17780 X9.5694 Y1.7097
N17785 X9.5761 Y1.71
N17790 X9.583 Y1.7103
N17795 X9.5901 Y1.7107
N17800 X9.5976 Y1.7112
N17805 X9.6054 Y1.7117
N17810 X9.6136 Y1.7124
N17815 X9.6209 Y1.713
N17820 X9.6275 Y1.7136
N17825 X9.6343 Y1.7142
N17830 X9.6414 Y1.715
N17835 X9.6487 Y1.7159
N17840 X9.6564 Y1.7168
N17845 X9.6645 Y1.7178
N17850 X9.6723 Y1.7189
N17855 X9.679 Y1.7199
N17860 X9.6857 Y1.7209
N17865 X9.6927 Y1.722
N17870 X9.7 Y1.7232
N17875 X9.7076 Y1.7245
N17880 X9.7155 Y1.726
N17885 X9.7236 Y1.7275
N17890 X9.7305 Y1.7289
N17895 X9.7372 Y1.7302
N17900 X9.7441 Y1.7317
N17905 X9.7512 Y1.7333
N17910 X9.7587 Y1.735
N17915 X9.7665 Y1.7368
N17920 X9.7747 Y1.7388
N17925 X9.7819 Y1.7406
N17930 X9.7884 Y1.7423
N17935 X9.7952 Y1.7441
N17940 X9.8022 Y1.746
N17945 X9.8096 Y1.7481
N17950 X9.8172 Y1.7503
N17955 X9.8252 Y1.7527
N17960 X9.8327 Y1.755
N17965 X9.8391 Y1.757
N17970 X9.8457 Y1.7592
N17975 X9.8526 Y1.7614
N17980 X9.8597 Y1.7638
N17985 X9.8671 Y1.7664
N17990 X9.8749 Y1.7692
N17995 X9.8825 Y1.772
N18000 X9.889 Y1.7743
N18005 X9.8954 Y1.7768
N18010 X9.902 Y1.7793
N18015 X9.9089 Y1.7821
N18020 X9.9161 Y1.785
N18025 X9.9236 Y1.7881
N18030 X9.9313 Y1.7914
N18035 X9.9378 Y1.7942
N18040 X9.944 Y1.7969
N18045 X9.9505 Y1.7998
N18050 X9.9572 Y1.8029
N18055 X9.9641 Y1.8061
N18060 X9.9714 Y1.8096
N18065 X9.979 Y1.8133
N18070 X9.9857 Y1.8166
N18075 X9.9918 Y1.8196
N18080 X9.998 Y1.8228
N18085 X10.0046 Y1.8262
N18090 X10.0113 Y1.8298
N18095 X10.0184 Y1.8337
N18100 X10.0258 Y1.8377
N18105 X10.0326 Y1.8415
N18110 X10.0385 Y1.8449
N18115 X10.0446 Y1.8484
N18120 X10.0509 Y1.8521
N18125 X10.0575 Y1.8561
N18130 X10.0644 Y1.8603
N18135 X10.0715 Y1.8647
N18140 X10.0783 Y1.869
N18145 X10.0841 Y1.8727
N18150 X10.09 Y1.8765
N18155 X10.0961 Y1.8805
N18160 X10.1025 Y1.8848
N18165 X10.1091 Y1.8893
N18170 X10.116 Y1.8941
N18175 X10.1227 Y1.8988
N18180 X10.1284 Y1.9028
N18185 X10.134 Y1.9069
N18190 X10.1399 Y1.9113
N18195 X10.146 Y1.9158
N18200 X10.1523 Y1.9206
N18205 X10.1589 Y1.9257
N18210 X10.1655 Y1.9309
N18215 X10.171 Y1.9352
N18220 X10.1764 Y1.9396
N18225 X10.1819 Y1.9441
N18230 X10.1877 Y1.9489
N18235 X10.1937 Y1.954
N18240 X10.1999 Y1.9593
N18245 X10.2063 Y1.9648
N18250 X10.2117 Y1.9696
N18255 X10.2168 Y1.9742
N18260 X10.2221 Y1.979
N18265 X10.2275 Y1.984
N18270 X10.2332 Y1.9893
N18275 X10.2391 Y1.9949
N18280 X10.2452 Y2.0008
N18285 X10.2505 Y2.006
N18290 X10.2554 Y2.0108
N18295 X10.2604 Y2.0158
N18300 X10.2656 Y2.0211
N18305 X10.2709 Y2.0267
N18310 X10.2765 Y2.0326
N18315 X10.2823 Y2.0388
N18320 X10.2875 Y2.0444
N18325 X10.2921 Y2.0495
N18330 X10.2969 Y2.0548
N18335 X10.3018 Y2.0603
N18340 X10.3069 Y2.0662
N18345 X10.3121 Y2.0723
N18350 X10.3176 Y2.0788
N18355 X10.3227 Y2.0849
N18360 X10.327 Y2.0902
N18365 X10.3315 Y2.0957
N18370 X10.3361 Y2.1015
N18375 X10.3409 Y2.1076
N18380 X10.3458 Y2.1141
N18385 X10.351 Y2.1208
N18390 X10.3558 Y2.1273
N18395 X10.3599 Y2.1328
N18400 X10.3641 Y2.1386
N18405 X10.3684 Y2.1446
N18410 X10.3728 Y2.1509
N18415 X10.3774 Y2.1576
N18420 X10.3822 Y2.1646
N18425 X10.3868 Y2.1714
N18430 X10.3906 Y2.1771
N18435 X10.3944 Y2.183
N18440 X10.3984 Y2.1892
N18445 X10.4025 Y2.1957
N18450 X10.4067 Y2.2026
N18455 X10.4111 Y2.2097
N18460 X10.4153 Y2.2168
N18465 X10.4188 Y2.2228
N18470 X10.4223 Y2.2288
N18475 X10.4259 Y2.2351
N18480 X10.4296 Y2.2418
N18485 X10.4335 Y2.2487
N18490 X10.4374 Y2.256
N18495 X10.4413 Y2.2634
N18500 X10.4446 Y2.2697
N18505 X10.4478 Y2.2759
N18510 X10.451 Y2.2823
N18515 X10.4544 Y2.2891
N18520 X10.4578 Y2.2962
N18525 X10.4614 Y2.3037
N18530 X10.465 Y2.3113
N18535 X10.468 Y2.3179
N18540 X10.4708 Y2.3242
N18545 X10.4737 Y2.3308
N18550 X10.4767 Y2.3377
N18555 X10.4798 Y2.345
N18560 X10.483 Y2.3527
N18565 X10.4862 Y2.3606
N18570 X10.4889 Y2.3674
N18575 X10.4914 Y2.3738
N18580 X10.494 Y2.3806
N18585 X10.4966 Y2.3877
N18590 X10.4993 Y2.3952
N18595 X10.5021 Y2.403
N18600 X10.5049 Y2.4111
N18605 X10.5073 Y2.4181
N18610 X10.5095 Y2.4247
N18615 X10.5117 Y2.4316
N18620 X10.514 Y2.4389
N18625 X10.5163 Y2.4464
N18630 X10.5187 Y2.4544
N18635 X10.5211 Y2.4627
N18640 X10.5231 Y2.4698
N18645 X10.525 Y2.4766
N18650 X10.5269 Y2.4836
N18655 X10.5288 Y2.4909
N18660 X10.5307 Y2.4986
N18665 X10.5337 Y2.5109
N18670 X10.5355 Y2.519
N18675 X10.537 Y2.5257
N18680 X10.5385 Y2.5326
N18685 X10.54 Y2.5395
N18690 X10.5414 Y2.5465
N18695 X10.5428 Y2.5539
N18700 X10.5514 Y2.5998
N18705 X10.5524 Y2.6074
N18710 X10.5534 Y2.6153
N18715 X10.5544 Y2.6236
N18720 X10.5554 Y2.6323
N18725 X10.5563 Y2.6405
N18730 X10.557 Y2.6475
N18735 X10.5577 Y2.6547
N18740 X10.5583 Y2.6623
N18745 X10.5589 Y2.6702
N18750 X10.5595 Y2.6784
N18755 X10.56 Y2.6871
N18760 X10.5605 Y2.6952
N18765 X10.5608 Y2.7022
N18770 X10.5611 Y2.7094
N18775 X10.5613 Y2.7169
N18780 X10.5615 Y2.7248
N18785 X10.5617 Y2.733
N18790 X10.5618 Y2.7417
N18795 Y2.7497
N18800 Y2.7566
N18805 X10.5617 Y2.7638
N18810 X10.5616 Y2.7713
N18815 X10.5614 Y2.7792
N18820 X10.5611 Y2.7874
N18825 X10.5607 Y2.796
N18830 X10.5604 Y2.804
N18835 X10.56 Y2.811
N18840 X10.5595 Y2.8181
N18845 X10.559 Y2.8256
N18850 X10.5584 Y2.8334
N18855 X10.5577 Y2.8416
N18860 X10.5569 Y2.8502
N18865 X10.5561 Y2.8581
N18870 X10.5554 Y2.865
N18875 X10.5546 Y2.8722
N18880 X10.5537 Y2.8796
N18885 X10.5527 Y2.8874
N18890 X10.5516 Y2.8955
N18895 X10.5503 Y2.904
N18900 X10.5491 Y2.9119
N18905 X10.5481 Y2.9188
N18910 X10.5469 Y2.9259
N18915 X10.5456 Y2.9332
N18920 X10.5442 Y2.9409
N18925 X10.5427 Y2.949
N18930 X10.541 Y2.9574
N18935 X10.5394 Y2.9653
N18940 X10.538 Y2.972
N18945 X10.5364 Y2.979
N18950 X10.5348 Y2.9862
N18955 X10.533 Y2.9937
N18960 X10.5311 Y3.0016
N18965 X10.529 Y3.0098
N18970 X10.527 Y3.0177
N18975 X10.5252 Y3.0244
N18980 X10.5234 Y3.0312
N18985 X10.5214 Y3.0382
N18990 X10.5192 Y3.0456
N18995 X10.5169 Y3.0533
N19000 X10.5145 Y3.0614
N19005 X10.512 Y3.0692
N19010 X10.5098 Y3.0759
N19015 X10.5076 Y3.0825
N19020 X10.5053 Y3.0895
N19025 X10.5028 Y3.0967
N19030 X10.5001 Y3.1043
N19035 X10.4972 Y3.1122
N19040 X10.4943 Y3.12
N19045 X10.4918 Y3.1266
N19050 X10.4893 Y3.1331
N19055 X10.4866 Y3.1399
N19060 X10.4837 Y3.147
N19065 X10.4806 Y3.1544
N19070 X10.4774 Y3.1621
N19075 X10.474 Y3.1699
N19080 X10.4712 Y3.1763
N19085 X10.4683 Y3.1827
N19090 X10.4653 Y3.1894
N19095 X10.462 Y3.1963
N19100 X10.4586 Y3.2036
N19105 X10.4549 Y3.2111
N19110 X10.4512 Y3.2187
N19115 X10.448 Y3.2251
N19120 X10.4448 Y3.2313
N19125 X10.4414 Y3.2378
N19130 X10.4378 Y3.2446
N19135 X10.434 Y3.2516
N19140 X10.4299 Y3.259
N19145 X10.4258 Y3.2664
N19150 X10.4223 Y3.2727
N19155 X10.4187 Y3.2787
N19160 X10.415 Y3.285
N19165 X10.4111 Y3.2916
N19170 X10.407 Y3.2984
N19175 X10.4026 Y3.3055
N19180 X10.398 Y3.3127
N19185 X10.3942 Y3.3188
N19190 X10.3904 Y3.3246
N19195 X10.3864 Y3.3306
N19200 X10.3822 Y3.3369
N19205 X10.3777 Y3.3434
N19210 X10.373 Y3.3502
N19215 X10.3681 Y3.3572
N19220 X10.3639 Y3.3632
N19225 X10.3598 Y3.3688
N19230 X10.3555 Y3.3746
N19235 X10.351 Y3.3806
N19240 X10.3463 Y3.3869
N19245 X10.3412 Y3.3934
N19250 X10.3359 Y3.4002
N19255 X10.3313 Y3.406
N19260 X10.327 Y3.4114
N19265 X10.3224 Y3.417
N19270 X10.3176 Y3.4228
N19275 X10.3125 Y3.4288
N19280 X10.3072 Y3.435
N19285 X10.3015 Y3.4415
N19290 X10.2965 Y3.4472
N19295 X10.2919 Y3.4523
N19300 X10.2871 Y3.4577
N19305 X10.282 Y3.4632
N19310 X10.2766 Y3.4689
N19315 X10.2709 Y3.4749
N19320 X10.265 Y3.4811
N19325 X10.2596 Y3.4866
N19330 X10.2547 Y3.4915
N19335 X10.2496 Y3.4966
N19340 X10.2442 Y3.5018
N19345 X10.2386 Y3.5073
N19350 X10.2326 Y3.513
N19355 X10.2263 Y3.5189
N19360 X10.2207 Y3.5241
N19365 X10.2155 Y3.5288
N19370 X10.2101 Y3.5336
N19375 X10.2045 Y3.5386
N19380 X10.1986 Y3.5437
N19385 X10.1923 Y3.5491
N19390 X10.1857 Y3.5547
N19395 X10.1797 Y3.5596
N19400 X10.1744 Y3.564
N19405 X10.1689 Y3.5685
N19410 X10.163 Y3.5732
N19415 X10.1569 Y3.578
N19420 X10.1504 Y3.583
N19425 X10.1436 Y3.5882
N19430 X10.1373 Y3.5928
N19435 X10.1318 Y3.5969
N19440 X10.126 Y3.6011
N19445 X10.12 Y3.6054
N19450 X10.1137 Y3.6099
N19455 X10.107 Y3.6145
N19460 X10.1 Y3.6193
N19465 X10.0933 Y3.6237
N19470 X10.0876 Y3.6275
N19475 X10.0817 Y3.6314
N19480 X10.0754 Y3.6354
N19485 X10.0689 Y3.6395
N19490 X10.062 Y3.6437
N19495 X10.0548 Y3.6481
N19500 X10.0478 Y3.6523
N19505 X10.0419 Y3.6558
N19510 X10.0357 Y3.6594
N19515 X10.0293 Y3.663
N19520 X10.0226 Y3.6668
N19525 X10.0155 Y3.6707
N19530 X10.0081 Y3.6747
N19535 X10.0008 Y3.6786
N19540 X9.9947 Y3.6818
N19545 X9.9884 Y3.685
N19550 X9.9818 Y3.6883
N19555 X9.9749 Y3.6917
N19560 X9.9676 Y3.6953
N19565 X9.96 Y3.6989
N19570 X9.9525 Y3.7024
N19575 X9.9461 Y3.7053
N19580 X9.9397 Y3.7082
N19585 X9.9329 Y3.7112
N19590 X9.9258 Y3.7143
N19595 X9.9184 Y3.7174
N19600 X9.9106 Y3.7207
N19605 X9.9028 Y3.7238
N19610 X9.8963 Y3.7264
N19615 X9.8897 Y3.729
N19620 X9.8829 Y3.7316
N19625 X9.8757 Y3.7343
N19630 X9.8681 Y3.737
N19635 X9.8602 Y3.7398
N19640 X9.8522 Y3.7426
N19645 X9.8456 Y3.7449
N19650 X9.8389 Y3.7471
N19655 X9.832 Y3.7493
N19660 X9.8248 Y3.7516
N19665 X9.8171 Y3.7539
N19670 X9.8092 Y3.7563
N19675 X9.801 Y3.7587
N19680 X9.7942 Y3.7606
N19685 X9.7875 Y3.7624
N19690 X9.7805 Y3.7643
N19695 X9.7732 Y3.7662
N19700 X9.7615 Y3.7691
N19705 X9.7532 Y3.7711
N19710 X9.7454 Y3.7729
N19715 X9.7387 Y3.7744
N19720 X9.7318 Y3.7759
N19725 X9.725 Y3.7773
N19730 X9.7179 Y3.7788
N19735 X9.7104 Y3.7802
N19740 X9.6645 Y3.7888
N19745 X9.6569 Y3.7898
N19750 X9.6489 Y3.7908
N19755 X9.6405 Y3.7919
N19760 X9.6317 Y3.7929
N19765 X9.6239 Y3.7937
N19770 X9.6168 Y3.7944
N19775 X9.6095 Y3.7951
N19780 X9.5628 Y3.7956
N19785 X9.5162 Y3.7948
N19790 X9.4695 Y3.7925
N19795 X9.423 Y3.7884
N19800 X9.3767 Y3.7825
N19805 X9.3306 Y3.7748
N19810 X9.285 Y3.7652
N19815 X9.2397 Y3.7536
N19820 X9.195 Y3.7401
N19825 X9.1509 Y3.7248
N19830 X9.1076 Y3.7075
N19835 X9.065 Y3.6882
N19840 X9.0234 Y3.6671
N19845 X8.9827 Y3.6442
N19850 X8.9431 Y3.6194
N19855 X8.9046 Y3.593
N19860 X8.8674 Y3.5648
N19865 X8.8314 Y3.535
N19870 X8.7969 Y3.5036
N19875 X8.7637 Y3.4707
N19880 X8.7321 Y3.4363
N19885 X8.7021 Y3.4006
N19890 X8.6737 Y3.3636
N19895 X8.6469 Y3.3253
N19900 X8.6217 Y3.286
N19905 X8.5982 Y3.2456
N19910 X8.5765 Y3.2043
N19915 X8.5563 Y3.1622
N19920 X8.5379 Y3.1193
N19925 X8.5211 Y3.0757
N19930 X8.506 Y3.0315
N19935 X8.4993 Y3.0092
N19940 X8.4962 Y2.9979
N19945 X8.4931 Y2.9867
N19950 X8.4902 Y2.9754
N19955 X8.4857 Y2.9646
N19960 X8.4799 Y2.9545
N19965 X8.4727 Y2.9452
N19970 X8.4644 Y2.937
N19975 X8.4271 Y2.9089
N19980 X8.3841 Y2.8907
N19985 X8.3581 Y2.8781
N19990 X8.3401 Y2.8675
N19995 X8.3296 Y2.8602
N20000 X8.3186 Y2.8511
N20005 X8.3128 Y2.8454
N20010 X8.3062 Y2.8379
N20015 X8.3025 Y2.8328
N20020 X8.3007 Y2.8301
N20025 X8.2989 Y2.8269
N20030 X8.3313 Y2.7933
N20035 X8.3568 Y2.7541
N20040 X8.377 Y2.712
N20045 X8.3934 Y2.6683
N20050 X8.4073 Y2.6237
N20055 X8.4197 Y2.5787
N20060 X8.4431 Y2.4883
N20065 X8.4552 Y2.4432
N20070 X8.4682 Y2.3984
N20075 X8.4822 Y2.3538
N20080 X8.4976 Y2.3097
N20085 X8.5144 Y2.2662
N20090 X8.5329 Y2.2233
N20095 X8.5529 Y2.1812
N20100 X8.5747 Y2.1398
N20105 X8.598 Y2.0994
N20110 X8.6231 Y2.06
N20115 X8.6499 Y2.0217
N20120 X8.6782 Y1.9847
N20125 X8.7079 Y1.9486
N20130 X8.7388 Y1.9136
N20135 X8.7711 Y1.8799
N20140 X8.8049 Y1.8477
N20145 X8.84 Y1.8169
N20150 X8.8765 Y1.7878
N20155 X8.9143 Y1.7603
N20160 X8.9532 Y1.7346
N20165 X8.9933 Y1.7106
N20170 X9.0344 Y1.6884
N20175 X9.0764 Y1.6681
N20180 X9.1193 Y1.6497
N20185 X9.163 Y1.6331
N20190 X9.2073 Y1.6184
N20195 X9.2522 Y1.6057
N20200 X9.2924 Y1.5819
N20205 X9.3297 Y1.5538
N20210 X9.3474 Y1.5406
N20215 X9.3603 Y1.533
N20220 X9.3744 Y1.5277
N20225 X9.3891 Y1.525
N20230 X9.3944 Y1.5244
N20235 X9.4057 Y1.5234
N20240 X9.4506 Y1.521
N20245 X9.4566
N20250 X9.5023 Y1.5307
N20255 X9.548 Y1.5404
N20260 X9.5938 Y1.5494
N20265 X9.6396 Y1.5584
N20270 X9.6854 Y1.5678
N20275 X9.7309 Y1.578
N20280 X9.7763 Y1.5892
N20285 X9.8213 Y1.6016
N20290 X9.8659 Y1.6155
N20295 X9.91 Y1.6307
N20300 X9.9535 Y1.6476
N20305 X9.9965 Y1.6659
N20310 X10.0387 Y1.6859
N20315 X10.0801 Y1.7074
N20320 X10.1207 Y1.7305
N20325 X10.1603 Y1.7551
N20330 X10.199 Y1.7813
N20335 X10.2366 Y1.809
N20340 X10.2731 Y1.8381
N20345 X10.3085 Y1.8686
N20350 X10.3426 Y1.9005
N20355 X10.3754 Y1.9337
N20360 X10.4069 Y1.9682
N20365 X10.437 Y2.0039
N20370 X10.4656 Y2.0408
N20375 X10.4928 Y2.0787
N20380 X10.5185 Y2.1177
N20385 X10.5426 Y2.1577
N20390 X10.5651 Y2.1986
N20395 X10.586 Y2.2404
N20400 X10.6052 Y2.2829
N20405 X10.6228 Y2.3262
N20410 X10.6386 Y2.3701
N20415 X10.6527 Y2.4146
N20420 X10.6652 Y2.4596
N20425 X10.6802 Y2.5038
N20430 X10.7044 Y2.5437
N20435 X10.7205 Y2.5669
N20440 X10.7274 Y2.5789
N20445 X10.7324 Y2.5918
N20450 X10.7352 Y2.6053
N20455 X10.7358 Y2.6095
N20460 X10.7381 Y2.6319
N20465 X10.7391 Y2.6432
N20470 X10.7415 Y2.6882
N20475 Y2.6942
N20480 X10.7323 Y2.7399
N20485 X10.724 Y2.7859
N20490 X10.7158 Y2.8319
N20495 X10.7074 Y2.8778
N20500 X10.6983 Y2.9236
N20505 X10.6882 Y2.9692
N20510 X10.677 Y3.0145
N20515 X10.6645 Y3.0595
N20520 X10.6505 Y3.104
N20525 X10.6351 Y3.1481
N20530 X10.6181 Y3.1916
N20535 X10.5996 Y3.2344
N20540 X10.5795 Y3.2766
N20545 X10.5578 Y3.3179
N20550 X10.5345 Y3.3584
N20555 X10.5098 Y3.398
N20560 X10.4835 Y3.4366
N20565 X10.4557 Y3.4742
N20570 X10.4265 Y3.5106
N20575 X10.3959 Y3.5459
N20580 X10.364 Y3.5799
N20585 X10.3307 Y3.6127
N20590 X10.2962 Y3.6441
N20595 X10.2605 Y3.6742
N20600 X10.2236 Y3.7029
N20605 X10.1857 Y3.73
N20610 X10.1467 Y3.7557
N20615 X10.1067 Y3.7798
N20620 X10.0658 Y3.8023
N20625 X10.024 Y3.8233
N20630 X9.9815 Y3.8425
N20635 X9.9382 Y3.8601
N20640 X9.8943 Y3.8759
N20645 X9.8498 Y3.89
N20650 X9.8048 Y3.9026
N20655 X9.7604 Y3.9169
N20660 X9.7203 Y3.9408
N20665 X9.6956 Y3.9579
N20670 X9.6837 Y3.9649
N20675 X9.6707 Y3.9699
N20680 X9.6572 Y3.9728
N20685 X9.653 Y3.9733
N20690 X9.6305 Y3.9756
N20695 X9.6193 Y3.9766
N20700 X9.5743 Y3.979
N20705 X9.5683
N20710 X9.5227 Y3.9692
N20715 X9.4771 Y3.959
N20720 X9.3857 Y3.9397
N20725 X9.3401 Y3.9296
N20730 X9.2947 Y3.9187
N20735 X9.2496 Y3.9068
N20740 X9.2048 Y3.8938
N20745 X9.1603 Y3.8794
N20750 X9.1164 Y3.8637
N20755 X9.073 Y3.8464
N20760 X9.0302 Y3.8277
N20765 X8.9882 Y3.8073
N20770 X8.947 Y3.7854
N20775 X8.9066 Y3.762
N20780 X8.8671 Y3.737
N20785 X8.8286 Y3.7106
N20790 X8.7912 Y3.6827
N20795 X8.7549 Y3.6534
N20800 X8.7197 Y3.6227
N20805 X8.6858 Y3.5905
N20810 X8.6532 Y3.5571
N20815 X8.6219 Y3.5224
N20820 X8.592 Y3.4866
N20825 X8.5635 Y3.4496
N20830 X8.5364 Y3.4116
N20835 X8.5108 Y3.3725
N20840 X8.4866 Y3.3326
N20845 X8.4639 Y3.2918
N20850 X8.4426 Y3.2502
N20855 X8.4229 Y3.2079
N20860 X8.4017 Y3.1663
N20865 X8.3743 Y3.1286
N20870 X8.3434 Y3.0935
N20875 X8.3412 Y3.0913
N20880 X8.332 Y3.0799
N20885 X8.3248 Y3.0672
N20890 X8.3199 Y3.0534
N20895 X8.3124 Y3.0255
N20900 X8.3095 Y3.0142
N20905 X8.3067 Y3.003
N20910 X8.2907 Y2.9018
N20915 X8.2892 Y2.8905
N20920 X8.2869 Y2.8681
N20925 X8.2859 Y2.8568
N20930 X8.2806 Y2.7556
N20935 Y2.7444
N20940 X8.2859 Y2.6432
N20945 X8.2869 Y2.6319
N20950 X8.2892 Y2.6095
N20955 X8.2907 Y2.5982
N20960 X8.3067 Y2.497
N20965 X8.3095 Y2.4858
N20970 X8.3124 Y2.4745
N20975 X8.3335 Y2.3958
N20980 X8.3366 Y2.3846
N20985 X8.3477 Y2.3508
N20990 X8.3487 Y2.3481
N20995 X8.3825 Y2.2602
N21000 X8.3869 Y2.2496
N21005 X8.3921 Y2.2384
N21010 X8.4274 Y2.1691
N21015 X8.444 Y2.1372
N21020 X8.4499 Y2.1269
N21025 X8.4949 Y2.0577
N21030 X8.5174 Y2.0238
N21035 X8.5255 Y2.0135
N21040 X8.5736 Y1.9541
N21045 X8.5803 Y1.9461
N21050 X8.5994 Y1.9236
N21055 X8.6073 Y1.9149
N21060 X8.6774 Y1.8449
N21065 X8.6861 Y1.8369
N21070 X8.7085 Y1.8178
N21075 X8.7166 Y1.8111
N21080 X8.776 Y1.763
N21085 X8.7863 Y1.7549
N21090 X8.821 Y1.7319
N21095 X8.8893 Y1.6874
N21100 X8.8997 Y1.6815
N21105 X8.9334 Y1.664
N21110 X9.0009 Y1.6296
N21115 X9.0121 Y1.6244
N21120 X9.0226 Y1.62
N21125 X9.1105 Y1.5863
N21130 X9.1133 Y1.5852
N21135 X9.1471 Y1.5741
N21140 X9.1583 Y1.571
N21145 X9.237 Y1.5499
N21150 X9.2482 Y1.547
N21155 X9.2595 Y1.5442
N21160 X9.3607 Y1.5282
N21165 X9.3719 Y1.5267
N21170 X9.3891 Y1.525
N21175 G3 X9.4302 Y1.5585 Z-0.202 I0.0038 J0.0373
N21180 X9.393 Y1.5248 I-0.0373 J0.0038
N21185 G1 X9.4424 Y1.525
N21190 G3 X9.4059 Y1.5534 I-0.0001 J0.0375
N21195 X9.4215 Y1.5313 Z-0.2058 I0.0364 J0.0091
N21200 G1 X9.422 Y1.5309
N21205 G3 X9.4506 Y1.521 Z-0.21 I0.0341 J0.0521 F20.
N21210 G1 X9.5069 Y1.5181 F50.
N21215 X9.5181
N21220 X9.6193 Y1.5234
N21225 X9.6305 Y1.5244
N21230 X9.653 Y1.5267
N21235 X9.6643 Y1.5282
N21240 X9.7655 Y1.5442
N21245 X9.7767 Y1.547
N21250 X9.788 Y1.5499
N21255 X9.8667 Y1.571
N21260 X9.8779 Y1.5741
N21265 X9.9116 Y1.5852
N21270 X9.9145 Y1.5863
N21275 X10.0024 Y1.62
N21280 X10.0128 Y1.6244
N21285 X10.0241 Y1.6296
N21290 X10.0934 Y1.665
N21295 X10.1253 Y1.6815
N21300 X10.1356 Y1.6874
N21305 X10.2049 Y1.7324
N21310 X10.2387 Y1.7549
N21315 X10.249 Y1.763
N21320 X10.3084 Y1.8111
N21325 X10.3164 Y1.8178
N21330 X10.3389 Y1.8368
N21335 X10.3476 Y1.8449
N21340 X10.4176 Y1.9149
N21345 X10.4256 Y1.9236
N21350 X10.4447 Y1.9461
N21355 X10.4513 Y1.9541
N21360 X10.4995 Y2.0135
N21365 X10.5076 Y2.0237
N21370 X10.5307 Y2.0585
N21375 X10.575 Y2.1268
N21380 X10.581 Y2.1372
N21385 X10.5985 Y2.1709
N21390 X10.6329 Y2.2384
N21395 X10.6381 Y2.2496
N21400 X10.6425 Y2.2601
N21405 X10.6762 Y2.348
N21410 X10.6773 Y2.3508
N21415 X10.6884 Y2.3846
N21420 X10.6915 Y2.3958
N21425 X10.7126 Y2.4745
N21430 X10.7155 Y2.4858
N21435 X10.7183 Y2.497
N21440 X10.7343 Y2.5982
N21445 X10.7352 Y2.6053
N21450 G3 X10.703 Y2.6474 Z-0.202 I-0.0372 J0.0049
N21455 X10.7356 Y2.6091 I-0.0049 J-0.0372
N21460 G1 X10.7375 Y2.6788
N21465 G3 X10.7091 Y2.6434 I-0.0375 J0.0011
N21470 X10.7312 Y2.659 Z-0.2058 I-0.0091 J0.0364
N21475 G1 X10.7315 Y2.6595
N21480 G3 X10.7415 Y2.6882 Z-0.21 I-0.0522 J0.0341 F20.
N21485 G1 X10.7444 Y2.7444 F50.
N21490 Y2.7556
N21495 X10.7391 Y2.8568
N21500 X10.7381 Y2.8681
N21505 X10.7358 Y2.8905
N21510 X10.7343 Y2.9018
N21515 X10.7183 Y3.003
N21520 X10.7155 Y3.0142
N21525 X10.7126 Y3.0255
N21530 X10.6915 Y3.1042
N21535 X10.6884 Y3.1154
N21540 X10.6773 Y3.1492
N21545 X10.6762 Y3.152
N21550 X10.6425 Y3.2399
N21555 X10.6381 Y3.2504
N21560 X10.6329 Y3.2616
N21565 X10.5975 Y3.331
N21570 X10.581 Y3.3628
N21575 X10.575 Y3.3732
N21580 X10.5301 Y3.4424
N21585 X10.5076 Y3.4763
N21590 X10.4995 Y3.4865
N21595 X10.4513 Y3.5459
N21600 X10.4447 Y3.5539
N21605 X10.4256 Y3.5764
N21610 X10.4176 Y3.5851
N21615 X10.3476 Y3.6551
N21620 X10.3389 Y3.6632
N21625 X10.3164 Y3.6822
N21630 X10.3084 Y3.6889
N21635 X10.249 Y3.737
N21640 X10.2387 Y3.7451
N21645 X10.204 Y3.7682
N21650 X10.1357 Y3.8126
N21655 X10.1253 Y3.8185
N21660 X10.0915 Y3.836
N21665 X10.0241 Y3.8704
N21670 X10.0128 Y3.8756
N21675 X10.0024 Y3.88
N21680 X9.9145 Y3.9137
