%
O01003
(Using high feed G1 F300. instead of G0.)
(T17 D=0.266 CR=0. TAPER=118deg - ZMIN=-1.1999 - drill)
N10 G90 G17
N15 G20
N20 G53 G0 Z0.

(Drill2)
N25 T17 M6
N30 S2000 M3
N35 G54
N40 G17 G90
N45 M8
N50 G1 X1.9375 Y3.9688 F300.
N55 G0 G43 Z0.7 H17
N60 G0 Z0.3
N65 G98 G83 X1.9375 Y3.9688 Z-1.1999 R0.2 Q0.0665 F20.
N70 X0.7188 Y2.75
N75 X1.9375 Y1.5312
N80 X3.1562 Y2.75
N85 G80
N90 G0 Z0.7

(Drill3)
N95 G1 X6.0125 Y4. F300.
N100 G0 Z0.6
N105 Z0.2
N110 G98 G83 X6.0125 Y4. Z-1.1999 R-0.16 Q0.0665 F20.
N115 X4.7625 Y2.75
N120 X6.0125 Y1.5
N125 X7.2625 Y2.75
N130 X8.2938
N135 X9.5125 Y3.9688
N140 X10.7313 Y2.75
N145 X9.5125 Y1.5312
N150 G80
N155 G0 Z0.6

N160 M5
N165 M9
N170 G53 G0 Z0.
N175 X5.6
N180 G53 G0 Y0.
N185 M2

%
