%
O01004
(Using high feed G1 F300. instead of G0.)
(T14 D=3. CR=0. - ZMIN=-0.06 - face mill)
N10 G90 G17
N15 G20
N20 G53 G0 Z0.

(Face3)
N25 T14 M6
N30 S2000 M3
N35 G54
N40 G17 G90
N45 M8
N50 G1 X13.15 Y-5.1347 F300.
N55 G0 G43 Z0.6 H14
N60 G0 Z0.24
N65 G18 G3 X12.85 Z-0.06 I-0.3 K0. F30.
N70 G1 X12.7004
N75 X-1.5004
N80 G17 G2 Y-3.2903 I0. J0.9222
N85 G1 X12.7004
N90 G3 Y-1.446 I0. J0.9222
N95 G1 X-1.5004
N100 G18 G3 X-1.8004 Z0.24 I0. K0.3
N105 G0 Z0.6

N110 M5
N115 M9
N120 G53 G0 Z0.
N125 X5.6
N130 G53 G0 Y0.
N135 M2

%
