%
O01005
(Using high feed G1 F300. instead of G0.)
(T6 D=0.375 CR=0. - ZMIN=-0.685 - flat end mill)
N10 G90 G17
N15 G20
N20 G53 G0 Z0.

(Bore3)
N25 T6 M6
N30 S2546 M3
N35 G54
N40 G17 G90
N45 M8
N50 G1 X1.9 Y-2.8062 F300.
N55 G0 G43 Z0.6 H6
N60 G0 Z0.08
N65 G1 Z0.0375 F20.
N70 G19 G2 Y-2.8437 Z0. J-0.0375 K0.
N75 G1 Y-2.8625
N80 G17 G3 X1.9375 Y-2.9 I0.0375 J0.
N85 X1.9244 Y-2.8994 Z-0.0232 I0. J0.15 F50.
N90 X1.9115 Y-2.8977 Z-0.0465 I0.0131 J0.1494
N95 X1.8987 Y-2.8949 Z-0.0697 I0.026 J0.1477
N100 X1.8862 Y-2.891 Z-0.093 I0.0388 J0.1449
N105 X1.8741 Y-2.8859 Z-0.1162 I0.0513 J0.141
N110 X1.8625 Y-2.8799 Z-0.1395 I0.0634 J0.1359
N115 X1.8515 Y-2.8729 Z-0.1627 I0.075 J0.1299
N120 X1.8411 Y-2.8649 Z-0.186 I0.086 J0.1229
N125 X1.8314 Y-2.8561 Z-0.2092 I0.0964 J0.1149
N130 X1.8226 Y-2.8464 Z-0.2324 I0.1061 J0.1061
N135 X1.8146 Y-2.836 Z-0.2557 I0.1149 J0.0964
N140 X1.8076 Y-2.825 Z-0.2789 I0.1229 J0.086
N145 X1.8016 Y-2.8134 Z-0.3022 I0.1299 J0.075
N150 X1.7965 Y-2.8013 Z-0.3254 I0.1359 J0.0634
N155 X1.7926 Y-2.7888 Z-0.3487 I0.141 J0.0513
N160 X1.7898 Y-2.776 Z-0.3719 I0.1449 J0.0388
N165 X1.7881 Y-2.7631 Z-0.3952 I0.1477 J0.026
N170 X1.7875 Y-2.75 Z-0.4184 I0.1494 J0.0131
N175 X1.7881 Y-2.7369 Z-0.4416 I0.15 J0.
N180 X1.7898 Y-2.724 Z-0.4649 I0.1494 J-0.0131
N185 X1.7926 Y-2.7112 Z-0.4881 I0.1477 J-0.026
N190 X1.7965 Y-2.6987 Z-0.5114 I0.1449 J-0.0388
N195 X1.8016 Y-2.6866 Z-0.5346 I0.141 J-0.0513
N200 X1.8076 Y-2.675 Z-0.5579 I0.1359 J-0.0634
N205 X1.8146 Y-2.664 Z-0.5811 I0.1299 J-0.075
N210 X1.8226 Y-2.6536 Z-0.6043 I0.1229 J-0.086
N215 X1.8314 Y-2.6439 Z-0.6276 I0.1149 J-0.0964
N220 X1.8411 Y-2.6351 Z-0.6508 I0.1061 J-0.1061
N225 X1.8515 Y-2.6271 Z-0.6741 I0.0964 J-0.1149
N230 X1.9932 Y-2.8893 Z-0.685 I0.086 J-0.1229
N235 X1.8818 Y-2.6107 I-0.0557 J0.1393
N240 X1.9932 Y-2.8893 I0.0557 J-0.1393
N245 X2.0141 Y-2.8406 I-0.0139 J0.0348
N250 G1 X2.0071 Y-2.8231
N255 X2.0054 Y-2.8189 Z-0.6847
N260 X2.0038 Y-2.8148 Z-0.6839
N265 X2.0022 Y-2.8108 Z-0.6826
N270 X2.0006 Y-2.807 Z-0.6807
N275 X1.9992 Y-2.8034 Z-0.6784
N280 X1.9979 Y-2.8001 Z-0.6756
N285 X1.9967 Y-2.7971 Z-0.6724
N290 X1.9957 Y-2.7945 Z-0.6688
N295 X1.9948 Y-2.7923 Z-0.6649
N300 X1.9941 Y-2.7906 Z-0.6608
N305 X1.9936 Y-2.7893 Z-0.6565
N310 X1.9933 Y-2.7886 Z-0.652
N315 X1.9932 Y-2.7883 Z-0.6475
N320 G0 Z0.2
N325 Z0.6
N330 G1 X1.9 Y-2.8437 F300.
N335 G0 Z-0.605
N340 G1 Z-0.6475 F20.
N345 G19 G2 Y-2.8812 Z-0.685 J-0.0375 K0.
N350 G1 Y-2.9
N355 G17 G3 X1.9375 Y-2.9375 I0.0375 J0.
N360 Y-2.5625 I0. J0.1875 F50.
N365 Y-2.9375 I0. J-0.1875
N370 X1.975 Y-2.9 I0. J0.0375
N375 G1 Y-2.8812
N380 G19 G3 Y-2.8437 Z-0.6475 J0. K0.0375
N385 G0 Z0.6

(2D Adaptive4)
N390 G17
N395 G1 X1.8998 Y-2.6941 F300.
N400 G0 Z0.6
N405 Z0.2
N410 Z-0.025
N415 G1 Z-0.0625 F20.
N420 X1.9001 Y-2.6943 Z-0.067
N425 X1.9007 Y-2.6948 Z-0.0715
N430 X1.9018 Y-2.6955 Z-0.0758
N435 X1.9033 Y-2.6966 Z-0.0799
N440 X1.9052 Y-2.698 Z-0.0838
N445 X1.9075 Y-2.6996 Z-0.0874
N450 X1.9101 Y-2.7014 Z-0.0906
N455 X1.913 Y-2.7035 Z-0.0934
N460 X1.9162 Y-2.7057 Z-0.0957
N465 X1.9196 Y-2.7081 Z-0.0976
N470 X1.9231 Y-2.7106 Z-0.0989
N475 X1.9267 Y-2.7132 Z-0.0997
N480 X1.9304 Y-2.7158 Z-0.1
N485 G3 X2.1105 Y-2.8164 I0.5541 J0.7807
N490 G1 X2.1161 Y-2.8185 F50.
N495 X2.122 Y-2.8177
N500 X2.1277 Y-2.8158
N505 X2.1334 Y-2.8132
N510 X2.1387 Y-2.8102
N515 X2.1436 Y-2.8068
N520 X2.1494 Y-2.8021
N525 X2.1561 Y-2.7956
N530 X2.1615 Y-2.7895
N535 X2.1666 Y-2.7827
N540 X2.1721 Y-2.7739
N545 X2.178 Y-2.7627
N550 X2.182 Y-2.7535
N555 X2.1857 Y-2.7424
N560 X2.189 Y-2.7287
N565 X2.1913 Y-2.7148
N570 X2.1924 Y-2.7018
N575 Y-2.6862
N580 X2.191 Y-2.669
N585 X2.1887 Y-2.6548
N590 X2.1846 Y-2.6379
N595 X2.1785 Y-2.6196
N600 X2.1723 Y-2.6048
N605 X2.1633 Y-2.5877
N610 X2.1525 Y-2.5706
N615 X2.1419 Y-2.5563
N620 X2.1276 Y-2.5401
N625 X2.1133 Y-2.5263
N630 X2.098 Y-2.5137
N635 X2.0781 Y-2.4999
N640 X2.0622 Y-2.4906
N645 X2.0423 Y-2.4811
N650 X2.0208 Y-2.4728
N655 X2.0014 Y-2.4671
N660 X1.9771 Y-2.4621
N665 X1.9567 Y-2.4595
N670 X1.9342 Y-2.4585
N675 X1.9098 Y-2.4593
N680 X1.8893 Y-2.4617
N685 X1.8644 Y-2.4667
N690 X1.844 Y-2.4724
N695 X1.8223 Y-2.4805
N700 X1.7999 Y-2.491
N705 X1.7815 Y-2.5014
N710 X1.76 Y-2.5161
N715 X1.7436 Y-2.5293
N720 X1.7264 Y-2.5456
N725 X1.7099 Y-2.5639
N730 X1.6968 Y-2.5811
N735 X1.6824 Y-2.6034
N740 X1.6727 Y-2.6216
N745 X1.663 Y-2.6438
N750 X1.6552 Y-2.6666
N755 X1.6497 Y-2.6881
N760 X1.6452 Y-2.7146
N765 X1.6434 Y-2.7348
N770 X1.6432 Y-2.7596
N775 X1.6448 Y-2.783
N780 X1.6482 Y-2.8054
N785 X1.6543 Y-2.8311
N790 X1.6607 Y-2.8508
N795 X1.6704 Y-2.8742
N800 X1.6807 Y-2.8945
N805 X1.6929 Y-2.9142
N810 X1.7082 Y-2.9349
N815 X1.722 Y-2.9509
N820 X1.7406 Y-2.9691
N825 X1.7574 Y-2.9832
N830 X1.7767 Y-2.9969
N835 X1.7983 Y-3.0097
N840 X1.8177 Y-3.0192
N845 X1.8425 Y-3.0289
N850 X1.8626 Y-3.035
N855 X1.8863 Y-3.0402
N860 X1.9104 Y-3.0434
N865 X1.9325 Y-3.0446
N870 X1.9596 Y-3.0439
N875 X1.9797 Y-3.0417
N880 X2.0041 Y-3.0371
N885 X2.0269 Y-3.0308
N890 X2.0482 Y-3.0231
N895 X2.0887 Y-3.0045
N900 X2.1295 Y-2.9818
N905 X2.1605 Y-2.9613
N910 X2.1862 Y-2.9413
N915 X2.2078 Y-2.9214
N920 X2.2265 Y-2.9012
N925 X2.2431 Y-2.8801
N930 X2.2576 Y-2.8583
N935 X2.2699 Y-2.836
N940 X2.2804 Y-2.8128
N945 X2.289 Y-2.7889
N950 X2.2956 Y-2.7646
N955 X2.3002 Y-2.7397
N960 X2.3029 Y-2.714
N965 X2.3035 Y-2.6884
N970 X2.302 Y-2.6623
N975 X2.2984 Y-2.6359
N980 X2.2926 Y-2.6099
N985 X2.2846 Y-2.5838
N990 X2.2744 Y-2.5582
N995 X2.2621 Y-2.5332
N1000 X2.2474 Y-2.5085
N1005 X2.2308 Y-2.4853
N1010 X2.2121 Y-2.4631
N1015 X2.1913 Y-2.4421
N1020 X2.1689 Y-2.4228
N1025 X2.1446 Y-2.405
N1030 X2.1187 Y-2.3892
N1035 X2.0915 Y-2.3754
N1040 X2.063 Y-2.3637
N1045 X2.0333 Y-2.3542
N1050 X2.003 Y-2.3472
N1055 X1.9716 Y-2.3425
N1060 X1.9401 Y-2.3403
N1065 X1.9084 Y-2.3407
N1070 X1.8762 Y-2.3437
N1075 X1.8448 Y-2.3492
N1080 X1.8132 Y-2.3574
N1085 X1.7827 Y-2.368
N1090 X1.7529 Y-2.3811
N1095 X1.7241 Y-2.3966
N1100 X1.6968 Y-2.4143
N1105 X1.6704 Y-2.4346
N1110 X1.6462 Y-2.4565
N1115 X1.6237 Y-2.4804
N1120 X1.6031 Y-2.5062
N1125 X1.5847 Y-2.5334
N1130 X1.5682 Y-2.5626
N1135 X1.5544 Y-2.5924
N1140 X1.543 Y-2.6235
N1145 X1.5341 Y-2.6554
N1150 X1.5277 Y-2.6877
N1155 X1.524 Y-2.7211
N1160 X1.5229 Y-2.754
N1165 X1.5246 Y-2.7873
N1170 X1.5288 Y-2.8202
N1175 X1.5357 Y-2.8526
N1180 X1.5453 Y-2.8847
N1185 X1.5572 Y-2.9155
N1190 X1.5718 Y-2.9457
N1195 X1.5886 Y-2.9743
N1200 X1.6076 Y-3.0015
N1205 X1.629 Y-3.0272
N1210 X1.652 Y-3.0509
N1215 X1.6774 Y-3.0731
N1220 X1.7039 Y-3.0929
N1225 X1.7321 Y-3.1105
N1230 X1.7618 Y-3.1258
N1235 X1.7923 Y-3.1386
N1240 X1.8244 Y-3.1492
N1245 X1.8565 Y-3.1569
N1250 X1.8895 Y-3.1621
N1255 X1.9227 Y-3.1646
N1260 X1.9558 Y-3.1645
N1265 X1.9929 Y-3.1614
N1270 X2.0314 Y-3.1549
N1275 X2.0722 Y-3.1447
N1280 X2.1132 Y-3.1309
N1285 X2.1529 Y-3.1138
N1290 X2.1903 Y-3.094
N1295 X2.2249 Y-3.072
N1300 X2.2567 Y-3.048
N1305 X2.2857 Y-3.0222
N1310 X2.312 Y-2.9947
N1315 X2.3356 Y-2.9657
N1320 X2.3566 Y-2.9352
N1325 X2.3749 Y-2.9034
N1330 X2.3904 Y-2.8704
N1335 X2.4033 Y-2.8365
N1340 X2.4133 Y-2.8017
N1345 X2.4206 Y-2.7661
N1350 X2.4249 Y-2.7301
N1355 X2.4264 Y-2.6936
N1360 X2.4249 Y-2.6569
N1365 X2.4205 Y-2.6203
N1370 X2.413 Y-2.5838
N1375 X2.4026 Y-2.5478
N1380 X2.3892 Y-2.5125
N1385 X2.3729 Y-2.478
N1390 X2.3538 Y-2.4447
N1395 X2.3318 Y-2.4128
N1400 X2.3072 Y-2.3826
N1405 X2.28 Y-2.3542
N1410 X2.2505 Y-2.3279
N1415 X2.2186 Y-2.3038
N1420 X2.1847 Y-2.2823
N1425 X2.149 Y-2.2634
N1430 X2.1116 Y-2.2473
N1435 X2.0728 Y-2.2342
N1440 X2.0328 Y-2.2242
N1445 X1.9919 Y-2.2175
N1450 X1.9504 Y-2.2139
N1455 X1.9085 Y-2.2138
N1460 X1.8666 Y-2.217
N1465 X1.8249 Y-2.2236
N1470 X1.7837 Y-2.2335
N1475 X1.7433 Y-2.2468
N1480 X1.704 Y-2.2633
N1485 X1.666 Y-2.283
N1490 X1.6297 Y-2.3057
N1495 X1.5952 Y-2.3313
N1500 X1.5628 Y-2.3596
N1505 X1.5327 Y-2.3906
N1510 X1.5052 Y-2.4238
N1515 X1.4805 Y-2.4592
N1520 X1.4586 Y-2.4966
N1525 X1.4398 Y-2.5355
N1530 X1.4241 Y-2.576
N1535 X1.4117 Y-2.6175
N1540 X1.4027 Y-2.66
N1545 X1.3972 Y-2.703
N1550 X1.3951 Y-2.7464
N1555 X1.3965 Y-2.7899
N1560 X1.4013 Y-2.8331
N1565 X1.4097 Y-2.8758
N1570 X1.4214 Y-2.9177
N1575 X1.4365 Y-2.9585
N1580 X1.4548 Y-2.998
N1585 X1.4762 Y-3.0359
N1590 X1.5006 Y-3.072
N1595 X1.5278 Y-3.106
N1600 X1.5577 Y-3.1377
N1605 X1.59 Y-3.167
N1610 X1.6245 Y-3.1935
N1615 X1.6612 Y-3.2172
N1620 X1.6995 Y-3.2379
N1625 X1.7394 Y-3.2554
N1630 X1.7806 Y-3.2697
N1635 X1.8228 Y-3.2806
N1640 X1.8666 Y-3.2883
N1645 X1.9121 Y-3.2925
N1650 X1.9588 Y-3.2931
N1655 X2.0054 Y-3.2899
N1660 X2.0516 Y-3.2833
N1665 X2.0972 Y-3.2732
N1670 X2.1419 Y-3.2598
N1675 X2.1855 Y-3.2432
N1680 X2.2278 Y-3.2233
N1685 X2.2685 Y-3.2004
N1690 X2.3074 Y-3.1746
N1695 X2.3442 Y-3.1458
N1700 X2.3787 Y-3.1144
N1705 X2.4107 Y-3.0804
N1710 X2.44 Y-3.044
N1715 X2.4663 Y-3.0055
N1720 X2.4896 Y-2.965
N1725 X2.5095 Y-2.9228
N1730 X2.5261 Y-2.8791
N1735 X2.5391 Y-2.8343
N1740 X2.5485 Y-2.7885
N1745 X2.5542 Y-2.7422
N1750 X2.5562 Y-2.6955
N1755 X2.5545 Y-2.6489
N1760 X2.5491 Y-2.6025
N1765 X2.5401 Y-2.5567
N1770 X2.5276 Y-2.5117
N1775 X2.5116 Y-2.4678
N1780 X2.4923 Y-2.4253
N1785 X2.4697 Y-2.3844
N1790 X2.4441 Y-2.3454
N1795 X2.4156 Y-2.3084
N1800 X2.3844 Y-2.2737
N1805 X2.3507 Y-2.2414
N1810 X2.3147 Y-2.2117
N1815 X2.2765 Y-2.1848
N1820 X2.2364 Y-2.1608
N1825 X2.1947 Y-2.1399
N1830 X2.1515 Y-2.1221
N1835 X2.1072 Y-2.1075
N1840 X2.0619 Y-2.0961
N1845 X2.0159 Y-2.088
N1850 X1.9694 Y-2.0832
N1855 X1.9228 Y-2.0818
N1860 X1.8761 Y-2.0837
N1865 X1.8297 Y-2.0889
N1870 X1.7838 Y-2.0975
N1875 X1.7387 Y-2.1094
N1880 X1.6944 Y-2.1243
N1885 X1.6514 Y-2.1424
N1890 X1.6096 Y-2.1633
N1895 X1.5695 Y-2.1872
N1900 X1.5311 Y-2.2138
N1905 X1.4948 Y-2.2431
N1910 X1.4606 Y-2.2748
N1915 X1.4286 Y-2.3089
N1920 X1.3992 Y-2.3451
N1925 X1.3723 Y-2.3833
N1930 X1.348 Y-2.4232
N1935 X1.3266 Y-2.4647
N1940 X1.3082 Y-2.5076
N1945 X1.2929 Y-2.5517
N1950 X1.2807 Y-2.5968
N1955 X1.2716 Y-2.6426
N1960 X1.2657 Y-2.6889
N1965 X1.263 Y-2.7355
N1970 X1.2635 Y-2.7822
N1975 X1.2672 Y-2.8288
N1980 X1.2743 Y-2.8749
N1985 X1.2845 Y-2.9205
N1990 X1.2979 Y-2.9652
N1995 X1.3143 Y-3.0089
N2000 X1.3336 Y-3.0514
N2005 X1.3558 Y-3.0925
N2010 X1.3808 Y-3.1319
N2015 X1.4085 Y-3.1695
N2020 X1.4388 Y-3.205
N2025 X1.4715 Y-3.2384
N2030 X1.5064 Y-3.2694
N2035 X1.5433 Y-3.298
N2040 X1.5821 Y-3.324
N2045 X1.6226 Y-3.3473
N2050 X1.6646 Y-3.3676
N2055 X1.7079 Y-3.385
N2060 X1.7524 Y-3.3993
N2065 X1.7977 Y-3.4106
N2070 X1.8436 Y-3.4189
N2075 X1.89 Y-3.4241
N2080 X1.9367 Y-3.4262
N2085 X1.9834 Y-3.4252
N2090 X2.0299 Y-3.4213
N2095 X2.0761 Y-3.4146
N2100 X2.1218 Y-3.405
N2105 X2.1668 Y-3.3926
N2110 X2.211 Y-3.3774
N2115 X2.2541 Y-3.3595
N2120 X2.296 Y-3.3389
N2125 X2.3366 Y-3.3159
N2130 X2.3758 Y-3.2905
N2135 X2.4132 Y-3.2626
N2140 X2.4488 Y-3.2323
N2145 X2.4824 Y-3.1999
N2150 X2.5139 Y-3.1655
N2155 X2.5433 Y-3.1292
N2160 X2.5702 Y-3.0911
N2165 X2.5946 Y-3.0512
N2170 X2.6164 Y-3.0099
N2175 X2.6355 Y-2.9673
N2180 X2.6518 Y-2.9236
N2185 X2.6654 Y-2.8789
N2190 X2.6759 Y-2.8334
N2195 X2.6834 Y-2.7873
N2200 X2.6879 Y-2.7408
N2205 X2.6895 Y-2.6942
N2210 X2.6881 Y-2.6475
N2215 X2.6837 Y-2.601
N2220 X2.6763 Y-2.5549
N2225 X2.6659 Y-2.5094
N2230 X2.6526 Y-2.4646
N2235 X2.6366 Y-2.4208
N2240 X2.6179 Y-2.378
N2245 X2.5965 Y-2.3365
N2250 X2.5725 Y-2.2965
N2255 X2.546 Y-2.258
N2260 X2.5172 Y-2.2213
N2265 X2.4862 Y-2.1863
N2270 X2.4531 Y-2.1534
N2275 X2.418 Y-2.1226
N2280 X2.381 Y-2.0941
N2285 X2.3424 Y-2.0679
N2290 X2.3022 Y-2.0441
N2295 X2.2607 Y-2.0227
N2300 X2.218 Y-2.0038
N2305 X2.1742 Y-1.9877
N2310 X2.1295 Y-1.9743
N2315 X2.0841 Y-1.9635
N2320 X2.0381 Y-1.9554
N2325 X1.9917 Y-1.95
N2330 X1.9451 Y-1.9474
N2335 X1.8984 Y-1.9477
N2340 X1.8518 Y-1.9508
N2345 X1.8055 Y-1.9566
N2350 X1.7595 Y-1.9651
N2355 X1.7142 Y-1.9762
N2360 X1.6696 Y-1.99
N2365 X1.6259 Y-2.0064
N2370 X1.5832 Y-2.0254
N2375 X1.5417 Y-2.0468
N2380 X1.5016 Y-2.0706
N2385 X1.4628 Y-2.0967
N2390 X1.4257 Y-2.125
N2395 X1.3903 Y-2.1555
N2400 X1.3568 Y-2.188
N2405 X1.3252 Y-2.2223
N2410 X1.2956 Y-2.2584
N2415 X1.2681 Y-2.2962
N2420 X1.2429 Y-2.3355
N2425 X1.22 Y-2.3762
N2430 X1.1996 Y-2.4182
N2435 X1.1816 Y-2.4613
N2440 X1.1661 Y-2.5053
N2445 X1.1531 Y-2.5502
N2450 X1.1428 Y-2.5957
N2455 X1.1352 Y-2.6418
N2460 X1.1303 Y-2.6882
N2465 X1.128 Y-2.7348
N2470 X1.1284 Y-2.7815
N2475 X1.1314 Y-2.8281
N2480 X1.1372 Y-2.8744
N2485 X1.1457 Y-2.9204
N2490 X1.1569 Y-2.9657
N2495 X1.1706 Y-3.0103
N2500 X1.1868 Y-3.0541
N2505 X1.2055 Y-3.0969
N2510 X1.2266 Y-3.1385
N2515 X1.2502 Y-3.1788
N2520 X1.2761 Y-3.2177
N2525 X1.3042 Y-3.255
N2530 X1.3343 Y-3.2907
N2535 X1.3664 Y-3.3246
N2540 X1.4004 Y-3.3566
N2545 X1.4362 Y-3.3865
N2550 X1.4738 Y-3.4143
N2555 X1.5128 Y-3.4399
N2560 X1.5532 Y-3.4633
N2565 X1.5949 Y-3.4843
N2570 X1.6378 Y-3.5028
N2575 X1.6816 Y-3.5188
N2580 X1.7263 Y-3.5323
N2585 X1.7717 Y-3.5433
N2590 X1.8176 Y-3.5518
N2595 X1.8639 Y-3.5577
N2600 X1.9105 Y-3.5611
N2605 X1.9572 Y-3.5618
N2610 X2.0039 Y-3.5601
N2615 X2.0504 Y-3.5558
N2620 X2.0966 Y-3.5491
N2625 X2.1424 Y-3.54
N2630 X2.1876 Y-3.5285
N2635 X2.2322 Y-3.5146
N2640 X2.2759 Y-3.4983
N2645 X2.3188 Y-3.4797
N2650 X2.3606 Y-3.459
N2655 X2.4013 Y-3.4361
N2660 X2.4408 Y-3.4111
N2665 X2.4788 Y-3.3841
N2670 X2.5154 Y-3.355
N2675 X2.5503 Y-3.324
N2680 X2.5835 Y-3.2912
N2685 X2.615 Y-3.2568
N2690 X2.6447 Y-3.2207
N2695 X2.6723 Y-3.183
N2700 X2.6978 Y-3.1439
N2705 X2.7211 Y-3.1035
N2710 X2.7423 Y-3.0618
N2715 X2.7611 Y-3.0191
N2720 X2.7777 Y-2.9755
N2725 X2.7919 Y-2.931
N2730 X2.8036 Y-2.8858
N2735 X2.8128 Y-2.84
N2740 X2.8195 Y-2.7938
N2745 X2.8237 Y-2.7473
N2750 X2.8254 Y-2.7006
N2755 X2.8246 Y-2.654
N2760 X2.8212 Y-2.6074
N2765 X2.8153 Y-2.5611
N2770 X2.8069 Y-2.5151
N2775 X2.796 Y-2.4697
N2780 X2.7828 Y-2.425
N2785 X2.7672 Y-2.3809
N2790 X2.7493 Y-2.3378
N2795 X2.729 Y-2.2957
N2800 X2.7065 Y-2.2548
N2805 X2.6819 Y-2.2151
N2810 X2.6553 Y-2.1768
N2815 X2.6267 Y-2.1399
N2820 X2.5962 Y-2.1045
N2825 X2.5639 Y-2.0708
N2830 X2.5298 Y-2.0389
N2835 X2.4941 Y-2.0089
N2840 X2.4568 Y-1.9807
N2845 X2.4182 Y-1.9545
N2850 X2.3783 Y-1.9302
N2855 X2.3372 Y-1.9081
N2860 X2.2949 Y-1.8882
N2865 X2.2517 Y-1.8705
N2870 X2.2077 Y-1.855
N2875 X2.1629 Y-1.8418
N2880 X2.1175 Y-1.8308
N2885 X2.0716 Y-1.8222
N2890 X2.0658 Y-1.8214
N2895 X2.0195 Y-1.8154
N2900 X1.973 Y-1.8117
N2905 X1.9263 Y-1.8105
N2910 X1.8796 Y-1.8117
N2915 X1.8331 Y-1.8152
N2920 X1.7868 Y-1.8211
N2925 X1.7408 Y-1.8292
N2930 X1.6953 Y-1.8396
N2935 X1.6503 Y-1.8523
N2940 X1.6061 Y-1.8673
N2945 X1.5627 Y-1.8845
N2950 X1.5202 Y-1.9038
N2955 X1.4787 Y-1.9252
N2960 X1.4383 Y-1.9487
N2965 X1.3991 Y-1.9741
N2970 X1.3613 Y-2.0014
N2975 X1.3249 Y-2.0307
N2980 X1.29 Y-2.0617
N2985 X1.2567 Y-2.0944
N2990 X1.225 Y-2.1287
N2995 X1.195 Y-2.1645
N3000 X1.1669 Y-2.2018
N3005 X1.1407 Y-2.2404
N3010 X1.1164 Y-2.2803
N3015 X1.0942 Y-2.3213
N3020 X1.074 Y-2.3634
N3025 X1.0559 Y-2.4065
N3030 X1.0398 Y-2.4503
N3035 X1.026 Y-2.4949
N3040 X1.0145 Y-2.5402
N3045 X1.0052 Y-2.586
N3050 X1.0035 Y-2.5975
N3055 X1.0019 Y-2.6091
N3060 X0.9959 Y-2.6554
N3065 X0.9922 Y-2.7019
N3070 X0.9909 Y-2.7486
N3075 X0.9919 Y-2.7953
N3080 X0.9952 Y-2.8418
N3085 X1.0008 Y-2.8882
N3090 X1.0087 Y-2.9342
N3095 X1.0188 Y-2.9798
N3100 X1.0312 Y-3.0248
N3105 X1.0458 Y-3.0691
N3110 X1.0626 Y-3.1127
N3115 X1.0816 Y-3.1554
N3120 X1.1026 Y-3.1971
N3125 X1.1256 Y-3.2377
N3130 X1.1506 Y-3.2772
N3135 X1.1775 Y-3.3153
N3140 X1.2063 Y-3.3521
N3145 X1.2368 Y-3.3874
N3150 X1.2691 Y-3.4211
N3155 X1.303 Y-3.4533
N3160 X1.3384 Y-3.4837
N3165 X1.3752 Y-3.5124
N3170 X1.4135 Y-3.5392
N3175 X1.453 Y-3.564
N3180 X1.4937 Y-3.5869
N3185 X1.5355 Y-3.6078
N3190 X1.5782 Y-3.6266
N3195 X1.6218 Y-3.6433
N3200 X1.6661 Y-3.6579
N3205 X1.7112 Y-3.6703
N3210 X1.7567 Y-3.6805
N3215 X1.7797 Y-3.6845
N3220 X1.7913 Y-3.6862
N3225 X1.8375 Y-3.6928
N3230 X1.884 Y-3.6971
N3235 X1.9306 Y-3.6991
N3240 X1.9773 Y-3.699
N3245 X2.024 Y-3.6966
N3250 X2.0704 Y-3.6921
N3255 X2.1167 Y-3.6854
N3260 X2.1625 Y-3.6767
N3265 X2.2079 Y-3.6659
N3270 X2.2136 Y-3.6647
N3275 X2.2195 Y-3.6634
N3280 X2.2254 Y-3.6621
N3285 X2.2312 Y-3.6607
N3290 X2.237 Y-3.6593
N3295 X2.2429 Y-3.6578
N3300 X2.2491 Y-3.6562
N3305 X2.2554 Y-3.6545
N3310 X2.2618 Y-3.6527
N3315 X2.2676 Y-3.6511
N3320 X2.2734 Y-3.6494
N3325 X2.2791 Y-3.6477
N3330 X2.285 Y-3.6459
N3335 X2.291 Y-3.644
N3340 X2.2973 Y-3.642
N3345 X2.3038 Y-3.6398
N3350 X2.3105 Y-3.6375
N3355 X2.3167 Y-3.6354
N3360 X2.3223 Y-3.6334
N3365 X2.3281 Y-3.6313
N3370 X2.334 Y-3.6291
N3375 X2.3401 Y-3.6267
N3380 X2.3465 Y-3.6242
N3385 X2.3531 Y-3.6216
N3390 X2.36 Y-3.6188
N3395 X2.3664 Y-3.6161
N3400 X2.3721 Y-3.6137
N3405 X2.3778 Y-3.6113
N3410 X2.3837 Y-3.6086
N3415 X2.3899 Y-3.6059
N3420 X2.3962 Y-3.603
N3425 X2.4029 Y-3.5998
N3430 X2.4098 Y-3.5966
N3435 X2.4161 Y-3.5935
N3440 X2.4218 Y-3.5907
N3445 X2.4275 Y-3.5878
N3450 X2.4334 Y-3.5848
N3455 X2.4395 Y-3.5816
N3460 X2.4458 Y-3.5782
N3465 X2.4525 Y-3.5746
N3470 X2.4593 Y-3.5708
N3475 X2.4654 Y-3.5674
N3480 X2.4709 Y-3.5643
N3485 X2.4766 Y-3.5609
N3490 X2.4825 Y-3.5575
N3495 X2.4886 Y-3.5538
N3500 X2.495 Y-3.5499
N3505 X2.5016 Y-3.5458
N3510 X2.5082 Y-3.5416
N3515 X2.5139 Y-3.538
N3520 X2.5193 Y-3.5345
N3525 X2.525 Y-3.5307
N3530 X2.5309 Y-3.5268
N3535 X2.537 Y-3.5226
N3540 X2.5433 Y-3.5182
N3545 X2.5499 Y-3.5136
N3550 X2.556 Y-3.5092
N3555 X2.5613 Y-3.5054
N3560 X2.5667 Y-3.5014
N3565 X2.5723 Y-3.4972
N3570 X2.5781 Y-3.4927
N3575 X2.5842 Y-3.488
N3580 X2.5905 Y-3.4831
N3585 X2.5968 Y-3.4781
N3590 X2.6021 Y-3.4738
N3595 X2.6073 Y-3.4696
N3600 X2.6126 Y-3.4651
N3605 X2.6182 Y-3.4604
N3610 X2.6239 Y-3.4555
N3615 X2.6299 Y-3.4503
N3620 X2.6361 Y-3.4448
N3625 X2.6415 Y-3.4399
N3630 X2.6464 Y-3.4354
N3635 X2.6515 Y-3.4308
N3640 X2.6567 Y-3.4259
N3645 X2.6621 Y-3.4207
N3650 X2.6677 Y-3.4153
N3655 X2.6735 Y-3.4096
N3660 X2.6791 Y-3.404
N3665 X2.6838 Y-3.3993
N3670 X2.6885 Y-3.3945
N3675 X2.6934 Y-3.3895
N3680 X2.6984 Y-3.3842
N3685 X2.7036 Y-3.3786
N3690 X2.709 Y-3.3727
N3695 X2.7145 Y-3.3667
N3700 X2.7192 Y-3.3614
N3705 X2.7236 Y-3.3564
N3710 X2.7281 Y-3.3512
N3715 X2.7328 Y-3.3458
N3720 X2.7376 Y-3.3401
N3725 X2.7426 Y-3.3341
N3730 X2.7477 Y-3.3277
N3735 X2.7526 Y-3.3217
N3740 X2.7567 Y-3.3165
N3745 X2.7609 Y-3.3112
N3750 X2.7652 Y-3.3056
N3755 X2.7696 Y-3.2997
N3760 X2.7743 Y-3.2935
N3765 X2.779 Y-3.287
N3770 X2.7838 Y-3.2804
N3775 X2.7878 Y-3.2748
N3780 X2.7917 Y-3.2693
N3785 X2.7956 Y-3.2636
N3790 X2.7997 Y-3.2576
N3795 X2.804 Y-3.2512
N3800 X2.8083 Y-3.2446
N3805 X2.8129 Y-3.2376
N3810 X2.8168 Y-3.2314
N3815 X2.8204 Y-3.2258
N3820 X2.824 Y-3.2199
N3825 X2.8277 Y-3.2138
N3830 X2.8316 Y-3.2073
N3835 X2.8356 Y-3.2005
N3840 X2.8397 Y-3.1934
N3845 X2.8436 Y-3.1866
N3850 X2.8469 Y-3.1807
N3855 X2.8501 Y-3.1747
N3860 X2.8535 Y-3.1685
N3865 X2.857 Y-3.162
N3870 X2.8605 Y-3.1551
N3875 X2.8642 Y-3.1479
N3880 X2.8679 Y-3.1405
N3885 X2.871 Y-3.1343
N3890 X2.8739 Y-3.1283
N3895 X2.8768 Y-3.1221
N3900 X2.8799 Y-3.1155
N3905 X2.883 Y-3.1087
N3910 X2.8862 Y-3.1015
N3915 X2.8895 Y-3.094
N3920 X2.8925 Y-3.087
N3925 X2.8951 Y-3.081
N3930 X2.8977 Y-3.0747
N3935 X2.9003 Y-3.0682
N3940 X2.903 Y-3.0613
N3945 X2.9058 Y-3.0542
N3950 X2.9087 Y-3.0467
N3955 X2.9115 Y-3.0391
N3960 X2.9138 Y-3.0327
N3965 X2.916 Y-3.0264
N3970 X2.9183 Y-3.0198
N3975 X2.9206 Y-3.013
N3980 X2.923 Y-3.0058
N3985 X2.9254 Y-2.9983
N3990 X2.9279 Y-2.9904
N3995 X2.93 Y-2.9834
N4000 X2.9329 Y-2.9737
N4005 X2.9348 Y-2.967
N4010 X2.9367 Y-2.96
N4015 X2.9387 Y-2.9526
N4020 X2.9407 Y-2.9449
N4025 X2.9428 Y-2.9369
N4030 X2.9445 Y-2.9299
N4035 X2.946 Y-2.9234
N4040 X2.9476 Y-2.9167
N4045 X2.9492 Y-2.9097
N4050 X2.9508 Y-2.9023
N4055 X2.9524 Y-2.8946
N4060 X2.954 Y-2.8865
N4065 X2.9554 Y-2.8789
N4070 X2.9567 Y-2.8723
N4075 X2.9579 Y-2.8656
N4080 X2.959 Y-2.8586
N4085 X2.9602 Y-2.8512
N4090 X2.9614 Y-2.8436
N4095 X2.9626 Y-2.8355
N4100 X2.9637 Y-2.8274
N4105 X2.9646 Y-2.8206
N4110 X2.9655 Y-2.814
N4115 X2.9663 Y-2.8071
N4120 X2.9671 Y-2.7998
N4125 X2.9678 Y-2.7923
N4130 X2.9686 Y-2.7844
N4135 X2.9693 Y-2.7761
N4140 X2.9699 Y-2.7688
N4145 X2.9704 Y-2.7622
N4150 X2.9708 Y-2.7554
N4155 X2.9713 Y-2.7483
N4160 X2.9716 Y-2.7409
N4165 X2.972 Y-2.7332
N4170 X2.9723 Y-2.7251
N4175 X2.9725 Y-2.7171
N4180 X2.9726 Y-2.7104
N4185 X2.9727 Y-2.7037
N4190 X2.9728 Y-2.6967
N4195 Y-2.6894
N4200 X2.9727 Y-2.6818
N4205 X2.9726 Y-2.6738
N4210 X2.9724 Y-2.6656
N4215 X2.9722 Y-2.6584
N4220 X2.9719 Y-2.6518
N4225 X2.9716 Y-2.6448
N4230 X2.9713 Y-2.6376
N4235 X2.9708 Y-2.6301
N4240 X2.9703 Y-2.6223
N4245 X2.9697 Y-2.6141
N4250 X2.9691 Y-2.6064
N4255 X2.9685 Y-2.5997
N4260 X2.9678 Y-2.5929
N4265 X2.9671 Y-2.5858
N4270 X2.9662 Y-2.5783
N4275 X2.9653 Y-2.5706
N4280 X2.9643 Y-2.5625
N4285 X2.9632 Y-2.5544
N4290 X2.9623 Y-2.5476
N4295 X2.9613 Y-2.5409
N4300 X2.9602 Y-2.5339
N4305 X2.959 Y-2.5266
N4310 X2.9577 Y-2.5189
N4315 X2.9563 Y-2.511
N4320 X2.9547 Y-2.5028
N4325 X2.9534 Y-2.4957
N4330 X2.952 Y-2.4891
N4335 X2.9506 Y-2.4823
N4340 X2.9491 Y-2.4751
N4345 X2.9474 Y-2.4677
N4350 X2.9456 Y-2.4599
N4355 X2.9436 Y-2.4517
N4360 X2.9418 Y-2.4444
N4365 X2.9402 Y-2.4379
N4370 X2.9384 Y-2.4313
N4375 X2.9365 Y-2.4243
N4380 X2.9345 Y-2.4171
N4385 X2.9324 Y-2.4096
N4390 X2.93 Y-2.4018
N4395 X2.9277 Y-2.3941
N4400 X2.9257 Y-2.3876
N4405 X2.9236 Y-2.3811
N4410 X2.9214 Y-2.3744
N4415 X2.9191 Y-2.3674
N4420 X2.9166 Y-2.3601
N4425 X2.9139 Y-2.3525
N4430 X2.9111 Y-2.3447
N4435 X2.9087 Y-2.338
N4440 X2.9063 Y-2.3317
N4445 X2.9038 Y-2.3252
N4450 X2.9011 Y-2.3184
N4455 X2.8982 Y-2.3113
N4460 X2.8952 Y-2.3039
N4465 X2.892 Y-2.2962
N4470 X2.889 Y-2.2892
N4475 X2.8863 Y-2.2831
N4480 X2.8835 Y-2.2767
N4485 X2.8805 Y-2.2701
N4490 X2.8773 Y-2.2632
N4495 X2.8739 Y-2.256
N4500 X2.8703 Y-2.2485
N4505 X2.8668 Y-2.2414
N4510 X2.8638 Y-2.2353
N4515 X2.8606 Y-2.2291
N4520 X2.8573 Y-2.2226
N4525 X2.8537 Y-2.2159
N4530 X2.85 Y-2.2089
N4535 X2.846 Y-2.2016
N4540 X2.842 Y-2.1945
N4545 X2.8386 Y-2.1885
N4550 X2.8352 Y-2.1824
N4555 X2.8315 Y-2.1762
N4560 X2.8277 Y-2.1697
N4565 X2.8236 Y-2.163
N4570 X2.8193 Y-2.1559
N4575 X2.8148 Y-2.1488
N4580 X2.8111 Y-2.1429
N4585 X2.8074 Y-2.1371
N4590 X2.8034 Y-2.1312
N4595 X2.7748 Y-2.0943
N4600 X2.745 Y-2.0583
N4605 X2.714 Y-2.0234
N4610 X2.6817 Y-1.9897
N4615 X2.6481 Y-1.9573
N4620 X2.6131 Y-1.9263
N4625 X2.5769 Y-1.8969
N4630 X2.5395 Y-1.869
N4635 X2.5009 Y-1.8427
N4640 X2.4612 Y-1.8181
N4645 X2.4205 Y-1.7953
N4650 X2.3787 Y-1.7743
N4655 X2.3361 Y-1.7552
N4660 X2.2927 Y-1.7381
N4665 X2.2486 Y-1.7228
N4670 X2.2038 Y-1.7095
N4675 X2.1925 Y-1.7067
N4680 X2.1816 Y-1.7024
N4685 X2.1715 Y-1.6966
N4690 X2.1342 Y-1.6685
N4695 X2.1086 Y-1.6295
N4700 X2.0846 Y-1.5901
N4705 X2.0691 Y-1.5687
N4710 X2.0593 Y-1.5573
N4715 X2.0484 Y-1.5464
N4720 X2.0405 Y-1.5397
N4725 X2.0314 Y-1.5332
N4730 X2.0255 Y-1.5296
N4735 X2.0145 Y-1.5251
N4740 X2.0029 Y-1.522
N4745 X1.9911 Y-1.5206
N4750 X1.9894 Y-1.5205
N4755 X1.9879
N4760 X1.9556 Y-1.5542
N4765 X1.9179 Y-1.5817
N4770 X1.8772 Y-1.6046
N4775 X1.8348 Y-1.6241
N4780 X1.7914 Y-1.6415
N4785 X1.7476 Y-1.6577
N4790 X1.7037 Y-1.6734
N4795 X1.6598 Y-1.6892
N4800 X1.616 Y-1.7056
N4805 X1.5727 Y-1.7229
N4810 X1.5297 Y-1.7412
N4815 X1.4874 Y-1.7609
N4820 X1.4457 Y-1.782
N4825 X1.4049 Y-1.8047
N4830 X1.365 Y-1.8289
N4835 X1.326 Y-1.8546
N4840 X1.2881 Y-1.8819
N4845 X1.2514 Y-1.9107
N4850 X1.2159 Y-1.941
N4855 X1.1817 Y-1.9728
N4860 X1.1489 Y-2.0061
N4865 X1.1175 Y-2.0407
N4870 X1.0877 Y-2.0766
N4875 X1.0594 Y-2.1137
N4880 X1.0328 Y-2.1521
N4885 X1.0078 Y-2.1915
N4890 X0.9845 Y-2.232
N4895 X0.963 Y-2.2734
N4900 X0.9434 Y-2.3158
N4905 X0.9255 Y-2.3589
N4910 X0.9096 Y-2.4028
N4915 X0.8955 Y-2.4474
N4920 X0.8895 Y-2.4699
N4925 X0.8881 Y-2.4756
N4930 X0.8854 Y-2.4869
N4935 X0.8812 Y-2.4978
N4940 X0.8755 Y-2.508
N4945 X0.8477 Y-2.5456
N4950 X0.81 Y-2.5731
N4955 X0.7715 Y-2.5994
N4960 X0.7532 Y-2.614
N4965 X0.7413 Y-2.6249
N4970 X0.7305 Y-2.6364
N4975 X0.7236 Y-2.6451
N4980 X0.7232 Y-2.6457
N4985 X0.7156 Y-2.6595
N4990 X0.7107 Y-2.6744
N4995 X0.7084 Y-2.6899
N5000 Y-2.6915
N5005 X0.7083 Y-2.693
N5010 X0.7406 Y-2.7268
N5015 X0.7669 Y-2.7653
N5020 X0.7889 Y-2.8065
N5025 X0.8078 Y-2.8492
N5030 X0.8247 Y-2.8928
N5035 X0.8405 Y-2.9367
N5040 X0.856 Y-2.9808
N5045 X0.8716 Y-3.0247
N5050 X0.888 Y-3.0685
N5055 X0.9052 Y-3.1119
N5060 X0.9235 Y-3.1548
N5065 X0.9431 Y-3.1972
N5070 X0.9642 Y-3.2389
N5075 X0.9868 Y-3.2797
N5080 X1.011 Y-3.3197
N5085 X1.0367 Y-3.3586
N5090 X1.0639 Y-3.3966
N5095 X1.0927 Y-3.4333
N5100 X1.123 Y-3.4689
N5105 X1.1547 Y-3.5032
N5110 X1.1878 Y-3.5361
N5115 X1.2223 Y-3.5675
N5120 X1.2582 Y-3.5974
N5125 X1.2952 Y-3.6258
N5130 X1.3335 Y-3.6526
N5135 X1.3729 Y-3.6777
N5140 X1.4132 Y-3.7011
N5145 X1.4546 Y-3.7228
N5150 X1.4968 Y-3.7428
N5155 X1.5399 Y-3.7608
N5160 X1.5837 Y-3.777
N5165 X1.6281 Y-3.7914
N5170 X1.6731 Y-3.8037
N5175 X1.713 Y-3.8281
N5180 X1.7442 Y-3.8628
N5185 X1.7718 Y-3.9004
N5190 X1.7859 Y-3.919
N5195 X1.8025 Y-3.939
N5200 X1.8149 Y-3.9516
N5205 X1.8251 Y-3.9605
N5210 X1.8271 Y-3.962
N5215 X1.8379 Y-3.9688
N5220 X1.8496 Y-3.9739
N5225 X1.8618 Y-3.9773
N5230 X1.8745 Y-3.9789
N5235 X1.8757 Y-3.979
N5240 X1.8787
N5245 X1.9133 Y-3.9476
N5250 X1.9524 Y-3.9222
N5255 X1.994 Y-3.901
N5260 X2.0371 Y-3.883
N5265 X2.0809 Y-3.867
N5270 X2.1253 Y-3.8523
N5275 X2.1699 Y-3.8384
N5280 X2.2145 Y-3.8246
N5285 X2.2589 Y-3.8103
N5290 X2.3031 Y-3.7953
N5295 X2.3469 Y-3.7791
N5300 X2.3902 Y-3.7616
N5305 X2.4329 Y-3.7427
N5310 X2.4749 Y-3.7223
N5315 X2.5161 Y-3.7004
N5320 X2.5565 Y-3.6769
N5325 X2.5959 Y-3.6518
N5330 X2.6343 Y-3.6253
N5335 X2.6716 Y-3.5972
N5340 X2.7077 Y-3.5676
N5345 X2.7426 Y-3.5366
N5350 X2.7763 Y-3.5043
N5355 X2.8086 Y-3.4705
N5360 X2.8395 Y-3.4356
N5365 X2.869 Y-3.3993
N5370 X2.897 Y-3.362
N5375 X2.9234 Y-3.3235
N5380 X2.9483 Y-3.284
N5385 X2.9715 Y-3.2435
N5390 X2.9931 Y-3.202
N5395 X3.0129 Y-3.1598
N5400 X3.031 Y-3.1168
N5405 X3.0474 Y-3.073
N5410 X3.062 Y-3.0287
N5415 X3.0824 Y-2.9867
N5420 X3.1107 Y-2.9495
N5425 X3.1409 Y-2.9139
N5430 X3.1458 Y-2.9075
N5435 X3.1526 Y-2.8973
N5440 X3.1579 Y-2.8862
N5445 X3.1616 Y-2.8744
N5450 X3.1636 Y-2.8623
N5455 X3.1641 Y-2.8568
N5460 X3.1665 Y-2.8118
N5465 Y-2.8058
N5470 X3.1567 Y-2.7602
N5475 X3.1468 Y-2.7146
N5480 X3.1379 Y-2.6687
N5485 X3.1294 Y-2.6228
N5490 X3.1208 Y-2.5769
N5495 X3.1116 Y-2.5311
N5500 X3.1015 Y-2.4856
N5505 X3.0902 Y-2.4402
N5510 X3.0777 Y-2.3953
N5515 X3.0637 Y-2.3507
N5520 X3.0482 Y-2.3067
N5525 X3.0312 Y-2.2632
N5530 X3.0126 Y-2.2204
N5535 X2.9924 Y-2.1783
N5540 X2.9702 Y-2.1372
N5545 X2.9461 Y-2.0972
N5550 X2.9203 Y-2.0583
N5555 X2.893 Y-2.0204
N5560 X2.8643 Y-1.9836
N5565 X2.8342 Y-1.9479
N5570 X2.8028 Y-1.9133
N5575 X2.7701 Y-1.88
N5580 X2.7361 Y-1.848
N5585 X2.701 Y-1.8172
N5590 X2.6647 Y-1.7878
N5595 X2.6274 Y-1.7597
N5600 X2.589 Y-1.7331
N5605 X2.5497 Y-1.708
N5610 X2.5094 Y-1.6844
N5615 X2.4681 Y-1.6625
N5620 X2.4261 Y-1.6422
N5625 X2.3833 Y-1.6235
N5630 X2.3435 Y-1.5991
N5635 X2.3287 Y-1.5878
N5640 X2.3195 Y-1.5816
N5645 X2.3096 Y-1.5767
N5650 X2.2991 Y-1.573
N5655 X2.2917 Y-1.571
N5660 X2.213 Y-1.5499
N5665 X2.2017 Y-1.547
N5670 X2.1905 Y-1.5442
N5675 X2.0893 Y-1.5282
N5680 X2.078 Y-1.5267
N5685 X2.0556 Y-1.5244
N5690 X2.0443 Y-1.5234
N5695 X1.9911 Y-1.5206
N5700 X1.9895 Y-1.5205
N5705 X1.9894
N5710 X1.9431 Y-1.5181
N5715 X1.9319
N5720 X1.8307 Y-1.5234
N5725 X1.8194 Y-1.5244
N5730 X1.797 Y-1.5267
N5735 X1.7857 Y-1.5282
N5740 X1.7407 Y-1.5353
N5745 X1.695 Y-1.5449
N5750 X1.6494 Y-1.5547
N5755 X1.6043 Y-1.5669
N5760 X1.5598 Y-1.5809
N5765 X1.5159 Y-1.5968
N5770 X1.4726 Y-1.6143
N5775 X1.43 Y-1.6334
N5780 X1.3881 Y-1.6541
N5785 X1.347 Y-1.6762
N5790 X1.3067 Y-1.6998
N5795 X1.2673 Y-1.7248
N5800 X1.2288 Y-1.7513
N5805 X1.1913 Y-1.7791
N5810 X1.1549 Y-1.8084
N5815 X1.1197 Y-1.839
N5820 X1.0856 Y-1.8709
N5825 X1.0527 Y-1.904
N5830 X1.021 Y-1.9383
N5835 X0.9907 Y-1.9738
N5840 X0.9617 Y-2.0104
N5845 X0.9342 Y-2.0481
N5850 X0.9081 Y-2.0869
N5855 X0.8835 Y-2.1266
N5860 X0.8605 Y-2.1672
N5865 X0.839 Y-2.2087
N5870 X0.8191 Y-2.2509
N5875 X0.8008 Y-2.2939
N5880 X0.7837 Y-2.3245
N5885 X0.7818 Y-2.3282
N5890 X0.78 Y-2.332
N5895 X0.7784 Y-2.3358
N5900 X0.7738 Y-2.348
N5905 X0.7727 Y-2.3508
N5910 X0.7616 Y-2.3846
N5915 X0.7585 Y-2.3958
N5920 X0.7374 Y-2.4745
N5925 X0.7345 Y-2.4858
N5930 X0.7317 Y-2.497
N5935 X0.7157 Y-2.5982
N5940 X0.7142 Y-2.6095
N5945 X0.7119 Y-2.6319
N5950 X0.7109 Y-2.6432
N5955 X0.7084 Y-2.6899
N5960 Y-2.69
N5965 Y-2.6914
N5970 Y-2.6915
N5975 X0.7056 Y-2.7444
N5980 Y-2.7556
N5985 X0.7109 Y-2.8568
N5990 X0.7119 Y-2.8681
N5995 X0.7142 Y-2.8905
N6000 X0.7157 Y-2.9018
N6005 X0.7317 Y-3.003
N6010 X0.7345 Y-3.0142
N6015 X0.7374 Y-3.0255
N6020 X0.7464 Y-3.0592
N6025 X0.7607 Y-3.1036
N6030 X0.7747 Y-3.1482
N6035 X0.7907 Y-3.1921
N6040 X0.8085 Y-3.2352
N6045 X0.828 Y-3.2777
N6050 X0.8492 Y-3.3193
N6055 X0.8719 Y-3.3601
N6060 X0.8962 Y-3.3999
N6065 X0.9219 Y-3.4389
N6070 X0.9491 Y-3.4769
N6075 X0.9776 Y-3.5139
N6080 X1.0075 Y-3.5497
N6085 X1.0387 Y-3.5845
N6090 X1.0711 Y-3.618
N6095 X1.1049 Y-3.6503
N6100 X1.1398 Y-3.6813
N6105 X1.1759 Y-3.7109
N6110 X1.2131 Y-3.7392
N6115 X1.2513 Y-3.766
N6120 X1.2905 Y-3.7914
N6125 X1.3306 Y-3.8153
N6130 X1.3716 Y-3.8377
N6135 X1.4133 Y-3.8585
N6140 X1.4559 Y-3.8777
N6145 X1.498 Y-3.8978
N6150 X1.5023 Y-3.9003
N6155 X1.5067 Y-3.9025
N6160 X1.5113 Y-3.9045
N6165 X1.5355 Y-3.9137
N6170 X1.5383 Y-3.9148
N6175 X1.5721 Y-3.9259
N6180 X1.5833 Y-3.929
N6185 X1.662 Y-3.9501
N6190 X1.6733 Y-3.9531
N6195 X1.6845 Y-3.9558
N6200 X1.7857 Y-3.9718
N6205 X1.797 Y-3.9733
N6210 X1.8194 Y-3.9756
N6215 X1.8307 Y-3.9766
N6220 X1.8745 Y-3.9789
N6225 X1.8756 Y-3.979
N6230 X1.8757
N6235 X1.9319 Y-3.9819
N6240 X1.9431
N6245 X2.0443 Y-3.9766
N6250 X2.0556 Y-3.9756
N6255 X2.078 Y-3.9733
N6260 X2.0893 Y-3.9718
N6265 X2.1905 Y-3.9558
N6270 X2.2017 Y-3.9531
N6275 X2.213 Y-3.9501
N6280 X2.2917 Y-3.929
N6285 X2.3029 Y-3.9259
N6290 X2.3367 Y-3.9148
N6295 X2.3395 Y-3.9137
N6300 X2.4274 Y-3.88
N6305 X2.4379 Y-3.8756
N6310 X2.4491 Y-3.8704
N6315 X2.5185 Y-3.835
N6320 X2.5503 Y-3.8185
N6325 X2.5607 Y-3.8126
N6330 X2.6299 Y-3.7676
N6335 X2.6637 Y-3.7451
N6340 X2.674 Y-3.737
N6345 X2.7334 Y-3.6889
N6350 X2.7414 Y-3.6822
N6355 X2.7639 Y-3.6631
N6360 X2.7726 Y-3.6551
N6365 X2.8426 Y-3.5851
N6370 X2.8506 Y-3.5764
N6375 X2.8697 Y-3.5539
N6380 X2.8764 Y-3.5459
N6385 X2.9245 Y-3.4865
N6390 X2.9326 Y-3.4762
N6395 X2.9557 Y-3.4415
N6400 X3.0001 Y-3.3732
N6405 X3.006 Y-3.3628
N6410 X3.0235 Y-3.3291
N6415 X3.0579 Y-3.2616
N6420 X3.0631 Y-3.2504
N6425 X3.0675 Y-3.2399
N6430 X3.1012 Y-3.152
N6435 X3.1023 Y-3.1492
N6440 X3.1134 Y-3.1154
N6445 X3.1165 Y-3.1042
N6450 X3.1376 Y-3.0255
N6455 X3.1405 Y-3.0142
N6460 X3.1433 Y-3.003
N6465 X3.1593 Y-2.9018
N6470 X3.1608 Y-2.8905
N6475 X3.1631 Y-2.8681
N6480 X3.1636 Y-2.8623
N6485 G3 X3.1621 Y-2.8494 I-0.0374 J0.0022
N6490 G2 X3.1628 Y-2.8281 I0.0324 J0.0096
N6495 G3 X3.1665 Y-2.8118 I-0.0584 J0.0217
N6500 G1 X3.1694 Y-2.7556
N6505 Y-2.7444
N6510 X3.1641 Y-2.6432
N6515 X3.1631 Y-2.6319
N6520 X3.1608 Y-2.6095
N6525 X3.1593 Y-2.5982
N6530 X3.1433 Y-2.497
N6535 X3.1405 Y-2.4858
N6540 X3.1376 Y-2.4745
N6545 X3.1165 Y-2.3958
N6550 X3.1134 Y-2.3846
N6555 X3.1023 Y-2.3508
N6560 X3.1012 Y-2.348
N6565 X3.0675 Y-2.2601
N6570 X3.0631 Y-2.2496
N6575 X3.0579 Y-2.2384
N6580 X3.0225 Y-2.169
N6585 X3.006 Y-2.1372
N6590 X3.0001 Y-2.1268
N6595 X2.9551 Y-2.0576
N6600 X2.9326 Y-2.0238
N6605 X2.9245 Y-2.0135
N6610 X2.8764 Y-1.9541
N6615 X2.8697 Y-1.9461
N6620 X2.8506 Y-1.9236
N6625 X2.8426 Y-1.9149
N6630 X2.7726 Y-1.8449
N6635 X2.7639 Y-1.8369
N6640 X2.7414 Y-1.8178
N6645 X2.7334 Y-1.8111
N6650 X2.674 Y-1.763
N6655 X2.6637 Y-1.7549
N6660 X2.629 Y-1.7318
N6665 X2.5607 Y-1.6874
N6670 X2.5503 Y-1.6815
N6675 X2.5166 Y-1.664
N6680 X2.4491 Y-1.6296
N6685 X2.4379 Y-1.6244
N6690 X2.4274 Y-1.62
N6695 X2.3395 Y-1.5863
N6700 X2.3367 Y-1.5852
N6705 X2.3029 Y-1.5741
N6710 X2.2991 Y-1.573
N6715 G3 X2.2765 Y-1.5766 Z-0.0968 I-0.007 J-0.0292
N6720 G2 X2.2456 Y-1.5938 Z-0.092 I-0.232 J0.3797
N6725 X2.1703 Y-1.6237 I-0.2012 J0.3969
N6730 X2.1571 Y-1.6252 I-0.0106 J0.036
N6735 G1 X1.875 Y-1.606
N6740 G2 X1.8622 Y-1.6028 I0.0025 J0.0374
N6745 X1.7911 Y-1.5627 I0.1823 J0.4059
N6750 X1.7684 Y-1.5459 Z-0.0958 I0.2534 J0.3658
N6755 G1 X1.7633 Y-1.5418 Z-0.0967 F20.
N6760 G3 X1.7407 Y-1.5353 Z-0.1 I-0.019 J-0.0233
N6765 G1 X1.6845 Y-1.5442 F50.
N6770 X1.6733 Y-1.547
N6775 X1.662 Y-1.5499
N6780 X1.5833 Y-1.571
N6785 X1.5721 Y-1.5741
N6790 X1.5383 Y-1.5852
N6795 X1.5355 Y-1.5863
N6800 X1.4476 Y-1.62
N6805 X1.4371 Y-1.6244
N6810 X1.4259 Y-1.6296
N6815 X1.3565 Y-1.665
N6820 X1.3247 Y-1.6815
N6825 X1.3143 Y-1.6874
N6830 X1.2451 Y-1.7324
N6835 X1.2113 Y-1.7549
N6840 X1.201 Y-1.763
N6845 X1.1416 Y-1.8111
N6850 X1.1336 Y-1.8178
N6855 X1.1111 Y-1.8369
N6860 X1.1024 Y-1.8449
N6865 X1.0324 Y-1.9149
N6870 X1.0244 Y-1.9236
N6875 X1.0053 Y-1.9461
N6880 X0.9986 Y-1.9541
N6885 X0.9505 Y-2.0135
N6890 X0.9424 Y-2.0238
N6895 X0.9193 Y-2.0585
N6900 X0.8749 Y-2.1268
N6905 X0.869 Y-2.1372
N6910 X0.8515 Y-2.1709
N6915 X0.8171 Y-2.2384
N6920 X0.8119 Y-2.2496
N6925 X0.8075 Y-2.2601
N6930 X0.7784 Y-2.3358
N6935 G3 X0.7798 Y-2.3587 Z-0.0968 I0.0284 J-0.0098
N6940 G2 X0.7945 Y-2.3909 Z-0.092 I-0.639 J-0.3116
N6945 X0.8242 Y-2.4744 I-0.6536 J-0.2795
N6950 X0.8256 Y-2.4864 I-0.036 J-0.0103
N6955 G1 X0.8068 Y-2.9138
N6960 G2 X0.8044 Y-2.9257 I-0.0375 J0.0016
N6965 X0.7676 Y-3.0059 I-0.6635 J0.2553
N6970 X0.7538 Y-3.0305 Z-0.0958 I-0.6268 J0.3355
N6975 G1 X0.7499 Y-3.037 Z-0.0969 F20.
N6980 G3 X0.7464 Y-3.0592 Z-0.1 I0.0257 J-0.0155
N6985 G1 X0.7585 Y-3.1042 F50.
N6990 X0.7616 Y-3.1154
N6995 X0.7727 Y-3.1492
N7000 X0.7738 Y-3.152
N7005 X0.8075 Y-3.2399
N7010 X0.8119 Y-3.2504
N7015 X0.8171 Y-3.2616
N7020 X0.8525 Y-3.331
N7025 X0.869 Y-3.3628
N7030 X0.8749 Y-3.3732
N7035 X0.9199 Y-3.4424
N7040 X0.9424 Y-3.4762
N7045 X0.9505 Y-3.4865
N7050 X0.9986 Y-3.5459
N7055 X1.0053 Y-3.5539
N7060 X1.0244 Y-3.5764
N7065 X1.0324 Y-3.5851
N7070 X1.1024 Y-3.6551
N7075 X1.1111 Y-3.6631
N7080 X1.1336 Y-3.6822
N7085 X1.1416 Y-3.6889
N7090 X1.201 Y-3.737
N7095 X1.2113 Y-3.7451
N7100 X1.246 Y-3.7682
N7105 X1.3143 Y-3.8126
N7110 X1.3247 Y-3.8185
N7115 X1.3584 Y-3.836
N7120 X1.4259 Y-3.8704
N7125 X1.4371 Y-3.8756
N7130 X1.4476 Y-3.88
N7135 X1.5113 Y-3.9045
N7140 X1.5149 Y-3.9052 Z-0.0998
N7145 X1.5185 Y-3.9058 Z-0.0991
N7150 X1.5219 Y-3.9065 Z-0.098
N7155 X1.5235 Z-0.0974
N7160 X1.5265 Y-3.9061 Z-0.0959
N7165 X1.5293 Y-3.9057 Z-0.094
N7170 X1.5319 Y-3.9053 Z-0.0919
N7175 X1.5342 Y-3.905 Z-0.0894
N7180 X1.5363 Y-3.9041 Z-0.0865
N7185 X1.538 Y-3.9034 Z-0.0833
N7190 X1.5394 Y-3.9028 Z-0.08
N7195 X1.5404 Y-3.9024 Z-0.0764
N7200 X1.5411 Y-3.9021 Z-0.0728
N7205 X1.5413 Z-0.0691
N7210 G0 Z0.2
N7215 G1 X1.9752 Y-2.8059 F300.
N7220 G0 Z-0.125
N7225 G1 Z-0.1625 F20.
N7230 X1.9749 Y-2.8057 Z-0.167
N7235 X1.9743 Y-2.8052 Z-0.1715
N7240 X1.9732 Y-2.8045 Z-0.1758
N7245 X1.9717 Y-2.8034 Z-0.1799
N7250 X1.9698 Y-2.802 Z-0.1838
N7255 X1.9675 Y-2.8004 Z-0.1874
N7260 X1.9649 Y-2.7986 Z-0.1906
N7265 X1.962 Y-2.7965 Z-0.1934
N7270 X1.9588 Y-2.7943 Z-0.1957
N7275 X1.9554 Y-2.7919 Z-0.1976
N7280 X1.9519 Y-2.7894 Z-0.1989
N7285 X1.9483 Y-2.7868 Z-0.1997
N7290 X1.9446 Y-2.7842 Z-0.2
N7295 G3 X1.7645 Y-2.6836 I-0.5541 J-0.7807
N7300 G1 X1.7589 Y-2.6815 F50.
N7305 X1.753 Y-2.6823
N7310 X1.7473 Y-2.6842
N7315 X1.7416 Y-2.6868
N7320 X1.7363 Y-2.6898
N7325 X1.7314 Y-2.6932
N7330 X1.7256 Y-2.6979
N7335 X1.7189 Y-2.7044
N7340 X1.7135 Y-2.7105
N7345 X1.7084 Y-2.7173
N7350 X1.7029 Y-2.7261
N7355 X1.697 Y-2.7373
N7360 X1.693 Y-2.7465
N7365 X1.6894 Y-2.7576
N7370 X1.686 Y-2.7713
N7375 X1.6837 Y-2.7852
N7380 X1.6826 Y-2.7982
N7385 Y-2.8138
N7390 X1.684 Y-2.831
N7395 X1.6863 Y-2.8452
N7400 X1.6904 Y-2.8621
N7405 X1.6965 Y-2.8804
N7410 X1.7027 Y-2.8951
N7415 X1.7117 Y-2.9123
N7420 X1.7225 Y-2.9294
N7425 X1.7331 Y-2.9436
N7430 X1.7474 Y-2.9599
N7435 X1.7617 Y-2.9737
N7440 X1.777 Y-2.9863
N7445 X1.7969 Y-3.0001
N7450 X1.8128 Y-3.0093
N7455 X1.8327 Y-3.0189
N7460 X1.8542 Y-3.0272
N7465 X1.8736 Y-3.0329
N7470 X1.8979 Y-3.0379
N7475 X1.9182 Y-3.0405
N7480 X1.9408 Y-3.0415
N7485 X1.9652 Y-3.0407
N7490 X1.9857 Y-3.0383
N7495 X2.0106 Y-3.0334
N7500 X2.031 Y-3.0276
N7505 X2.0527 Y-3.0195
N7510 X2.0751 Y-3.009
N7515 X2.0935 Y-2.9986
N7520 X2.115 Y-2.984
N7525 X2.1314 Y-2.9707
N7530 X2.1486 Y-2.9544
N7535 X2.165 Y-2.9361
N7540 X2.1782 Y-2.919
N7545 X2.1926 Y-2.8966
N7550 X2.2023 Y-2.8784
N7555 X2.212 Y-2.8562
N7560 X2.2198 Y-2.8334
N7565 X2.2253 Y-2.8119
N7570 X2.2298 Y-2.7854
N7575 X2.2316 Y-2.7652
N7580 X2.2318 Y-2.7405
N7585 X2.2302 Y-2.717
N7590 X2.2268 Y-2.6946
N7595 X2.2207 Y-2.669
N7600 X2.2143 Y-2.6493
N7605 X2.2046 Y-2.6258
N7610 X2.1943 Y-2.6055
N7615 X2.1821 Y-2.5859
N7620 X2.1668 Y-2.5651
N7625 X2.153 Y-2.5491
N7630 X2.1344 Y-2.5309
N7635 X2.1176 Y-2.5168
N7640 X2.0983 Y-2.5032
N7645 X2.0767 Y-2.4904
N7650 X2.0573 Y-2.4808
N7655 X2.0325 Y-2.4711
N7660 X2.0124 Y-2.465
N7665 X1.9887 Y-2.4598
N7670 X1.9646 Y-2.4566
N7675 X1.9425 Y-2.4554
N7680 X1.9154 Y-2.4561
N7685 X1.8953 Y-2.4583
N7690 X1.8709 Y-2.4629
N7695 X1.8481 Y-2.4692
N7700 X1.8268 Y-2.4769
N7705 X1.7863 Y-2.4954
N7710 X1.7455 Y-2.5182
N7715 X1.7145 Y-2.5386
N7720 X1.6889 Y-2.5587
N7725 X1.6672 Y-2.5786
N7730 X1.6485 Y-2.5988
N7735 X1.632 Y-2.6199
N7740 X1.6175 Y-2.6417
N7745 X1.6051 Y-2.664
N7750 X1.5946 Y-2.6871
N7755 X1.586 Y-2.7111
N7760 X1.5794 Y-2.7354
N7765 X1.5748 Y-2.7603
N7770 X1.5721 Y-2.786
N7775 X1.5715 Y-2.8116
N7780 X1.573 Y-2.8377
N7785 X1.5766 Y-2.864
N7790 X1.5824 Y-2.89
N7795 X1.5904 Y-2.9162
N7800 X1.6006 Y-2.9418
N7805 X1.6129 Y-2.9668
N7810 X1.6276 Y-2.9914
N7815 X1.6442 Y-3.0147
N7820 X1.6629 Y-3.0369
N7825 X1.6837 Y-3.0579
N7830 X1.7061 Y-3.0772
N7835 X1.7304 Y-3.095
N7840 X1.7563 Y-3.1108
N7845 X1.7834 Y-3.1246
N7850 X1.8119 Y-3.1363
N7855 X1.8416 Y-3.1458
N7860 X1.872 Y-3.1528
N7865 X1.9033 Y-3.1575
N7870 X1.9348 Y-3.1597
N7875 X1.9666 Y-3.1593
N7880 X1.9987 Y-3.1563
N7885 X2.0302 Y-3.1508
N7890 X2.0618 Y-3.1426
N7895 X2.0923 Y-3.132
N7900 X2.122 Y-3.1189
N7905 X2.1509 Y-3.1034
N7910 X2.1782 Y-3.0857
N7915 X2.2045 Y-3.0655
N7920 X2.2287 Y-3.0436
N7925 X2.2513 Y-3.0196
N7930 X2.2719 Y-2.9938
N7935 X2.2903 Y-2.9666
N7940 X2.3068 Y-2.9374
N7945 X2.3205 Y-2.9077
N7950 X2.332 Y-2.8766
N7955 X2.3409 Y-2.8447
N7960 X2.3472 Y-2.8123
N7965 X2.351 Y-2.779
N7970 X2.3521 Y-2.746
N7975 X2.3504 Y-2.7127
N7980 X2.3462 Y-2.6798
N7985 X2.3393 Y-2.6475
N7990 X2.3297 Y-2.6153
N7995 X2.3178 Y-2.5845
N8000 X2.3032 Y-2.5543
N8005 X2.2864 Y-2.5258
N8010 X2.2674 Y-2.4986
N8015 X2.2461 Y-2.4728
N8020 X2.223 Y-2.4491
N8025 X2.1977 Y-2.4269
N8030 X2.1711 Y-2.4072
N8035 X2.1429 Y-2.3896
N8040 X2.1132 Y-2.3742
N8045 X2.0827 Y-2.3614
N8050 X2.0506 Y-2.3508
N8055 X2.0185 Y-2.3431
N8060 X1.9856 Y-2.3379
N8065 X1.9524 Y-2.3354
N8070 X1.9193 Y-2.3355
N8075 X1.8822 Y-2.3386
N8080 X1.8436 Y-2.3451
N8085 X1.8029 Y-2.3552
N8090 X1.7618 Y-2.3691
N8095 X1.7221 Y-2.3862
N8100 X1.6847 Y-2.4059
N8105 X1.6501 Y-2.4279
N8110 X1.6184 Y-2.4519
N8115 X1.5894 Y-2.4778
N8120 X1.5631 Y-2.5052
N8125 X1.5394 Y-2.5343
N8130 X1.5185 Y-2.5648
N8135 X1.5002 Y-2.5966
N8140 X1.4846 Y-2.6295
N8145 X1.4717 Y-2.6635
N8150 X1.4617 Y-2.6983
N8155 X1.4544 Y-2.7338
N8160 X1.4501 Y-2.7699
N8165 X1.4486 Y-2.8064
N8170 X1.4501 Y-2.843
N8175 X1.4545 Y-2.8796
N8180 X1.462 Y-2.9161
N8185 X1.4724 Y-2.9521
N8190 X1.4857 Y-2.9875
N8195 X1.502 Y-3.0219
N8200 X1.5212 Y-3.0552
N8205 X1.5431 Y-3.0871
N8210 X1.5678 Y-3.1174
N8215 X1.5949 Y-3.1458
N8220 X1.6245 Y-3.1721
N8225 X1.6563 Y-3.1961
N8230 X1.6902 Y-3.2177
N8235 X1.726 Y-3.2366
N8240 X1.7634 Y-3.2527
N8245 X1.8022 Y-3.2657
N8250 X1.8421 Y-3.2757
N8255 X1.883 Y-3.2825
N8260 X1.9245 Y-3.286
N8265 X1.9664 Y-3.2862
N8270 X2.0083 Y-3.283
N8275 X2.05 Y-3.2764
N8280 X2.0913 Y-3.2665
N8285 X2.1316 Y-3.2532
N8290 X2.171 Y-3.2367
N8295 X2.209 Y-3.217
N8300 X2.2453 Y-3.1943
N8305 X2.2798 Y-3.1687
N8310 X2.3121 Y-3.1404
N8315 X2.3422 Y-3.1094
N8320 X2.3697 Y-3.0762
N8325 X2.3945 Y-3.0408
N8330 X2.4164 Y-3.0035
N8335 X2.4352 Y-2.9645
N8340 X2.4509 Y-2.9241
N8345 X2.4633 Y-2.8825
N8350 X2.4723 Y-2.8401
N8355 X2.4778 Y-2.797
N8360 X2.4799 Y-2.7537
N8365 X2.4785 Y-2.7102
N8370 X2.4737 Y-2.667
N8375 X2.4653 Y-2.6243
N8380 X2.4536 Y-2.5824
N8385 X2.4385 Y-2.5416
N8390 X2.4202 Y-2.502
N8395 X2.3988 Y-2.4642
N8400 X2.3744 Y-2.428
N8405 X2.3472 Y-2.394
N8410 X2.3174 Y-2.3623
N8415 X2.285 Y-2.3331
N8420 X2.2505 Y-2.3065
N8425 X2.2139 Y-2.2828
N8430 X2.1755 Y-2.2621
N8435 X2.1356 Y-2.2446
N8440 X2.0944 Y-2.2303
N8445 X2.0523 Y-2.2194
N8450 X2.0084 Y-2.2117
N8455 X1.963 Y-2.2075
N8460 X1.9163 Y-2.2069
N8465 X1.8697 Y-2.2101
N8470 X1.8235 Y-2.2167
N8475 X1.7779 Y-2.2268
N8480 X1.7331 Y-2.2401
N8485 X1.6895 Y-2.2568
N8490 X1.6472 Y-2.2766
N8495 X1.6066 Y-2.2995
N8500 X1.5677 Y-2.3254
N8505 X1.5309 Y-2.3541
N8510 X1.4963 Y-2.3856
N8515 X1.4643 Y-2.4196
N8520 X1.4351 Y-2.4559
N8525 X1.4087 Y-2.4945
N8530 X1.3855 Y-2.535
N8535 X1.3655 Y-2.5772
N8540 X1.349 Y-2.6208
N8545 X1.336 Y-2.6657
N8550 X1.3266 Y-2.7114
N8555 X1.3208 Y-2.7578
N8560 X1.3188 Y-2.8044
N8565 X1.3205 Y-2.8511
N8570 X1.3258 Y-2.8975
N8575 X1.3348 Y-2.9433
N8580 X1.3474 Y-2.9883
N8585 X1.3634 Y-3.0321
N8590 X1.3827 Y-3.0746
N8595 X1.4053 Y-3.1155
N8600 X1.4309 Y-3.1546
N8605 X1.4593 Y-3.1916
N8610 X1.4905 Y-3.2263
N8615 X1.5242 Y-3.2586
N8620 X1.5603 Y-3.2883
N8625 X1.5985 Y-3.3152
N8630 X1.6385 Y-3.3391
N8635 X1.6803 Y-3.36
N8640 X1.7234 Y-3.3779
N8645 X1.7678 Y-3.3925
N8650 X1.8131 Y-3.4038
N8655 X1.8591 Y-3.4119
N8660 X1.9055 Y-3.4168
N8665 X1.9522 Y-3.4182
N8670 X1.9988 Y-3.4163
N8675 X2.0452 Y-3.4111
N8680 X2.0911 Y-3.4025
N8685 X2.1363 Y-3.3907
N8690 X2.1805 Y-3.3757
N8695 X2.2236 Y-3.3577
N8700 X2.2653 Y-3.3367
N8705 X2.3055 Y-3.3129
N8710 X2.3438 Y-3.2863
N8715 X2.3802 Y-3.257
N8720 X2.4144 Y-3.2252
N8725 X2.4463 Y-3.1911
N8730 X2.4758 Y-3.1549
N8735 X2.5027 Y-3.1168
N8740 X2.5269 Y-3.0768
N8745 X2.5483 Y-3.0353
N8750 X2.5667 Y-2.9924
N8755 X2.5821 Y-2.9483
N8760 X2.5943 Y-2.9033
N8765 X2.6034 Y-2.8575
N8770 X2.6093 Y-2.8111
N8775 X2.612 Y-2.7645
N8780 X2.6115 Y-2.7178
N8785 X2.6078 Y-2.6713
N8790 X2.6007 Y-2.6251
N8795 X2.5905 Y-2.5796
N8800 X2.5772 Y-2.5348
N8805 X2.5608 Y-2.4911
N8810 X2.5414 Y-2.4486
N8815 X2.5192 Y-2.4075
N8820 X2.4942 Y-2.3681
N8825 X2.4665 Y-2.3305
N8830 X2.4362 Y-2.295
N8835 X2.4035 Y-2.2616
N8840 X2.3687 Y-2.2306
N8845 X2.3318 Y-2.202
N8850 X2.293 Y-2.176
N8855 X2.2525 Y-2.1527
N8860 X2.2105 Y-2.1324
N8865 X2.1671 Y-2.1151
N8870 X2.1227 Y-2.1007
N8875 X2.0774 Y-2.0894
N8880 X2.0314 Y-2.0811
N8885 X1.985 Y-2.0759
N8890 X1.9384 Y-2.0738
N8895 X1.8917 Y-2.0748
N8900 X1.8452 Y-2.0787
N8905 X1.799 Y-2.0854
N8910 X1.7533 Y-2.095
N8915 X1.7082 Y-2.1074
N8920 X1.6641 Y-2.1226
N8925 X1.621 Y-2.1405
N8930 X1.5791 Y-2.161
N8935 X1.5384 Y-2.1841
N8940 X1.4993 Y-2.2095
N8945 X1.4618 Y-2.2374
N8950 X1.4263 Y-2.2676
N8955 X1.3926 Y-2.3
N8960 X1.3611 Y-2.3345
N8965 X1.3317 Y-2.3708
N8970 X1.3048 Y-2.4089
N8975 X1.2804 Y-2.4487
N8980 X1.2586 Y-2.49
N8985 X1.2395 Y-2.5326
N8990 X1.2232 Y-2.5764
N8995 X1.2097 Y-2.6211
N9000 X1.1991 Y-2.6665
N9005 X1.1916 Y-2.7126
N9010 X1.1871 Y-2.7591
N9015 X1.1855 Y-2.8058
N9020 X1.1869 Y-2.8524
N9025 X1.1913 Y-2.8989
N9030 X1.1987 Y-2.945
N9035 X1.2091 Y-2.9905
N9040 X1.2223 Y-3.0353
N9045 X1.2383 Y-3.0792
N9050 X1.257 Y-3.122
N9055 X1.2785 Y-3.1634
N9060 X1.3025 Y-3.2035
N9065 X1.329 Y-3.2419
N9070 X1.3578 Y-3.2787
N9075 X1.3887 Y-3.3136
N9080 X1.4218 Y-3.3466
N9085 X1.4569 Y-3.3774
N9090 X1.4939 Y-3.4059
N9095 X1.5326 Y-3.4321
N9100 X1.5727 Y-3.4559
N9105 X1.6142 Y-3.4773
N9110 X1.6569 Y-3.4961
N9115 X1.7008 Y-3.5123
N9120 X1.7455 Y-3.5257
N9125 X1.7909 Y-3.5365
N9130 X1.8369 Y-3.5446
N9135 X1.8833 Y-3.55
N9140 X1.9299 Y-3.5526
N9145 X1.9766 Y-3.5523
N9150 X2.0232 Y-3.5492
N9155 X2.0695 Y-3.5434
N9160 X2.1154 Y-3.535
N9165 X2.1608 Y-3.5238
N9170 X2.2054 Y-3.51
N9175 X2.2491 Y-3.4936
N9180 X2.2917 Y-3.4746
N9185 X2.3332 Y-3.4532
N9190 X2.3734 Y-3.4294
N9195 X2.4121 Y-3.4034
N9200 X2.4493 Y-3.375
N9205 X2.4846 Y-3.3445
N9210 X2.5182 Y-3.3121
N9215 X2.5498 Y-3.2777
N9220 X2.5794 Y-3.2416
N9225 X2.6069 Y-3.2039
N9230 X2.6321 Y-3.1646
N9235 X2.655 Y-3.1239
N9240 X2.6754 Y-3.0819
N9245 X2.6934 Y-3.0388
N9250 X2.7089 Y-2.9947
N9255 X2.7219 Y-2.9499
N9260 X2.7322 Y-2.9044
N9265 X2.7398 Y-2.8583
N9270 X2.7447 Y-2.8119
N9275 X2.747 Y-2.7652
N9280 X2.7466 Y-2.7185
N9285 X2.7436 Y-2.6719
N9290 X2.7378 Y-2.6256
N9295 X2.7293 Y-2.5797
N9300 X2.7181 Y-2.5344
N9305 X2.7044 Y-2.4897
N9310 X2.6882 Y-2.4459
N9315 X2.6696 Y-2.4031
N9320 X2.6484 Y-2.3615
N9325 X2.6248 Y-2.3212
N9330 X2.5989 Y-2.2824
N9335 X2.5709 Y-2.245
N9340 X2.5408 Y-2.2094
N9345 X2.5087 Y-2.1754
N9350 X2.4746 Y-2.1435
N9355 X2.4388 Y-2.1135
N9360 X2.4013 Y-2.0857
N9365 X2.3623 Y-2.0601
N9370 X2.3218 Y-2.0368
N9375 X2.2801 Y-2.0157
N9380 X2.2373 Y-1.9972
N9385 X2.1934 Y-1.9812
N9390 X2.1487 Y-1.9677
N9395 X2.1033 Y-1.9567
N9400 X2.0574 Y-1.9482
N9405 X2.0111 Y-1.9423
N9410 X1.9645 Y-1.9389
N9415 X1.9179 Y-1.9382
N9420 X1.8712 Y-1.9399
N9425 X1.8247 Y-1.9442
N9430 X1.7785 Y-1.9509
N9435 X1.7327 Y-1.96
N9440 X1.6874 Y-1.9715
N9445 X1.6429 Y-1.9854
N9450 X1.5991 Y-2.0017
N9455 X1.5563 Y-2.0203
N9460 X1.5144 Y-2.041
N9465 X1.4737 Y-2.0639
N9470 X1.4343 Y-2.0889
N9475 X1.3962 Y-2.1159
N9480 X1.3597 Y-2.145
N9485 X1.3248 Y-2.176
N9490 X1.2915 Y-2.2087
N9495 X1.26 Y-2.2432
N9500 X1.2304 Y-2.2793
N9505 X1.2027 Y-2.3169
N9510 X1.1772 Y-2.356
N9515 X1.1539 Y-2.3965
N9520 X1.1328 Y-2.4381
N9525 X1.1139 Y-2.4808
N9530 X1.0973 Y-2.5245
N9535 X1.0831 Y-2.5689
N9540 X1.0714 Y-2.6142
N9545 X1.0622 Y-2.6599
N9550 X1.0556 Y-2.7061
N9555 X1.0514 Y-2.7526
N9560 X1.0496 Y-2.7993
N9565 X1.0504 Y-2.846
N9570 X1.0538 Y-2.8926
N9575 X1.0597 Y-2.9389
N9580 X1.0681 Y-2.9848
N9585 X1.079 Y-3.0302
N9590 X1.0922 Y-3.075
N9595 X1.1078 Y-3.119
N9600 X1.1257 Y-3.1621
N9605 X1.146 Y-3.2042
N9610 X1.1684 Y-3.2451
N9615 X1.193 Y-3.2848
N9620 X1.2197 Y-3.3232
N9625 X1.2483 Y-3.3601
N9630 X1.2787 Y-3.3954
N9635 X1.3111 Y-3.4291
N9640 X1.3452 Y-3.461
N9645 X1.3809 Y-3.4911
N9650 X1.4181 Y-3.5193
N9655 X1.4568 Y-3.5455
N9660 X1.4967 Y-3.5697
N9665 X1.5378 Y-3.5919
N9670 X1.58 Y-3.6118
N9675 X1.6232 Y-3.6295
N9680 X1.6673 Y-3.645
N9685 X1.7121 Y-3.6582
N9690 X1.7574 Y-3.6691
N9695 X1.8033 Y-3.6778
N9700 X1.8091 Y-3.6786
N9705 X1.8554 Y-3.6846
N9710 X1.902 Y-3.6883
N9715 X1.9486 Y-3.6895
N9720 X1.9953 Y-3.6883
N9725 X2.0419 Y-3.6848
N9730 X2.0882 Y-3.679
N9735 X2.1342 Y-3.6708
N9740 X2.1797 Y-3.6604
N9745 X2.2246 Y-3.6477
N9750 X2.2688 Y-3.6327
N9755 X2.3122 Y-3.6155
N9760 X2.3547 Y-3.5962
N9765 X2.3962 Y-3.5748
N9770 X2.4366 Y-3.5514
N9775 X2.4758 Y-3.526
N9780 X2.5136 Y-3.4986
N9785 X2.55 Y-3.4693
N9790 X2.5849 Y-3.4383
N9795 X2.6183 Y-3.4056
N9800 X2.6499 Y-3.3713
N9805 X2.6799 Y-3.3355
N9810 X2.7081 Y-3.2983
N9815 X2.7343 Y-3.2597
N9820 X2.7586 Y-3.2198
N9825 X2.7808 Y-3.1787
N9830 X2.801 Y-3.1366
N9835 X2.8191 Y-3.0936
N9840 X2.8351 Y-3.0497
N9845 X2.849 Y-3.0051
N9850 X2.8605 Y-2.9599
N9855 X2.8697 Y-2.9141
N9860 X2.8715 Y-2.9026
N9865 X2.8731 Y-2.891
N9870 X2.8791 Y-2.8447
N9875 X2.8828 Y-2.7982
N9880 X2.8841 Y-2.7515
N9885 X2.8831 Y-2.7048
N9890 X2.8798 Y-2.6582
N9895 X2.8742 Y-2.6119
N9900 X2.8663 Y-2.5658
N9905 X2.8562 Y-2.5203
N9910 X2.8438 Y-2.4752
N9915 X2.8292 Y-2.4309
N9920 X2.8124 Y-2.3873
N9925 X2.7934 Y-2.3447
N9930 X2.7724 Y-2.303
N9935 X2.7494 Y-2.2623
N9940 X2.7245 Y-2.2229
N9945 X2.6976 Y-2.1847
N9950 X2.6688 Y-2.148
N9955 X2.6382 Y-2.1127
N9960 X2.6059 Y-2.0789
N9965 X2.5721 Y-2.0468
N9970 X2.5367 Y-2.0163
N9975 X2.4998 Y-1.9876
N9980 X2.4616 Y-1.9608
N9985 X2.4221 Y-1.936
N9990 X2.3814 Y-1.9131
N9995 X2.3396 Y-1.8923
N10000 X2.2968 Y-1.8734
N10005 X2.2533 Y-1.8567
N10010 X2.2089 Y-1.8421
N10015 X2.1639 Y-1.8297
N10020 X2.1183 Y-1.8195
N10025 X2.0953 Y-1.8155
N10030 X2.0838 Y-1.8138
N10035 X2.0376 Y-1.8072
N10040 X1.9911 Y-1.8029
N10045 X1.9444 Y-1.8009
N10050 X1.8977 Y-1.801
N10055 X1.8511 Y-1.8034
N10060 X1.8046 Y-1.8079
N10065 X1.7584 Y-1.8145
N10070 X1.7125 Y-1.8233
N10075 X1.6671 Y-1.8341
N10080 X1.6614 Y-1.8353
N10085 X1.6555 Y-1.8366
N10090 X1.6497 Y-1.8379
N10095 X1.6439 Y-1.8393
N10100 X1.638 Y-1.8407
N10105 X1.6321 Y-1.8422
N10110 X1.626 Y-1.8438
N10115 X1.6196 Y-1.8455
N10120 X1.6132 Y-1.8473
N10125 X1.6074 Y-1.8489
N10130 X1.6017 Y-1.8506
N10135 X1.5959 Y-1.8523
N10140 X1.5901 Y-1.8541
N10145 X1.584 Y-1.856
N10150 X1.5778 Y-1.858
N10155 X1.5713 Y-1.8602
N10160 X1.5645 Y-1.8625
N10165 X1.5584 Y-1.8646
N10170 X1.5527 Y-1.8666
N10175 X1.547 Y-1.8687
N10180 X1.5411 Y-1.8709
N10185 X1.5349 Y-1.8733
N10190 X1.5286 Y-1.8757
N10195 X1.5219 Y-1.8784
N10200 X1.5151 Y-1.8812
N10205 X1.5086 Y-1.8838
N10210 X1.503 Y-1.8862
N10215 X1.4973 Y-1.8887
N10220 X1.4913 Y-1.8913
N10225 X1.4852 Y-1.8941
N10230 X1.4788 Y-1.897
N10235 X1.4722 Y-1.9001
N10240 X1.4653 Y-1.9034
N10245 X1.4589 Y-1.9065
N10250 X1.4533 Y-1.9093
N10255 X1.4476 Y-1.9122
N10260 X1.4417 Y-1.9152
N10265 X1.4356 Y-1.9184
N10270 X1.4292 Y-1.9218
N10275 X1.4226 Y-1.9254
N10280 X1.4157 Y-1.9292
N10285 X1.4096 Y-1.9326
N10290 X1.4041 Y-1.9357
N10295 X1.3984 Y-1.939
N10300 X1.3925 Y-1.9425
N10305 X1.3864 Y-1.9462
N10310 X1.3801 Y-1.95
N10315 X1.3735 Y-1.9541
N10320 X1.3668 Y-1.9583
N10325 X1.3612 Y-1.9619
N10330 X1.3557 Y-1.9655
N10335 X1.35 Y-1.9693
N10340 X1.3442 Y-1.9732
N10345 X1.3381 Y-1.9774
N10350 X1.3317 Y-1.9818
N10355 X1.3251 Y-1.9864
N10360 X1.3191 Y-1.9907
N10365 X1.3138 Y-1.9946
N10370 X1.3084 Y-1.9986
N10375 X1.3027 Y-2.0028
N10380 X1.2969 Y-2.0072
N10385 X1.2909 Y-2.0119
N10390 X1.2846 Y-2.0169
N10395 X1.2783 Y-2.0219
N10400 X1.273 Y-2.0262
N10405 X1.2678 Y-2.0304
N10410 X1.2624 Y-2.0349
N10415 X1.2569 Y-2.0396
N10420 X1.2511 Y-2.0445
N10425 X1.2451 Y-2.0497
N10430 X1.239 Y-2.0552
N10435 X1.2335 Y-2.0601
N10440 X1.2286 Y-2.0645
N10445 X1.2236 Y-2.0692
N10450 X1.2184 Y-2.0741
N10455 X1.2129 Y-2.0792
N10460 X1.2073 Y-2.0846
N10465 X1.2015 Y-2.0904
N10470 X1.1959 Y-2.0959
N10475 X1.1912 Y-2.1007
N10480 X1.1865 Y-2.1055
N10485 X1.1817 Y-2.1105
N10490 X1.1766 Y-2.1158
N10495 X1.1714 Y-2.1214
N10500 X1.1661 Y-2.1272
N10505 X1.1605 Y-2.1333
N10510 X1.1558 Y-2.1386
N10515 X1.1514 Y-2.1435
N10520 X1.1469 Y-2.1487
N10525 X1.1423 Y-2.1542
N10530 X1.1375 Y-2.1599
N10535 X1.1325 Y-2.1659
N10540 X1.1273 Y-2.1722
N10545 X1.1225 Y-2.1782
N10550 X1.1183 Y-2.1834
N10555 X1.1142 Y-2.1888
N10560 X1.1098 Y-2.1944
N10565 X1.1054 Y-2.2003
N10570 X1.1008 Y-2.2064
N10575 X1.096 Y-2.2129
N10580 X1.0912 Y-2.2195
N10585 X1.0872 Y-2.2251
N10590 X1.0834 Y-2.2306
N10595 X1.0794 Y-2.2364
N10600 X1.0753 Y-2.2424
N10605 X1.0711 Y-2.2487
N10610 X1.0667 Y-2.2554
N10615 X1.0622 Y-2.2623
N10620 X1.0582 Y-2.2685
N10625 X1.0547 Y-2.2742
N10630 X1.051 Y-2.28
N10635 X1.0473 Y-2.2862
N10640 X1.0434 Y-2.2926
N10645 X1.0395 Y-2.2994
N10650 X1.0353 Y-2.3065
N10655 X1.0314 Y-2.3134
N10660 X1.0282 Y-2.3193
N10665 X1.0249 Y-2.3252
N10670 X1.0215 Y-2.3315
N10675 X1.0181 Y-2.338
N10680 X1.0145 Y-2.3449
N10685 X1.0108 Y-2.3521
N10690 X1.0071 Y-2.3594
N10695 X1.004 Y-2.3657
N10700 X1.0011 Y-2.3716
N10705 X0.9982 Y-2.3779
N10710 X0.9951 Y-2.3844
N10715 X0.992 Y-2.3913
N10720 X0.9888 Y-2.3984
N10725 X0.9855 Y-2.406
N10730 X0.9825 Y-2.4129
N10735 X0.9799 Y-2.419
N10740 X0.9773 Y-2.4252
N10745 X0.9747 Y-2.4318
N10750 X0.972 Y-2.4386
N10755 X0.9692 Y-2.4458
N10760 X0.9664 Y-2.4533
N10765 X0.9635 Y-2.4609
N10770 X0.9612 Y-2.4673
N10775 X0.959 Y-2.4736
N10780 X0.9567 Y-2.4801
N10785 X0.9544 Y-2.487
N10790 X0.952 Y-2.4942
N10795 X0.9496 Y-2.5017
N10800 X0.9471 Y-2.5095
N10805 X0.945 Y-2.5166
N10810 X0.9421 Y-2.5262
N10815 X0.9402 Y-2.5329
N10820 X0.9383 Y-2.54
N10825 X0.9363 Y-2.5473
N10830 X0.9343 Y-2.555
N10835 X0.9322 Y-2.563
N10840 X0.9305 Y-2.57
N10845 X0.929 Y-2.5765
N10850 X0.9274 Y-2.5833
N10855 X0.9258 Y-2.5903
N10860 X0.9243 Y-2.5976
N10865 X0.9227 Y-2.6053
N10870 X0.921 Y-2.6134
N10875 X0.9196 Y-2.621
N10880 X0.9183 Y-2.6276
N10885 X0.9172 Y-2.6344
N10890 X0.916 Y-2.6414
N10895 X0.9148 Y-2.6487
N10900 X0.9136 Y-2.6564
N10905 X0.9124 Y-2.6644
N10910 X0.9113 Y-2.6725
N10915 X0.9104 Y-2.6793
N10920 X0.9095 Y-2.686
N10925 X0.9087 Y-2.6929
N10930 X0.9079 Y-2.7001
N10935 X0.9072 Y-2.7077
N10940 X0.9064 Y-2.7156
N10945 X0.9057 Y-2.7238
N10950 X0.9051 Y-2.7312
N10955 X0.9046 Y-2.7377
N10960 X0.9042 Y-2.7445
N10965 X0.9037 Y-2.7516
N10970 X0.9034 Y-2.759
N10975 X0.903 Y-2.7668
N10980 X0.9027 Y-2.7749
N10985 X0.9025 Y-2.7828
N10990 X0.9024 Y-2.7896
N10995 X0.9023 Y-2.7963
N11000 X0.9022 Y-2.8033
N11005 Y-2.8106
N11010 X0.9023 Y-2.8182
N11015 X0.9024 Y-2.8261
N11020 X0.9026 Y-2.8344
N11025 X0.9028 Y-2.8415
N11030 X0.9031 Y-2.8482
N11035 X0.9034 Y-2.8551
N11040 X0.9037 Y-2.8623
N11045 X0.9042 Y-2.8698
N11050 X0.9047 Y-2.8777
N11055 X0.9053 Y-2.8859
N11060 X0.9059 Y-2.8936
N11065 X0.9065 Y-2.9002
N11070 X0.9072 Y-2.9071
N11075 X0.9079 Y-2.9142
N11080 X0.9087 Y-2.9216
N11085 X0.9097 Y-2.9294
N11090 X0.9107 Y-2.9375
N11095 X0.9118 Y-2.9455
N11100 X0.9127 Y-2.9523
N11105 X0.9137 Y-2.959
N11110 X0.9148 Y-2.9661
N11115 X0.916 Y-2.9734
N11120 X0.9173 Y-2.981
N11125 X0.9187 Y-2.989
N11130 X0.9203 Y-2.9972
N11135 X0.9216 Y-3.0042
N11140 X0.9229 Y-3.0108
N11145 X0.9244 Y-3.0177
N11150 X0.9259 Y-3.0248
N11155 X0.9276 Y-3.0323
N11160 X0.9294 Y-3.0401
N11165 X0.9314 Y-3.0482
N11170 X0.9332 Y-3.0556
N11175 X0.9348 Y-3.062
N11180 X0.9366 Y-3.0687
N11185 X0.9385 Y-3.0756
N11190 X0.9405 Y-3.0828
N11195 X0.9426 Y-3.0903
N11200 X0.9449 Y-3.0982
N11205 X0.9473 Y-3.1059
N11210 X0.9493 Y-3.1124
N11215 X0.9513 Y-3.1188
N11220 X0.9535 Y-3.1256
N11225 X0.9559 Y-3.1325
N11230 X0.9584 Y-3.1398
N11235 X0.9611 Y-3.1474
N11240 X0.9639 Y-3.1553
N11245 X0.9663 Y-3.1619
N11250 X0.9687 Y-3.1682
N11255 X0.9712 Y-3.1748
N11260 X0.9739 Y-3.1816
N11265 X0.9767 Y-3.1887
N11270 X0.9798 Y-3.1961
N11275 X0.983 Y-3.2038
N11280 X0.986 Y-3.2107
N11285 X0.9887 Y-3.2169
N11290 X0.9915 Y-3.2233
N11295 X0.9945 Y-3.2299
N11300 X0.9977 Y-3.2368
N11305 X1.0011 Y-3.244
N11310 X1.0047 Y-3.2515
N11315 X1.0082 Y-3.2586
N11320 X1.0112 Y-3.2647
N11325 X1.0144 Y-3.2709
N11330 X1.0177 Y-3.2773
N11335 X1.0212 Y-3.284
N11340 X1.025 Y-3.291
N11345 X1.029 Y-3.2983
N11350 X1.0329 Y-3.3055
N11355 X1.0363 Y-3.3115
N11360 X1.0398 Y-3.3175
N11365 X1.0434 Y-3.3238
N11370 X1.0473 Y-3.3302
N11375 X1.0514 Y-3.337
N11380 X1.0557 Y-3.344
N11385 X1.0601 Y-3.3511
N11390 X1.0639 Y-3.3571
N11395 X1.0676 Y-3.3628
N11400 X1.0715 Y-3.3688
N11405 X1.1002 Y-3.4057
N11410 X1.1299 Y-3.4416
N11415 X1.1609 Y-3.4766
N11420 X1.1932 Y-3.5103
N11425 X1.2269 Y-3.5427
N11430 X1.2618 Y-3.5736
N11435 X1.298 Y-3.6031
N11440 X1.3355 Y-3.631
N11445 X1.3741 Y-3.6573
N11450 X1.4138 Y-3.6819
N11455 X1.4545 Y-3.7047
N11460 X1.4962 Y-3.7257
N11465 X1.5388 Y-3.7448
N11470 X1.5822 Y-3.7619
N11475 X1.6264 Y-3.7772
N11480 X1.6711 Y-3.7905
N11485 X1.6825 Y-3.7933
N11490 X1.6933 Y-3.7976
N11495 X1.7035 Y-3.8033
N11500 X1.7408 Y-3.8315
N11505 X1.7664 Y-3.8705
N11510 X1.7904 Y-3.9099
N11515 X1.8059 Y-3.9313
N11520 X1.8157 Y-3.9427
N11525 X1.8266 Y-3.9536
N11530 X1.8345 Y-3.9603
N11535 X1.8436 Y-3.9668
N11540 X1.8495 Y-3.9704
N11545 X1.8605 Y-3.9749
N11550 X1.8721 Y-3.978
N11555 X1.8839 Y-3.9794
N11560 X1.8856 Y-3.9795
N11565 X1.8871
N11570 X1.9194 Y-3.9458
N11575 X1.9571 Y-3.9183
N11580 X1.9978 Y-3.8954
N11585 X2.0402 Y-3.8759
N11590 X2.0836 Y-3.8585
N11595 X2.1274 Y-3.8423
N11600 X2.1713 Y-3.8266
N11605 X2.2152 Y-3.8108
N11610 X2.259 Y-3.7944
N11615 X2.3023 Y-3.7771
N11620 X2.3453 Y-3.7588
N11625 X2.3876 Y-3.7391
N11630 X2.4293 Y-3.718
N11635 X2.4701 Y-3.6953
N11640 X2.51 Y-3.6711
N11645 X2.549 Y-3.6454
N11650 X2.5869 Y-3.6181
N11655 X2.6236 Y-3.5893
N11660 X2.6591 Y-3.559
N11665 X2.6933 Y-3.5272
N11670 X2.7261 Y-3.4939
N11675 X2.7575 Y-3.4593
N11680 X2.7873 Y-3.4234
N11685 X2.8156 Y-3.3863
N11690 X2.8422 Y-3.3479
N11695 X2.8672 Y-3.3085
N11700 X2.8905 Y-3.268
N11705 X2.912 Y-3.2266
N11710 X2.9316 Y-3.1842
N11715 X2.9495 Y-3.1411
N11720 X2.9654 Y-3.0972
N11725 X2.9795 Y-3.0526
N11730 X2.9855 Y-3.0301
N11735 X2.9869 Y-3.0244
N11740 X2.9896 Y-3.0131
N11745 X2.9938 Y-3.0022
N11750 X2.9995 Y-2.992
N11755 X3.0273 Y-2.9544
N11760 X3.065 Y-2.9269
N11765 X3.1035 Y-2.9006
N11770 X3.1218 Y-2.886
N11775 X3.1337 Y-2.8751
N11780 X3.1445 Y-2.8636
N11785 X3.1514 Y-2.8549
N11790 X3.1518 Y-2.8543
N11795 X3.1594 Y-2.8405
N11800 X3.1643 Y-2.8256
N11805 X3.1666 Y-2.8101
N11810 Y-2.8085
N11815 X3.1667 Y-2.807
N11820 X3.1344 Y-2.7732
N11825 X3.1081 Y-2.7347
N11830 X3.0861 Y-2.6935
N11835 X3.0672 Y-2.6508
N11840 X3.0503 Y-2.6072
N11845 X3.0345 Y-2.5633
N11850 X3.019 Y-2.5192
N11855 X3.0034 Y-2.4753
N11860 X2.987 Y-2.4315
N11865 X2.9698 Y-2.3881
N11870 X2.9515 Y-2.3452
N11875 X2.9319 Y-2.3028
N11880 X2.9108 Y-2.2611
N11885 X2.8882 Y-2.2203
N11890 X2.864 Y-2.1803
N11895 X2.8383 Y-2.1413
N11900 X2.8111 Y-2.1034
N11905 X2.7823 Y-2.0667
N11910 X2.752 Y-2.0311
N11915 X2.7203 Y-1.9968
N11920 X2.6872 Y-1.9639
N11925 X2.6527 Y-1.9325
N11930 X2.6168 Y-1.9026
N11935 X2.5798 Y-1.8742
N11940 X2.5415 Y-1.8474
N11945 X2.5021 Y-1.8223
N11950 X2.4618 Y-1.7989
N11955 X2.4204 Y-1.7771
N11960 X2.3782 Y-1.7572
N11965 X2.3351 Y-1.7392
N11970 X2.2913 Y-1.723
N11975 X2.2469 Y-1.7086
N11980 X2.2019 Y-1.6963
N11985 X2.162 Y-1.6719
N11990 X2.1308 Y-1.6372
N11995 X2.1032 Y-1.5996
N12000 X2.0891 Y-1.581
N12005 X2.0725 Y-1.561
N12010 X2.0601 Y-1.5484
N12015 X2.0499 Y-1.5395
N12020 X2.0479 Y-1.538
N12025 X2.0371 Y-1.5312
N12030 X2.0255 Y-1.5261
N12035 X2.0132 Y-1.5227
N12040 X2.0006 Y-1.5211
N12045 X1.9993 Y-1.521
N12050 X1.9963
N12055 X1.9617 Y-1.5524
N12060 X1.9226 Y-1.5778
N12065 X1.881 Y-1.599
N12070 X1.8379 Y-1.617
N12075 X1.7941 Y-1.633
N12080 X1.7497 Y-1.6477
N12085 X1.7051 Y-1.6616
N12090 X1.6605 Y-1.6754
N12095 X1.6161 Y-1.6897
N12100 X1.5719 Y-1.7047
N12105 X1.5281 Y-1.7209
N12110 X1.4848 Y-1.7384
N12115 X1.4421 Y-1.7573
N12120 X1.4001 Y-1.7777
N12125 X1.3589 Y-1.7996
N12130 X1.3185 Y-1.8231
N12135 X1.2791 Y-1.8482
N12140 X1.2407 Y-1.8747
N12145 X1.2034 Y-1.9028
N12150 X1.1673 Y-1.9324
N12155 X1.1324 Y-1.9634
N12160 X1.0987 Y-1.9957
N12165 X1.0664 Y-2.0295
N12170 X1.0355 Y-2.0644
N12175 X1.006 Y-2.1007
N12180 X0.978 Y-2.138
N12185 X0.9516 Y-2.1765
N12190 X0.9267 Y-2.216
N12195 X0.9035 Y-2.2565
N12200 X0.8819 Y-2.298
N12205 X0.8621 Y-2.3402
N12210 X0.844 Y-2.3832
N12215 X0.8276 Y-2.427
N12220 X0.813 Y-2.4713
N12225 X0.7926 Y-2.5133
N12230 X0.7643 Y-2.5505
N12235 X0.7341 Y-2.5861
N12240 X0.7292 Y-2.5925
N12245 X0.7224 Y-2.6027
N12250 X0.7171 Y-2.6138
N12255 X0.7134 Y-2.6256
N12260 X0.7114 Y-2.6377
N12265 X0.7109 Y-2.6432
N12270 X0.7085 Y-2.6882
N12275 Y-2.6942
N12280 X0.7183 Y-2.7398
N12285 X0.7282 Y-2.7854
N12290 X0.7371 Y-2.8313
N12295 X0.7456 Y-2.8772
N12300 X0.7542 Y-2.9231
N12305 X0.7634 Y-2.9689
N12310 X0.7735 Y-3.0144
N12315 X0.7848 Y-3.0598
N12320 X0.7973 Y-3.1047
N12325 X0.8113 Y-3.1493
N12330 X0.8268 Y-3.1933
N12335 X0.8438 Y-3.2368
N12340 X0.8624 Y-3.2796
N12345 X0.8826 Y-3.3217
N12350 X0.9048 Y-3.3628
N12355 X0.9289 Y-3.4028
N12360 X0.9547 Y-3.4417
N12365 X0.982 Y-3.4796
N12370 X1.0107 Y-3.5164
N12375 X1.0408 Y-3.5521
N12380 X1.0722 Y-3.5867
N12385 X1.1049 Y-3.62
N12390 X1.1389 Y-3.652
N12395 X1.174 Y-3.6828
N12400 X1.2103 Y-3.7122
N12405 X1.2476 Y-3.7403
N12410 X1.286 Y-3.7669
N12415 X1.3253 Y-3.792
N12420 X1.3656 Y-3.8156
N12425 X1.4069 Y-3.8375
N12430 X1.4489 Y-3.8578
N12435 X1.4917 Y-3.8765
N12440 X1.5315 Y-3.9009
N12445 X1.5463 Y-3.9122
N12450 X1.5555 Y-3.9184
N12455 X1.5654 Y-3.9233
N12460 X1.5759 Y-3.927
N12465 X1.5833 Y-3.929
N12470 X1.662 Y-3.9501
N12475 X1.6733 Y-3.9531
N12480 X1.6845 Y-3.9558
N12485 X1.7857 Y-3.9718
N12490 X1.797 Y-3.9733
N12495 X1.8194 Y-3.9756
N12500 X1.8307 Y-3.9766
N12505 X1.8839 Y-3.9794
N12510 X1.8855 Y-3.9795
N12515 X1.8856
N12520 X1.9319 Y-3.9819
N12525 X1.9431
N12530 X2.0443 Y-3.9766
N12535 X2.0556 Y-3.9756
N12540 X2.078 Y-3.9733
N12545 X2.0893 Y-3.9718
N12550 X2.1343 Y-3.9647
N12555 X2.18 Y-3.9551
N12560 X2.2256 Y-3.9453
N12565 X2.2707 Y-3.9332
N12570 X2.3152 Y-3.9191
N12575 X2.3591 Y-3.9032
N12580 X2.4024 Y-3.8857
N12585 X2.445 Y-3.8666
N12590 X2.4869 Y-3.8459
N12595 X2.528 Y-3.8238
N12600 X2.5683 Y-3.8002
N12605 X2.6077 Y-3.7752
N12610 X2.6462 Y-3.7488
N12615 X2.6837 Y-3.7209
N12620 X2.7201 Y-3.6916
N12625 X2.7553 Y-3.661
N12630 X2.7894 Y-3.6291
N12635 X2.8223 Y-3.596
N12640 X2.854 Y-3.5617
N12645 X2.8843 Y-3.5262
N12650 X2.9133 Y-3.4896
N12655 X2.9408 Y-3.4519
N12660 X2.9669 Y-3.4131
N12665 X2.9915 Y-3.3734
N12670 X3.0145 Y-3.3328
N12675 X3.036 Y-3.2913
N12680 X3.0559 Y-3.2491
N12685 X3.0742 Y-3.2061
N12690 X3.0913 Y-3.1755
N12695 X3.0932 Y-3.1718
N12700 X3.095 Y-3.168
N12705 X3.0966 Y-3.1642
N12710 X3.1012 Y-3.152
N12715 X3.1023 Y-3.1492
N12720 X3.1134 Y-3.1154
N12725 X3.1165 Y-3.1042
N12730 X3.1376 Y-3.0255
N12735 X3.1405 Y-3.0142
N12740 X3.1433 Y-3.003
N12745 X3.1593 Y-2.9018
N12750 X3.1608 Y-2.8905
N12755 X3.1631 Y-2.8681
N12760 X3.1641 Y-2.8568
N12765 X3.1666 Y-2.8101
N12770 Y-2.81
N12775 Y-2.8086
N12780 Y-2.8085
N12785 X3.1694 Y-2.7556
N12790 Y-2.7444
N12795 X3.1641 Y-2.6432
N12800 X3.1631 Y-2.6319
N12805 X3.1608 Y-2.6095
N12810 X3.1593 Y-2.5982
N12815 X3.1433 Y-2.497
N12820 X3.1405 Y-2.4858
N12825 X3.1376 Y-2.4745
N12830 X3.1286 Y-2.4408
N12835 X3.1143 Y-2.3964
N12840 X3.1003 Y-2.3518
N12845 X3.0843 Y-2.3079
N12850 X3.0665 Y-2.2648
N12855 X3.047 Y-2.2223
N12860 X3.0258 Y-2.1807
N12865 X3.0031 Y-2.1399
N12870 X2.9788 Y-2.1001
N12875 X2.9531 Y-2.0611
N12880 X2.9259 Y-2.0231
N12885 X2.8974 Y-1.9861
N12890 X2.8675 Y-1.9503
N12895 X2.8363 Y-1.9155
N12900 X2.8039 Y-1.882
N12905 X2.7701 Y-1.8497
N12910 X2.7352 Y-1.8187
N12915 X2.6991 Y-1.7891
N12920 X2.6619 Y-1.7608
N12925 X2.6237 Y-1.734
N12930 X2.5845 Y-1.7086
N12935 X2.5444 Y-1.6847
N12940 X2.5034 Y-1.6623
N12945 X2.4617 Y-1.6415
N12950 X2.4191 Y-1.6223
N12955 X2.377 Y-1.6022
N12960 X2.3727 Y-1.5997
N12965 X2.3683 Y-1.5975
N12970 X2.3638 Y-1.5956
N12975 X2.3395 Y-1.5863
N12980 X2.3367 Y-1.5852
N12985 X2.3029 Y-1.5741
N12990 X2.2917 Y-1.571
N12995 X2.213 Y-1.5499
N13000 X2.2017 Y-1.547
N13005 X2.1905 Y-1.5442
N13010 X2.0893 Y-1.5282
N13015 X2.078 Y-1.5267
N13020 X2.0556 Y-1.5244
N13025 X2.0443 Y-1.5234
N13030 X2.0006 Y-1.5211
N13035 X2.0005
N13040 X1.9994 Y-1.521
N13045 X1.9993
N13050 X1.9431 Y-1.5181
N13055 X1.9319
N13060 X1.8307 Y-1.5234
N13065 X1.8194 Y-1.5244
N13070 X1.797 Y-1.5267
N13075 X1.7857 Y-1.5282
N13080 X1.6845 Y-1.5442
N13085 X1.6733 Y-1.547
N13090 X1.662 Y-1.5499
N13095 X1.5833 Y-1.571
N13100 X1.5721 Y-1.5741
N13105 X1.5383 Y-1.5852
N13110 X1.5355 Y-1.5863
N13115 X1.4476 Y-1.62
N13120 X1.4371 Y-1.6244
N13125 X1.4259 Y-1.6296
N13130 X1.3565 Y-1.665
N13135 X1.3247 Y-1.6815
N13140 X1.3143 Y-1.6874
N13145 X1.2451 Y-1.7324
N13150 X1.2113 Y-1.7549
N13155 X1.201 Y-1.763
N13160 X1.1416 Y-1.8111
N13165 X1.1336 Y-1.8178
N13170 X1.1111 Y-1.8369
N13175 X1.1024 Y-1.8449
N13180 X1.0324 Y-1.9149
N13185 X1.0244 Y-1.9236
N13190 X1.0053 Y-1.9461
N13195 X0.9986 Y-1.9541
N13200 X0.9505 Y-2.0135
N13205 X0.9424 Y-2.0238
N13210 X0.9193 Y-2.0585
N13215 X0.8749 Y-2.1268
N13220 X0.869 Y-2.1372
N13225 X0.8515 Y-2.1709
N13230 X0.8171 Y-2.2384
N13235 X0.8119 Y-2.2496
N13240 X0.8075 Y-2.2601
N13245 X0.7738 Y-2.348
N13250 X0.7727 Y-2.3508
N13255 X0.7616 Y-2.3846
N13260 X0.7585 Y-2.3958
N13265 X0.7374 Y-2.4745
N13270 X0.7345 Y-2.4858
N13275 X0.7317 Y-2.497
N13280 X0.7157 Y-2.5982
N13285 X0.7142 Y-2.6095
N13290 X0.7119 Y-2.6319
N13295 X0.7114 Y-2.6377
N13300 G3 X0.7127 Y-2.65 I0.0374 J-0.0022
N13305 G2 X0.7119 Y-2.6727 I-0.0361 J-0.0101
N13310 G3 X0.7085 Y-2.6882 I0.0587 J-0.0209
N13315 G1 X0.7056 Y-2.7444
N13320 Y-2.7556
N13325 X0.7109 Y-2.8568
N13330 X0.7119 Y-2.8681
N13335 X0.7142 Y-2.8905
N13340 X0.7157 Y-2.9018
N13345 X0.7317 Y-3.003
N13350 X0.7345 Y-3.0142
N13355 X0.7374 Y-3.0255
N13360 X0.7585 Y-3.1042
N13365 X0.7616 Y-3.1154
N13370 X0.7727 Y-3.1492
N13375 X0.7738 Y-3.152
N13380 X0.8075 Y-3.2399
N13385 X0.8119 Y-3.2504
N13390 X0.8171 Y-3.2616
N13395 X0.8525 Y-3.331
N13400 X0.869 Y-3.3628
N13405 X0.8749 Y-3.3732
N13410 X0.9199 Y-3.4424
N13415 X0.9424 Y-3.4762
N13420 X0.9505 Y-3.4865
N13425 X0.9986 Y-3.5459
N13430 X1.0053 Y-3.5539
N13435 X1.0244 Y-3.5764
N13440 X1.0324 Y-3.5851
N13445 X1.1024 Y-3.6551
N13450 X1.1111 Y-3.6631
N13455 X1.1336 Y-3.6822
N13460 X1.1416 Y-3.6889
N13465 X1.201 Y-3.737
N13470 X1.2113 Y-3.7451
N13475 X1.246 Y-3.7682
N13480 X1.3143 Y-3.8126
N13485 X1.3247 Y-3.8185
N13490 X1.3584 Y-3.836
N13495 X1.4259 Y-3.8704
N13500 X1.4371 Y-3.8756
N13505 X1.4476 Y-3.88
N13510 X1.5355 Y-3.9137
N13515 X1.5383 Y-3.9148
N13520 X1.5721 Y-3.9259
N13525 X1.5759 Y-3.927
N13530 G3 X1.5985 Y-3.9234 Z-0.1968 I0.007 J0.0292
N13535 G2 X1.6294 Y-3.9062 Z-0.192 I0.232 J-0.3797
N13540 X1.7047 Y-3.8763 I0.2012 J-0.3969
N13545 X1.7179 Y-3.8748 I0.0106 J-0.036
N13550 G1 X2. Y-3.894
N13555 G2 X2.0128 Y-3.8972 I-0.0025 J-0.0374
N13560 X2.0839 Y-3.9373 I-0.1823 J-0.4059
N13565 X2.1066 Y-3.9541 Z-0.1958 I-0.2534 J-0.3658
N13570 G1 X2.1117 Y-3.9582 Z-0.1967 F20.
N13575 G3 X2.1343 Y-3.9647 Z-0.2 I0.019 J0.0233
N13580 G1 X2.1905 Y-3.9558 F50.
N13585 X2.2017 Y-3.9531
N13590 X2.213 Y-3.9501
N13595 X2.2917 Y-3.929
N13600 X2.3029 Y-3.9259
N13605 X2.3367 Y-3.9148
N13610 X2.3395 Y-3.9137
N13615 X2.4274 Y-3.88
N13620 X2.4379 Y-3.8756
N13625 X2.4491 Y-3.8704
N13630 X2.5185 Y-3.835
N13635 X2.5503 Y-3.8185
N13640 X2.5607 Y-3.8126
N13645 X2.6299 Y-3.7676
N13650 X2.6637 Y-3.7451
N13655 X2.674 Y-3.737
N13660 X2.7334 Y-3.6889
N13665 X2.7414 Y-3.6822
N13670 X2.7639 Y-3.6631
N13675 X2.7726 Y-3.6551
N13680 X2.8426 Y-3.5851
N13685 X2.8506 Y-3.5764
N13690 X2.8697 Y-3.5539
N13695 X2.8764 Y-3.5459
N13700 X2.9245 Y-3.4865
N13705 X2.9326 Y-3.4762
N13710 X2.9557 Y-3.4415
N13715 X3.0001 Y-3.3732
N13720 X3.006 Y-3.3628
N13725 X3.0235 Y-3.3291
N13730 X3.0579 Y-3.2616
N13735 X3.0631 Y-3.2504
N13740 X3.0675 Y-3.2399
N13745 X3.0966 Y-3.1642
N13750 G3 X3.0952 Y-3.1413 Z-0.1968 I-0.0284 J0.0098
N13755 G2 X3.0805 Y-3.1091 Z-0.192 I0.639 J0.3116
N13760 X3.0508 Y-3.0256 I0.6536 J0.2795
N13765 X3.0494 Y-3.0136 I0.036 J0.0103
N13770 G1 X3.0682 Y-2.5862
N13775 G2 X3.0706 Y-2.5743 I0.0375 J-0.0016
N13780 X3.1074 Y-2.4941 I0.6635 J-0.2553
N13785 X3.1212 Y-2.4695 Z-0.1958 I0.6268 J-0.3355
N13790 G1 X3.1251 Y-2.463 Z-0.1969 F20.
N13795 G3 X3.1286 Y-2.4408 Z-0.2 I-0.0257 J0.0155
N13800 G1 X3.1165 Y-2.3958 F50.
N13805 X3.1134 Y-2.3846
N13810 X3.1023 Y-2.3508
N13815 X3.1012 Y-2.348
N13820 X3.0675 Y-2.2601
N13825 X3.0631 Y-2.2496
N13830 X3.0579 Y-2.2384
N13835 X3.0225 Y-2.169
N13840 X3.006 Y-2.1372
N13845 X3.0001 Y-2.1268
N13850 X2.9551 Y-2.0576
N13855 X2.9326 Y-2.0238
N13860 X2.9245 Y-2.0135
N13865 X2.8764 Y-1.9541
N13870 X2.8697 Y-1.9461
N13875 X2.8506 Y-1.9236
N13880 X2.8426 Y-1.9149
N13885 X2.7726 Y-1.8449
N13890 X2.7639 Y-1.8369
N13895 X2.7414 Y-1.8178
N13900 X2.7334 Y-1.8111
N13905 X2.674 Y-1.763
N13910 X2.6637 Y-1.7549
N13915 X2.629 Y-1.7318
N13920 X2.5607 Y-1.6874
N13925 X2.5503 Y-1.6815
N13930 X2.5166 Y-1.664
N13935 X2.4491 Y-1.6296
N13940 X2.4379 Y-1.6244
N13945 X2.4274 Y-1.62
N13950 X2.3638 Y-1.5956
N13955 X2.3602 Y-1.5949 Z-0.1998
N13960 X2.3566 Y-1.5942 Z-0.1991
N13965 X2.3532 Y-1.5935 Z-0.198
N13970 X2.3516 Z-0.1974
N13975 X2.3486 Y-1.5939 Z-0.1959
N13980 X2.3458 Y-1.5944 Z-0.194
N13985 X2.3432 Y-1.5947 Z-0.1919
N13990 X2.3409 Y-1.5951 Z-0.1894
N13995 X2.3388 Y-1.5959 Z-0.1865
N14000 X2.337 Y-1.5967 Z-0.1833
N14005 X2.3356 Y-1.5972 Z-0.18
N14010 X2.3346 Y-1.5976 Z-0.1764
N14015 X2.334 Y-1.5979 Z-0.1728
N14020 X2.3338 Y-1.598 Z-0.1691
N14025 G0 Z0.2
N14030 G1 X1.9328 Y-2.6828 F300.
N14035 G0 Z-0.225
N14040 G1 Z-0.2625 F20.
N14045 X1.9329 Y-2.683 Z-0.267
N14050 X1.9333 Y-2.6838 Z-0.2715
N14055 X1.9338 Y-2.685 Z-0.2758
N14060 X1.9346 Y-2.6867 Z-0.2799
N14065 X1.9356 Y-2.6888 Z-0.2838
N14070 X1.9367 Y-2.6914 Z-0.2874
N14075 X1.9381 Y-2.6943 Z-0.2906
N14080 X1.9396 Y-2.6975 Z-0.2934
N14085 X1.9412 Y-2.701 Z-0.2957
N14090 X1.9429 Y-2.7048 Z-0.2976
N14095 X1.9447 Y-2.7087 Z-0.2989
N14100 X1.9466 Y-2.7128 Z-0.2997
N14105 X1.9484 Y-2.7169 Z-0.3
N14110 G3 X2.0541 Y-2.894 I0.8703 J0.399
N14115 G1 X2.0579 Y-2.8987 F50.
N14120 X2.0635 Y-2.9007
N14125 X2.0694 Y-2.902
N14130 X2.0753 Y-2.9027
N14135 X2.0813
N14140 X2.0886 Y-2.902
N14145 X2.0971 Y-2.9006
N14150 X2.1035 Y-2.899
N14155 X2.1113 Y-2.8963
N14160 X2.1206 Y-2.8923
N14165 X2.1307 Y-2.8869
N14170 X2.1385 Y-2.8819
N14175 X2.1475 Y-2.8751
N14180 X2.1578 Y-2.8659
N14185 X2.1665 Y-2.8567
N14190 X2.1745 Y-2.8469
N14195 X2.1831 Y-2.8343
N14200 X2.1911 Y-2.8203
N14205 X2.1971 Y-2.8076
N14210 X2.2031 Y-2.7917
N14215 X2.2082 Y-2.7739
N14220 X2.2112 Y-2.7586
N14225 X2.2135 Y-2.7399
N14230 X2.2142 Y-2.7202
N14235 X2.2135 Y-2.7028
N14240 X2.2109 Y-2.6819
N14245 X2.2069 Y-2.6625
N14250 X2.2015 Y-2.644
N14255 X2.1931 Y-2.622
N14260 X2.1851 Y-2.6051
N14265 X2.1743 Y-2.5865
N14270 X2.1611 Y-2.5673
N14275 X2.1486 Y-2.5521
N14280 X2.1318 Y-2.5347
N14285 X2.1161 Y-2.5207
N14290 X2.0985 Y-2.5075
N14295 X2.0775 Y-2.4942
N14300 X2.0596 Y-2.4848
N14305 X2.0369 Y-2.4751
N14310 X2.016 Y-2.4681
N14315 X1.9942 Y-2.4627
N14320 X1.9691 Y-2.4586
N14325 X1.9486 Y-2.4569
N14330 X1.9233
N14335 X1.9013 Y-2.4586
N14340 X1.8786 Y-2.4622
N14345 X1.854 Y-2.4682
N14350 X1.834 Y-2.4749
N14355 X1.8101 Y-2.4849
N14360 X1.791 Y-2.4949
N14365 X1.771 Y-2.5075
N14370 X1.751 Y-2.5224
N14375 X1.7348 Y-2.5366
N14380 X1.7164 Y-2.5557
N14385 X1.7031 Y-2.5718
N14390 X1.6893 Y-2.5916
N14395 X1.677 Y-2.6127
N14400 X1.6675 Y-2.6325
N14405 X1.6578 Y-2.6578
N14410 X1.652 Y-2.6772
N14415 X1.647 Y-2.7014
N14420 X1.644 Y-2.7248
N14425 X1.6429 Y-2.7474
N14430 X1.6438 Y-2.7739
N14435 X1.6462 Y-2.7944
N14440 X1.6511 Y-2.8192
N14445 X1.6573 Y-2.8412
N14450 X1.6654 Y-2.8629
N14455 X1.6763 Y-2.8863
N14460 X1.6867 Y-2.9047
N14465 X1.7013 Y-2.9261
N14470 X1.7151 Y-2.9433
N14475 X1.7313 Y-2.9604
N14480 X1.75 Y-2.9773
N14485 X1.7672 Y-2.9904
N14490 X1.7895 Y-3.0048
N14495 X1.8081 Y-3.0148
N14500 X1.8302 Y-3.0244
N14505 X1.8534 Y-3.0324
N14510 X1.8748 Y-3.0379
N14515 X1.9015 Y-3.0425
N14520 X1.9439 Y-3.0463
N14525 X1.9906 Y-3.0468
N14530 X2.0272 Y-3.0444
N14535 X2.0594 Y-3.0397
N14540 X2.0876 Y-3.0332
N14545 X2.1141 Y-3.0248
N14550 X2.1389 Y-3.0147
N14555 X2.1621 Y-3.003
N14560 X2.184 Y-2.9896
N14565 X2.2046 Y-2.9746
N14570 X2.2237 Y-2.9583
N14575 X2.2416 Y-2.9403
N14580 X2.2581 Y-2.9208
N14585 X2.2729 Y-2.9001
N14590 X2.2862 Y-2.8779
N14595 X2.2979 Y-2.8544
N14600 X2.3077 Y-2.8299
N14605 X2.3156 Y-2.8042
N14610 X2.3216 Y-2.7776
N14615 X2.3254 Y-2.7504
N14620 X2.327 Y-2.7221
N14625 X2.3264 Y-2.6939
N14630 X2.3235 Y-2.6654
N14635 X2.3182 Y-2.6365
N14640 X2.3106 Y-2.6083
N14645 X2.3006 Y-2.5801
N14650 X2.2883 Y-2.5527
N14655 X2.2737 Y-2.5263
N14660 X2.2568 Y-2.5007
N14665 X2.2377 Y-2.4763
N14670 X2.2167 Y-2.4535
N14675 X2.1937 Y-2.4322
N14680 X2.1689 Y-2.4128
N14685 X2.1426 Y-2.3953
N14690 X2.1145 Y-2.3798
N14695 X2.0855 Y-2.3667
N14700 X2.055 Y-2.3557
N14705 X2.0239 Y-2.3473
N14710 X1.9921 Y-2.3414
N14715 X1.9594 Y-2.338
N14720 X1.927 Y-2.3373
N14725 X1.8941 Y-2.3392
N14730 X1.8617 Y-2.3437
N14735 X1.8297 Y-2.3508
N14740 X1.7981 Y-2.3605
N14745 X1.7677 Y-2.3726
N14750 X1.7377 Y-2.3874
N14755 X1.7095 Y-2.4043
N14760 X1.6827 Y-2.4235
N14765 X1.6572 Y-2.4449
N14770 X1.6339 Y-2.468
N14775 X1.6119 Y-2.4936
N14780 X1.5925 Y-2.5202
N14785 X1.5752 Y-2.5485
N14790 X1.5602 Y-2.5781
N14795 X1.5477 Y-2.6087
N14800 X1.5375 Y-2.6407
N14805 X1.53 Y-2.6729
N14810 X1.5251 Y-2.7059
N14815 X1.5229 Y-2.739
N14820 X1.5233 Y-2.7721
N14825 X1.5264 Y-2.8056
N14830 X1.5321 Y-2.8381
N14835 X1.5406 Y-2.8706
N14840 X1.5515 Y-2.9019
N14845 X1.5648 Y-2.9323
N14850 X1.5808 Y-2.9618
N14855 X1.5988 Y-2.9895
N14860 X1.6193 Y-3.0162
N14865 X1.6415 Y-3.0407
N14870 X1.6658 Y-3.0635
N14875 X1.6919 Y-3.0844
N14880 X1.7193 Y-3.1029
N14885 X1.7488 Y-3.1195
N14890 X1.7827 Y-3.1352
N14895 X1.8196 Y-3.1487
N14900 X1.8601 Y-3.16
N14905 X1.9025 Y-3.1683
N14910 X1.9454 Y-3.1731
N14915 X1.9875 Y-3.1744
N14920 X2.0284 Y-3.1724
N14925 X2.0678 Y-3.1673
N14930 X2.1057 Y-3.1592
N14935 X2.1421 Y-3.1483
N14940 X2.177 Y-3.1348
N14945 X2.2102 Y-3.1187
N14950 X2.2419 Y-3.1001
N14955 X2.2717 Y-3.0791
N14960 X2.2997 Y-3.056
N14965 X2.3256 Y-3.0307
N14970 X2.3495 Y-3.0034
N14975 X2.3711 Y-2.9742
N14980 X2.3905 Y-2.9432
N14985 X2.4073 Y-2.9106
N14990 X2.4216 Y-2.8765
N14995 X2.4332 Y-2.8412
N15000 X2.4419 Y-2.8047
N15005 X2.4478 Y-2.7673
N15010 X2.4507 Y-2.7293
N15015 X2.4505 Y-2.6909
N15020 X2.4472 Y-2.6523
N15025 X2.4408 Y-2.6138
N15030 X2.4312 Y-2.5756
N15035 X2.4185 Y-2.5381
N15040 X2.4027 Y-2.5014
N15045 X2.3839 Y-2.4659
N15050 X2.3622 Y-2.4318
N15055 X2.3376 Y-2.3993
N15060 X2.3103 Y-2.3687
N15065 X2.2805 Y-2.3402
N15070 X2.2484 Y-2.3141
N15075 X2.214 Y-2.2905
N15080 X2.1777 Y-2.2697
N15085 X2.1397 Y-2.2517
N15090 X2.1001 Y-2.2368
N15095 X2.0594 Y-2.2251
N15100 X2.0177 Y-2.2166
N15105 X1.9754 Y-2.2115
N15110 X1.9327 Y-2.2098
N15115 X1.8898 Y-2.2116
N15120 X1.8472 Y-2.2168
N15125 X1.805 Y-2.2254
N15130 X1.7636 Y-2.2374
N15135 X1.7232 Y-2.2527
N15140 X1.6842 Y-2.2712
N15145 X1.6468 Y-2.2928
N15150 X1.611 Y-2.3174
N15155 X1.5774 Y-2.3448
N15160 X1.5461 Y-2.3748
N15165 X1.5173 Y-2.4072
N15170 X1.4912 Y-2.4419
N15175 X1.4678 Y-2.4786
N15180 X1.4476 Y-2.517
N15185 X1.4304 Y-2.557
N15190 X1.4166 Y-2.5982
N15195 X1.406 Y-2.6404
N15200 X1.3989 Y-2.6834
N15205 X1.3953 Y-2.7267
N15210 X1.3951 Y-2.7703
N15215 X1.3985 Y-2.8137
N15220 X1.4053 Y-2.8567
N15225 X1.4156 Y-2.8991
N15230 X1.4292 Y-2.9404
N15235 X1.4461 Y-2.9806
N15240 X1.4662 Y-3.0193
N15245 X1.4893 Y-3.0562
N15250 X1.5153 Y-3.0912
N15255 X1.544 Y-3.124
N15260 X1.5753 Y-3.1544
N15265 X1.6098 Y-3.1828
N15270 X1.6473 Y-3.2091
N15275 X1.6876 Y-3.2327
N15280 X1.7297 Y-3.253
N15285 X1.7731 Y-3.2701
N15290 X1.8177 Y-3.284
N15295 X1.8632 Y-3.2945
N15300 X1.9093 Y-3.3016
N15305 X1.9559 Y-3.3053
N15310 X2.0026 Y-3.3055
N15315 X2.0492 Y-3.3023
N15320 X2.0954 Y-3.2955
N15325 X2.1409 Y-3.2853
N15330 X2.1855 Y-3.2716
N15335 X2.229 Y-3.2545
N15340 X2.271 Y-3.234
N15345 X2.3112 Y-3.2103
N15350 X2.3494 Y-3.1835
N15355 X2.3854 Y-3.1537
N15360 X2.4188 Y-3.1211
N15365 X2.4496 Y-3.086
N15370 X2.4775 Y-3.0486
N15375 X2.5024 Y-3.0091
N15380 X2.524 Y-2.9677
N15385 X2.5422 Y-2.9247
N15390 X2.5571 Y-2.8804
N15395 X2.5684 Y-2.8351
N15400 X2.5762 Y-2.7891
N15405 X2.5804 Y-2.7426
N15410 X2.5811 Y-2.6959
N15415 X2.5782 Y-2.6493
N15420 X2.5717 Y-2.6031
N15425 X2.5618 Y-2.5574
N15430 X2.5485 Y-2.5127
N15435 X2.5319 Y-2.4691
N15440 X2.512 Y-2.4268
N15445 X2.489 Y-2.3862
N15450 X2.4631 Y-2.3473
N15455 X2.4344 Y-2.3105
N15460 X2.4031 Y-2.2758
N15465 X2.3694 Y-2.2435
N15470 X2.3335 Y-2.2137
N15475 X2.2955 Y-2.1865
N15480 X2.2557 Y-2.1621
N15485 X2.2142 Y-2.1407
N15490 X2.1713 Y-2.1223
N15495 X2.1272 Y-2.107
N15500 X2.0821 Y-2.0949
N15505 X2.0362 Y-2.0861
N15510 X1.9899 Y-2.0804
N15515 X1.9433 Y-2.0779
N15520 X1.8966 Y-2.0788
N15525 X1.8501 Y-2.0829
N15530 X1.804 Y-2.0903
N15535 X1.7585 Y-2.101
N15540 X1.7139 Y-2.1148
N15545 X1.6704 Y-2.1316
N15550 X1.6281 Y-2.1515
N15555 X1.5873 Y-2.1741
N15560 X1.5481 Y-2.1996
N15565 X1.5109 Y-2.2278
N15570 X1.4758 Y-2.2585
N15575 X1.4428 Y-2.2916
N15580 X1.4122 Y-2.3269
N15585 X1.3842 Y-2.3642
N15590 X1.3587 Y-2.4033
N15595 X1.336 Y-2.4441
N15600 X1.3162 Y-2.4864
N15605 X1.2995 Y-2.53
N15610 X1.2858 Y-2.5746
N15615 X1.2752 Y-2.6201
N15620 X1.2678 Y-2.6662
N15625 X1.2636 Y-2.7127
N15630 X1.2625 Y-2.7594
N15635 X1.2647 Y-2.806
N15640 X1.2702 Y-2.8524
N15645 X1.2789 Y-2.8983
N15650 X1.2908 Y-2.9434
N15655 X1.3057 Y-2.9877
N15660 X1.3236 Y-3.0308
N15665 X1.3444 Y-3.0726
N15670 X1.3681 Y-3.1129
N15675 X1.3945 Y-3.1513
N15680 X1.4236 Y-3.1879
N15685 X1.4551 Y-3.2223
N15690 X1.4888 Y-3.2546
N15695 X1.5246 Y-3.2846
N15700 X1.5623 Y-3.3121
N15705 X1.6018 Y-3.337
N15710 X1.6428 Y-3.3594
N15715 X1.6852 Y-3.3791
N15720 X1.7286 Y-3.3961
N15725 X1.7731 Y-3.4105
N15730 X1.8183 Y-3.422
N15735 X1.8642 Y-3.4307
N15740 X1.9105 Y-3.4365
N15745 X1.9571 Y-3.4395
N15750 X2.0038 Y-3.4396
N15755 X2.0504 Y-3.4369
N15760 X2.0968 Y-3.4312
N15765 X2.1426 Y-3.4226
N15770 X2.1879 Y-3.4112
N15775 X2.2324 Y-3.3969
N15780 X2.2759 Y-3.3799
N15785 X2.3182 Y-3.3602
N15790 X2.3591 Y-3.3377
N15795 X2.3985 Y-3.3126
N15800 X2.4361 Y-3.285
N15805 X2.472 Y-3.2551
N15810 X2.5059 Y-3.223
N15815 X2.5376 Y-3.1887
N15820 X2.567 Y-3.1524
N15825 X2.594 Y-3.1143
N15830 X2.6184 Y-3.0746
N15835 X2.6404 Y-3.0334
N15840 X2.6596 Y-2.9908
N15845 X2.676 Y-2.9471
N15850 X2.6895 Y-2.9024
N15855 X2.7002 Y-2.8569
N15860 X2.7081 Y-2.8109
N15865 X2.713 Y-2.7645
N15870 X2.715 Y-2.7178
N15875 X2.714 Y-2.6712
N15880 X2.71 Y-2.6246
N15885 X2.7033 Y-2.5784
N15890 X2.6937 Y-2.5327
N15895 X2.6813 Y-2.4877
N15900 X2.666 Y-2.4436
N15905 X2.6481 Y-2.4005
N15910 X2.6275 Y-2.3586
N15915 X2.6045 Y-2.3179
N15920 X2.5791 Y-2.2788
N15925 X2.5513 Y-2.2413
N15930 X2.5212 Y-2.2055
N15935 X2.4891 Y-2.1717
N15940 X2.455 Y-2.1398
N15945 X2.4191 Y-2.1099
N15950 X2.3815 Y-2.0822
N15955 X2.3423 Y-2.0569
N15960 X2.3016 Y-2.034
N15965 X2.2596 Y-2.0135
N15970 X2.2165 Y-1.9956
N15975 X2.1724 Y-1.9801
N15980 X2.1275 Y-1.9673
N15985 X2.082 Y-1.9572
N15990 X2.0359 Y-1.9498
N15995 X1.9894 Y-1.9451
N16000 X1.9428 Y-1.9431
N16005 X1.8961 Y-1.9438
N16010 X1.8495 Y-1.9472
N16015 X1.8032 Y-1.9534
N16020 X1.7574 Y-1.9623
N16025 X1.7122 Y-1.9739
N16030 X1.6677 Y-1.9881
N16035 X1.624 Y-2.0047
N16040 X1.5814 Y-2.0238
N16045 X1.54 Y-2.0454
N16050 X1.5 Y-2.0695
N16055 X1.4614 Y-2.0958
N16060 X1.4244 Y-2.1243
N16065 X1.3891 Y-2.1548
N16070 X1.3556 Y-2.1873
N16075 X1.3241 Y-2.2218
N16080 X1.2946 Y-2.258
N16085 X1.2673 Y-2.2958
N16090 X1.2422 Y-2.3352
N16095 X1.2193 Y-2.3759
N16100 X1.1989 Y-2.4179
N16105 X1.1809 Y-2.461
N16110 X1.1655 Y-2.5051
N16115 X1.1527 Y-2.55
N16120 X1.1425 Y-2.5955
N16125 X1.1348 Y-2.6416
N16130 X1.1298 Y-2.688
N16135 X1.1275 Y-2.7346
N16140 X1.128 Y-2.7813
N16145 X1.1312 Y-2.8279
N16150 X1.137 Y-2.8742
N16155 X1.1455 Y-2.9202
N16160 X1.1565 Y-2.9655
N16165 X1.1702 Y-3.0102
N16170 X1.1865 Y-3.0539
N16175 X1.2053 Y-3.0967
N16180 X1.2264 Y-3.1383
N16185 X1.25 Y-3.1786
N16190 X1.2757 Y-3.2176
N16195 X1.3038 Y-3.2549
N16200 X1.3339 Y-3.2906
N16205 X1.366 Y-3.3245
N16210 X1.3999 Y-3.3566
N16215 X1.4356 Y-3.3867
N16220 X1.4728 Y-3.4149
N16225 X1.5116 Y-3.4409
N16230 X1.5518 Y-3.4647
N16235 X1.5931 Y-3.4863
N16240 X1.6356 Y-3.5057
N16245 X1.679 Y-3.5228
N16250 X1.7233 Y-3.5377
N16255 X1.7683 Y-3.5502
N16260 X1.8139 Y-3.5602
N16265 X1.86 Y-3.5678
N16270 X1.9064 Y-3.573
N16275 X1.953 Y-3.5757
N16280 X1.9997 Y-3.5761
N16285 X2.0463 Y-3.574
N16290 X2.0928 Y-3.5694
N16295 X2.1389 Y-3.5623
N16300 X2.1847 Y-3.5527
N16305 X2.2298 Y-3.5408
N16310 X2.2742 Y-3.5265
N16315 X2.3179 Y-3.5099
N16320 X2.3605 Y-3.4909
N16325 X2.4021 Y-3.4696
N16330 X2.4424 Y-3.4461
N16335 X2.4814 Y-3.4205
N16340 X2.519 Y-3.3928
N16345 X2.5551 Y-3.3631
N16350 X2.5895 Y-3.3315
N16355 X2.6221 Y-3.2981
N16360 X2.6528 Y-3.2629
N16365 X2.6815 Y-3.2261
N16370 X2.7082 Y-3.1878
N16375 X2.7329 Y-3.1481
N16380 X2.7554 Y-3.1072
N16385 X2.7756 Y-3.0651
N16390 X2.7934 Y-3.022
N16395 X2.8089 Y-2.9779
N16400 X2.822 Y-2.9331
N16405 X2.8328 Y-2.8877
N16410 X2.8411 Y-2.8417
N16415 X2.844 Y-2.8186
N16420 X2.8446 Y-2.8128
N16425 X2.8489 Y-2.7663
N16430 X2.8507 Y-2.7196
N16435 X2.8501 Y-2.6729
N16440 X2.8471 Y-2.6263
N16445 X2.8415 Y-2.58
N16450 X2.8335 Y-2.534
N16455 X2.823 Y-2.4885
N16460 X2.8101 Y-2.4436
N16465 X2.7949 Y-2.3995
N16470 X2.7775 Y-2.3561
N16475 X2.7579 Y-2.3138
N16480 X2.736 Y-2.2725
N16485 X2.7121 Y-2.2325
N16490 X2.686 Y-2.1937
N16495 X2.658 Y-2.1563
N16500 X2.6282 Y-2.1204
N16505 X2.5966 Y-2.086
N16510 X2.5633 Y-2.0533
N16515 X2.5283 Y-2.0224
N16520 X2.4918 Y-1.9933
N16525 X2.4538 Y-1.9661
N16530 X2.4145 Y-1.9409
N16535 X2.374 Y-1.9177
N16540 X2.3324 Y-1.8965
N16545 X2.2898 Y-1.8774
N16550 X2.2462 Y-1.8606
N16555 X2.2019 Y-1.846
N16560 X2.1568 Y-1.8336
N16565 X2.1113 Y-1.8235
N16570 X2.0882 Y-1.8196
N16575 X2.0767 Y-1.818
N16580 X2.0304 Y-1.8117
N16585 X1.9839 Y-1.8079
N16590 X1.9372 Y-1.8064
N16595 X1.8905 Y-1.8072
N16600 X1.8439 Y-1.8104
N16605 X1.7976 Y-1.8159
N16610 X1.7515 Y-1.8237
N16615 X1.706 Y-1.8338
N16620 X1.6609 Y-1.8462
N16625 X1.6166 Y-1.8608
N16630 X1.573 Y-1.8776
N16635 X1.5303 Y-1.8965
N16640 X1.4886 Y-1.9174
N16645 X1.448 Y-1.9405
N16650 X1.4086 Y-1.9656
N16655 X1.3705 Y-1.9925
N16660 X1.3338 Y-2.0214
N16665 X1.2985 Y-2.052
N16670 X1.2648 Y-2.0843
N16675 X1.2327 Y-2.1182
N16680 X1.2023 Y-2.1536
N16685 X1.1738 Y-2.1906
N16690 X1.1471 Y-2.2289
N16695 X1.1223 Y-2.2685
N16700 X1.0995 Y-2.3092
N16705 X1.0788 Y-2.3511
N16710 X1.0601 Y-2.3939
N16715 X1.0436 Y-2.4375
N16720 X1.0292 Y-2.482
N16725 X1.0171 Y-2.5271
N16730 X1.0072 Y-2.5727
N16735 X1.0034 Y-2.5957
N16740 X1.0018 Y-2.6073
N16745 X0.9957 Y-2.6536
N16750 X0.9919 Y-2.7001
N16755 X0.9906 Y-2.7468
N16760 X0.9915 Y-2.7935
N16765 X0.9948 Y-2.84
N16770 X1.0003 Y-2.8864
N16775 X1.0081 Y-2.9325
N16780 X1.0181 Y-2.9781
N16785 X1.0305 Y-3.0231
N16790 X1.045 Y-3.0674
N16795 X1.0618 Y-3.111
N16800 X1.0806 Y-3.1537
N16805 X1.1015 Y-3.1955
N16810 X1.1244 Y-3.2362
N16815 X1.1493 Y-3.2757
N16820 X1.1762 Y-3.3139
N16825 X1.2049 Y-3.3507
N16830 X1.2353 Y-3.3861
N16835 X1.2674 Y-3.42
N16840 X1.3011 Y-3.4524
N16845 X1.3363 Y-3.4831
N16850 X1.3729 Y-3.5121
N16855 X1.4109 Y-3.5392
N16860 X1.4501 Y-3.5646
N16865 X1.4904 Y-3.588
N16870 X1.5318 Y-3.6096
N16875 X1.5742 Y-3.6293
N16880 X1.6174 Y-3.647
N16885 X1.6614 Y-3.6627
N16890 X1.706 Y-3.6764
N16895 X1.7513 Y-3.6879
N16900 X1.7741 Y-3.6926
N16905 X1.7799 Y-3.6937
N16910 X1.8258 Y-3.702
N16915 X1.8721 Y-3.7082
N16920 X1.9186 Y-3.7122
N16925 X1.9653 Y-3.7141
N16930 X2.0119 Y-3.7138
N16935 X2.0586 Y-3.7113
N16940 X2.105 Y-3.7068
N16945 X2.1513 Y-3.7001
N16950 X2.1971 Y-3.6914
N16955 X2.2425 Y-3.6805
N16960 X2.2874 Y-3.6675
N16965 X2.3316 Y-3.6525
N16970 X2.375 Y-3.6354
N16975 X2.4176 Y-3.6163
N16980 X2.4593 Y-3.5953
N16985 X2.5 Y-3.5724
N16990 X2.5396 Y-3.5476
N16995 X2.578 Y-3.521
N17000 X2.615 Y-3.4926
N17005 X2.6507 Y-3.4625
N17010 X2.6849 Y-3.4307
N17015 X2.7177 Y-3.3974
N17020 X2.7488 Y-3.3626
N17025 X2.7783 Y-3.3265
N17030 X2.8061 Y-3.2889
N17035 X2.8321 Y-3.2501
N17040 X2.8562 Y-3.2101
N17045 X2.8784 Y-3.1691
N17050 X2.8987 Y-3.127
N17055 X2.917 Y-3.0841
N17060 X2.9334 Y-3.0403
N17065 X2.9477 Y-2.9959
N17070 X2.9492 Y-2.9902
N17075 X2.9521 Y-2.9789
N17080 X2.955 Y-2.9676
N17085 X2.9593 Y-2.9568
N17090 X2.965 Y-2.9466
N17095 X2.972 Y-2.9373
N17100 X2.9802 Y-2.929
N17105 X3.0172 Y-2.9004
N17110 X3.0611 Y-2.8847
N17115 X3.0742 Y-2.8791
N17120 X3.0791 Y-2.8768
N17125 X3.0834 Y-2.8748
N17130 X3.0633 Y-2.8326
N17135 X3.0474 Y-2.7887
N17140 X3.0346 Y-2.7438
N17145 X3.0236 Y-2.6985
N17150 X3.0133 Y-2.6529
N17155 X3.0032 Y-2.6073
N17160 X2.9927 Y-2.5618
N17165 X2.9814 Y-2.5165
N17170 X2.969 Y-2.4715
N17175 X2.9553 Y-2.4269
N17180 X2.9401 Y-2.3827
N17185 X2.9232 Y-2.3392
N17190 X2.9047 Y-2.2963
N17195 X2.8844 Y-2.2543
N17200 X2.8624 Y-2.2131
N17205 X2.8387 Y-2.1728
N17210 X2.8134 Y-2.1336
N17215 X2.7863 Y-2.0956
N17220 X2.7576 Y-2.0588
N17225 X2.7273 Y-2.0232
N17230 X2.6955 Y-1.9891
N17235 X2.6622 Y-1.9564
N17240 X2.6275 Y-1.9251
N17245 X2.5914 Y-1.8954
N17250 X2.5541 Y-1.8673
N17255 X2.5156 Y-1.8409
N17260 X2.4759 Y-1.8163
N17265 X2.4352 Y-1.7934
N17270 X2.3936 Y-1.7723
N17275 X2.351 Y-1.7531
N17280 X2.3077 Y-1.7357
N17285 X2.2636 Y-1.7202
N17290 X2.2189 Y-1.7069
N17295 X2.2076 Y-1.704
N17300 X2.1963 Y-1.7012
N17305 X2.1854 Y-1.697
N17310 X2.1752 Y-1.6913
N17315 X2.1377 Y-1.6635
N17320 X2.1111 Y-1.6251
N17325 X2.0857 Y-1.5859
N17330 X2.0715 Y-1.5674
N17335 X2.0612 Y-1.5558
N17340 X2.0499 Y-1.5448
N17345 X2.0416 Y-1.538
N17350 X2.0392 Y-1.5363
N17355 X2.0288 Y-1.5301
N17360 X2.0176 Y-1.5253
N17365 X2.0059 Y-1.5222
N17370 X1.9938 Y-1.5207
N17375 X1.9921 Y-1.5206
N17380 X1.9906
N17385 X1.9574 Y-1.5535
N17390 X1.9192 Y-1.5803
N17395 X1.8782 Y-1.6027
N17400 X1.8356 Y-1.6219
N17405 X1.7922 Y-1.639
N17410 X1.7483 Y-1.655
N17415 X1.7043 Y-1.6706
N17420 X1.6604 Y-1.6864
N17425 X1.6167 Y-1.7028
N17430 X1.5733 Y-1.7201
N17435 X1.5304 Y-1.7385
N17440 X1.488 Y-1.7582
N17445 X1.4464 Y-1.7793
N17450 X1.4056 Y-1.802
N17455 X1.3657 Y-1.8262
N17460 X1.3267 Y-1.852
N17465 X1.2889 Y-1.8793
N17470 X1.2521 Y-1.9081
N17475 X1.2166 Y-1.9384
N17480 X1.1824 Y-1.9702
N17485 X1.1496 Y-2.0034
N17490 X1.1182 Y-2.038
N17495 X1.0884 Y-2.0739
N17500 X1.0601 Y-2.111
N17505 X1.0334 Y-2.1494
N17510 X1.0084 Y-2.1888
N17515 X0.9851 Y-2.2292
N17520 X0.9635 Y-2.2706
N17525 X0.9437 Y-2.3129
N17530 X0.9258 Y-2.3561
N17535 X0.9099 Y-2.3999
N17540 X0.8958 Y-2.4445
N17545 X0.8837 Y-2.4896
N17550 X0.8579 Y-2.5285
N17555 X0.8227 Y-2.5592
N17560 X0.7849 Y-2.5866
N17565 X0.7663 Y-2.6006
N17570 X0.7475 Y-2.6165
N17575 X0.7348 Y-2.6291
N17580 X0.7265 Y-2.6387
N17585 X0.7252 Y-2.6405
N17590 X0.7185 Y-2.6512
N17595 X0.7135 Y-2.6628
N17600 X0.7101 Y-2.6749
N17605 X0.7086 Y-2.6874
N17610 X0.7085 Y-2.6882
N17615 Y-2.6912
N17620 X0.7406 Y-2.7251
N17625 X0.7669 Y-2.7637
N17630 X0.7887 Y-2.8049
N17635 X0.8075 Y-2.8477
N17640 X0.8243 Y-2.8912
N17645 X0.84 Y-2.9352
N17650 X0.8555 Y-2.9793
N17655 X0.8711 Y-3.0233
N17660 X0.8873 Y-3.0671
N17665 X0.9045 Y-3.1105
N17670 X0.9228 Y-3.1534
N17675 X0.9423 Y-3.1958
N17680 X0.9633 Y-3.2376
N17685 X0.9859 Y-3.2784
N17690 X1.01 Y-3.3184
N17695 X1.0356 Y-3.3575
N17700 X1.0628 Y-3.3954
N17705 X1.0915 Y-3.4323
N17710 X1.1216 Y-3.4679
N17715 X1.1532 Y-3.5023
N17720 X1.1861 Y-3.5354
N17725 X1.2205 Y-3.567
N17730 X1.2561 Y-3.5972
N17735 X1.293 Y-3.6259
N17740 X1.331 Y-3.653
N17745 X1.3701 Y-3.6786
N17750 X1.4101 Y-3.7025
N17755 X1.4511 Y-3.7248
N17760 X1.493 Y-3.7455
N17765 X1.5357 Y-3.7643
N17770 X1.5792 Y-3.7814
N17775 X1.6233 Y-3.7967
N17780 X1.668 Y-3.8102
N17785 X1.7088 Y-3.833
N17790 X1.741 Y-3.8668
N17795 X1.7695 Y-3.9037
N17800 X1.784 Y-3.922
N17805 X1.8012 Y-3.9417
N17810 X1.8145 Y-3.9547
N17815 X1.8193 Y-3.9587
N17820 X1.8308 Y-3.9667
N17825 X1.8433 Y-3.9728
N17830 X1.8567 Y-3.9769
N17835 X1.8706 Y-3.9787
N17840 X1.8757 Y-3.979
N17845 X1.8787
N17850 X1.8802 Y-3.9789
N17855 X1.9176 Y-3.9511
N17860 X1.9586 Y-3.9287
N17865 X2.0015 Y-3.9103
N17870 X2.0455 Y-3.8947
N17875 X2.0901 Y-3.8808
N17880 X2.1349 Y-3.8676
N17885 X2.1798 Y-3.8547
N17890 X2.2246 Y-3.8415
N17895 X2.2691 Y-3.8276
N17900 X2.3134 Y-3.8128
N17905 X2.3573 Y-3.7968
N17910 X2.4007 Y-3.7796
N17915 X2.4434 Y-3.7608
N17920 X2.4855 Y-3.7406
N17925 X2.5269 Y-3.7189
N17930 X2.5674 Y-3.6957
N17935 X2.6069 Y-3.6709
N17940 X2.6455 Y-3.6446
N17945 X2.683 Y-3.6168
N17950 X2.7194 Y-3.5875
N17955 X2.7545 Y-3.5567
N17960 X2.7884 Y-3.5245
N17965 X2.8209 Y-3.491
N17970 X2.852 Y-3.4563
N17975 X2.8817 Y-3.4202
N17980 X2.9099 Y-3.383
N17985 X2.9366 Y-3.3447
N17990 X2.9617 Y-3.3053
N17995 X2.9851 Y-3.2649
N18000 X3.0068 Y-3.2236
N18005 X3.0269 Y-3.1814
N18010 X3.0521 Y-3.1421
N18015 X3.0817 Y-3.106
N18020 X3.1122 Y-3.0707
N18025 X3.1212 Y-3.0591
N18030 X3.1279 Y-3.0494
N18035 X3.1332 Y-3.0388
N18040 X3.137 Y-3.0276
N18045 X3.1405 Y-3.0142
N18050 X3.1433 Y-3.003
N18055 X3.1593 Y-2.9018
N18060 X3.1608 Y-2.8905
N18065 X3.1631 Y-2.8681
N18070 X3.1641 Y-2.8568
N18075 X3.1665 Y-2.8118
N18080 X3.1666 Y-2.7682
N18085 X3.1629 Y-2.7216
N18090 X3.1575 Y-2.6752
N18095 X3.1506 Y-2.6291
N18100 X3.1424 Y-2.5831
N18105 X3.1329 Y-2.5374
N18110 X3.1222 Y-2.4919
N18115 X3.1101 Y-2.4468
N18120 X3.0967 Y-2.4021
N18125 X3.0819 Y-2.3578
N18130 X3.0657 Y-2.314
N18135 X3.0479 Y-2.2709
N18140 X3.0287 Y-2.2283
N18145 X3.008 Y-2.1865
N18150 X2.9857 Y-2.1454
N18155 X2.962 Y-2.1052
N18160 X2.9368 Y-2.0659
N18165 X2.9102 Y-2.0275
N18170 X2.8821 Y-1.9902
N18175 X2.8526 Y-1.954
N18180 X2.8217 Y-1.919
N18185 X2.7895 Y-1.8852
N18190 X2.756 Y-1.8527
N18195 X2.7213 Y-1.8215
N18200 X2.6854 Y-1.7916
N18205 X2.6484 Y-1.7631
N18210 X2.6103 Y-1.7361
N18215 X2.5712 Y-1.7106
N18220 X2.5311 Y-1.6867
N18225 X2.4901 Y-1.6643
N18230 X2.4483 Y-1.6436
N18235 X2.4057 Y-1.6245
N18240 X2.364 Y-1.6034
N18245 X2.3476 Y-1.5923
N18250 X2.3407 Y-1.5881
N18255 X2.3335 Y-1.5846
N18260 X2.326 Y-1.5817
N18265 X2.3029 Y-1.5741
N18270 X2.2917 Y-1.571
N18275 X2.213 Y-1.5499
N18280 X2.2017 Y-1.547
N18285 X2.1905 Y-1.5442
N18290 X2.0893 Y-1.5282
N18295 X2.078 Y-1.5267
N18300 X2.0556 Y-1.5244
N18305 X2.0443 Y-1.5234
N18310 X1.9938 Y-1.5207
N18315 X1.9921
N18320 Y-1.5206
N18325 X1.9431 Y-1.5181
N18330 X1.9319
N18335 X1.8307 Y-1.5234
N18340 X1.8194 Y-1.5244
N18345 X1.797 Y-1.5267
N18350 X1.7857 Y-1.5282
N18355 X1.6845 Y-1.5442
N18360 X1.6733 Y-1.547
N18365 X1.662 Y-1.5499
N18370 X1.6395 Y-1.5559
N18375 X1.5951 Y-1.5702
N18380 X1.5505 Y-1.584
N18385 X1.5065 Y-1.5997
N18390 X1.4632 Y-1.6172
N18395 X1.4207 Y-1.6364
N18400 X1.3789 Y-1.6572
N18405 X1.3379 Y-1.6796
N18410 X1.2978 Y-1.7035
N18415 X1.2586 Y-1.7288
N18420 X1.2203 Y-1.7556
N18425 X1.183 Y-1.7837
N18430 X1.1468 Y-1.8132
N18435 X1.1118 Y-1.8441
N18440 X1.078 Y-1.8763
N18445 X1.0454 Y-1.9097
N18450 X1.0141 Y-1.9444
N18455 X0.9841 Y-1.9802
N18460 X0.9555 Y-2.017
N18465 X0.9282 Y-2.055
N18470 X0.9024 Y-2.0939
N18475 X0.8782 Y-2.1338
N18480 X0.8555 Y-2.1746
N18485 X0.8343 Y-2.2162
N18490 X0.8148 Y-2.2586
N18495 X0.796 Y-2.3014
N18500 X0.7881 Y-2.3145
N18505 X0.7855 Y-2.319
N18510 X0.7832 Y-2.3237
N18515 X0.7812 Y-2.3284
N18520 X0.7738 Y-2.348
N18525 X0.7727 Y-2.3508
N18530 X0.7616 Y-2.3846
N18535 X0.7585 Y-2.3958
N18540 X0.7374 Y-2.4745
N18545 X0.7345 Y-2.4858
N18550 X0.7317 Y-2.497
N18555 X0.7157 Y-2.5982
N18560 X0.7142 Y-2.6095
N18565 X0.7119 Y-2.6319
N18570 X0.7109 Y-2.6432
N18575 X0.7086 Y-2.6874
N18580 Y-2.6875
N18585 X0.7085 Y-2.6881
N18590 Y-2.6882
N18595 X0.7056 Y-2.7444
N18600 Y-2.7556
N18605 X0.7109 Y-2.8568
N18610 X0.7119 Y-2.8681
N18615 X0.7142 Y-2.8905
N18620 X0.7157 Y-2.9018
N18625 X0.7317 Y-3.003
N18630 X0.7345 Y-3.0142
N18635 X0.7374 Y-3.0255
N18640 X0.7464 Y-3.0592
N18645 X0.7607 Y-3.1036
N18650 X0.7747 Y-3.1482
N18655 X0.7907 Y-3.1921
N18660 X0.8084 Y-3.2353
N18665 X0.8279 Y-3.2777
N18670 X0.849 Y-3.3193
N18675 X0.8718 Y-3.3601
N18680 X0.896 Y-3.4
N18685 X0.9217 Y-3.439
N18690 X0.9488 Y-3.477
N18695 X0.9773 Y-3.514
N18700 X1.0071 Y-3.55
N18705 X1.0382 Y-3.5848
N18710 X1.0706 Y-3.6185
N18715 X1.1042 Y-3.6509
N18720 X1.1389 Y-3.682
N18725 X1.1749 Y-3.7118
N18730 X1.2119 Y-3.7403
N18735 X1.2499 Y-3.7675
N18740 X1.2888 Y-3.7932
N18745 X1.3287 Y-3.8175
N18750 X1.3694 Y-3.8404
N18755 X1.4109 Y-3.8618
N18760 X1.4532 Y-3.8816
N18765 X1.4584 Y-3.884
N18770 X1.4605 Y-3.8849
N18775 X1.4626 Y-3.8858
N18780 X1.5355 Y-3.9137
N18785 X1.5383 Y-3.9148
N18790 X1.5721 Y-3.9259
N18795 X1.5833 Y-3.929
N18800 X1.662 Y-3.9501
N18805 X1.6733 Y-3.9531
N18810 X1.6845 Y-3.9558
N18815 X1.7857 Y-3.9718
N18820 X1.797 Y-3.9733
N18825 X1.8194 Y-3.9756
N18830 X1.8307 Y-3.9766
N18835 X1.8706 Y-3.9787
N18840 X1.8713
N18845 X1.8748 Y-3.9789
N18850 X1.8757 Y-3.979
N18855 X1.9319 Y-3.9819
N18860 X1.9431
N18865 X2.0443 Y-3.9766
N18870 X2.0556 Y-3.9756
N18875 X2.078 Y-3.9733
N18880 X2.0893 Y-3.9718
N18885 X2.1905 Y-3.9558
N18890 X2.2017 Y-3.9531
N18895 X2.213 Y-3.9501
N18900 X2.2917 Y-3.929
N18905 X2.3029 Y-3.9259
N18910 X2.3367 Y-3.9148
N18915 X2.3395 Y-3.9137
N18920 X2.4274 Y-3.88
N18925 X2.4379 Y-3.8756
N18930 X2.4491 Y-3.8704
N18935 X2.5185 Y-3.835
N18940 X2.5503 Y-3.8185
N18945 X2.5607 Y-3.8126
N18950 X2.6299 Y-3.7676
N18955 X2.6637 Y-3.7451
N18960 X2.674 Y-3.737
N18965 X2.7334 Y-3.6889
N18970 X2.7414 Y-3.6822
N18975 X2.7639 Y-3.6631
N18980 X2.7726 Y-3.6551
N18985 X2.8426 Y-3.5851
N18990 X2.8506 Y-3.5764
N18995 X2.8697 Y-3.5539
N19000 X2.8764 Y-3.5459
N19005 X2.9245 Y-3.4865
N19010 X2.9326 Y-3.4762
N19015 X2.9557 Y-3.4415
N19020 X3.0001 Y-3.3732
N19025 X3.006 Y-3.3628
N19030 X3.0235 Y-3.3291
N19035 X3.0579 Y-3.2616
N19040 X3.0631 Y-3.2504
N19045 X3.0675 Y-3.2399
N19050 X3.1012 Y-3.152
N19055 X3.1023 Y-3.1492
N19060 X3.1134 Y-3.1154
N19065 X3.1165 Y-3.1042
N19070 X3.137 Y-3.0276
N19075 X3.1377 Y-3.0242 Z-0.2995
N19080 X3.1413 Y-2.9973 Z-0.2958
N19085 X3.1451 Y-2.9693 Z-0.292
N19090 X3.1586 Y-2.8702
N19095 X3.1624 Y-2.8422 Z-0.2958
N19100 X3.1663 Y-2.8136 Z-0.2998 F20.
N19105 X3.1665 Y-2.8118 Z-0.3
N19110 X3.1694 Y-2.7556 F50.
N19115 Y-2.7444
N19120 X3.1641 Y-2.6432
N19125 X3.1631 Y-2.6319
N19130 X3.1608 Y-2.6095
N19135 X3.1593 Y-2.5982
N19140 X3.1433 Y-2.497
N19145 X3.1405 Y-2.4858
N19150 X3.1376 Y-2.4745
N19155 X3.1165 Y-2.3958
N19160 X3.1134 Y-2.3846
N19165 X3.1023 Y-2.3508
N19170 X3.1012 Y-2.348
N19175 X3.0675 Y-2.2601
N19180 X3.0631 Y-2.2496
N19185 X3.0579 Y-2.2384
N19190 X3.0225 Y-2.169
N19195 X3.006 Y-2.1372
N19200 X3.0001 Y-2.1268
N19205 X2.9551 Y-2.0576
N19210 X2.9326 Y-2.0238
N19215 X2.9245 Y-2.0135
N19220 X2.8764 Y-1.9541
N19225 X2.8697 Y-1.9461
N19230 X2.8506 Y-1.9236
N19235 X2.8426 Y-1.9149
N19240 X2.7726 Y-1.8449
N19245 X2.7639 Y-1.8369
N19250 X2.7414 Y-1.8178
N19255 X2.7334 Y-1.8111
N19260 X2.674 Y-1.763
N19265 X2.6637 Y-1.7549
N19270 X2.629 Y-1.7318
N19275 X2.5607 Y-1.6874
N19280 X2.5503 Y-1.6815
N19285 X2.5166 Y-1.664
N19290 X2.4491 Y-1.6296
N19295 X2.4379 Y-1.6244
N19300 X2.4274 Y-1.62
N19305 X2.3395 Y-1.5863
N19310 X2.3367 Y-1.5852
N19315 X2.326 Y-1.5817
N19320 G3 X2.3032 Y-1.5842 Z-0.2968 I-0.0084 J-0.0288
N19325 G2 X2.2718 Y-1.6003 Z-0.292 I-0.3 J0.547
N19330 X2.2037 Y-1.628 I-0.2686 J0.5631
N19335 X2.1902 Y-1.63 I-0.0121 J0.0355
N19340 G1 X1.7719 Y-1.6142
N19345 G2 X1.7586 Y-1.6112 I0.0014 J0.0375
N19350 X1.6923 Y-1.5781 I0.2445 J0.574
N19355 X1.6681 Y-1.5635 Z-0.2958 I0.3109 J0.5409
N19360 G1 X1.6627 Y-1.56 Z-0.2967 F20.
N19365 G3 X1.6395 Y-1.5559 Z-0.3 I-0.0164 J-0.0251
N19370 G1 X1.5833 Y-1.571 F50.
N19375 X1.5721 Y-1.5741
N19380 X1.5383 Y-1.5852
N19385 X1.5355 Y-1.5863
N19390 X1.4476 Y-1.62
N19395 X1.4371 Y-1.6244
N19400 X1.4259 Y-1.6296
N19405 X1.3565 Y-1.665
N19410 X1.3247 Y-1.6815
N19415 X1.3143 Y-1.6874
N19420 X1.2451 Y-1.7324
N19425 X1.2113 Y-1.7549
N19430 X1.201 Y-1.763
N19435 X1.1416 Y-1.8111
N19440 X1.1336 Y-1.8178
N19445 X1.1111 Y-1.8369
N19450 X1.1024 Y-1.8449
N19455 X1.0324 Y-1.9149
N19460 X1.0244 Y-1.9236
N19465 X1.0053 Y-1.9461
N19470 X0.9986 Y-1.9541
N19475 X0.9505 Y-2.0135
N19480 X0.9424 Y-2.0238
N19485 X0.9193 Y-2.0585
N19490 X0.8749 Y-2.1268
N19495 X0.869 Y-2.1372
N19500 X0.8515 Y-2.1709
N19505 X0.8171 Y-2.2384
N19510 X0.8119 Y-2.2496
N19515 X0.8075 Y-2.2601
N19520 X0.7812 Y-2.3284
N19525 G3 X0.7827 Y-2.3514 Z-0.2968 I0.0284 J-0.0098
N19530 G2 X0.7973 Y-2.3835 Z-0.292 I-0.6417 J-0.313
N19535 X0.8273 Y-2.4675 I-0.6564 J-0.2809
N19540 X0.8287 Y-2.4797 I-0.036 J-0.0103
N19545 G1 X0.808 Y-2.9135
N19550 G2 X0.8055 Y-2.9254 I-0.0375 J0.0018
N19555 X0.7679 Y-3.006 I-0.6645 J0.261
N19560 X0.7539 Y-3.0305 Z-0.2958 I-0.6269 J0.3416
N19565 G1 X0.7501 Y-3.0368 Z-0.2968 F20.
N19570 G3 X0.7464 Y-3.0592 Z-0.3 I0.0256 J-0.0157
N19575 G1 X0.7585 Y-3.1042 F50.
N19580 X0.7616 Y-3.1154
N19585 X0.7727 Y-3.1492
N19590 X0.7738 Y-3.152
N19595 X0.8075 Y-3.2399
N19600 X0.8119 Y-3.2504
N19605 X0.8171 Y-3.2616
N19610 X0.8525 Y-3.331
N19615 X0.869 Y-3.3628
N19620 X0.8749 Y-3.3732
N19625 X0.9199 Y-3.4424
N19630 X0.9424 Y-3.4762
N19635 X0.9505 Y-3.4865
N19640 X0.9986 Y-3.5459
N19645 X1.0053 Y-3.5539
N19650 X1.0244 Y-3.5764
N19655 X1.0324 Y-3.5851
N19660 X1.1024 Y-3.6551
N19665 X1.1111 Y-3.6631
N19670 X1.1336 Y-3.6822
N19675 X1.1416 Y-3.6889
N19680 X1.201 Y-3.737
N19685 X1.2113 Y-3.7451
N19690 X1.246 Y-3.7682
N19695 X1.3143 Y-3.8126
N19700 X1.3247 Y-3.8185
N19705 X1.3584 Y-3.836
N19710 X1.4259 Y-3.8704
N19715 X1.4371 Y-3.8756
N19720 X1.4476 Y-3.88
N19725 X1.4626 Y-3.8858
N19730 X1.4662 Y-3.8865 Z-0.2998
N19735 X1.4698 Y-3.8871 Z-0.2991
N19740 X1.4732 Y-3.8878 Z-0.298
N19745 X1.4748 Z-0.2974
N19750 X1.4778 Y-3.8874 Z-0.2959
N19755 X1.4806 Y-3.887 Z-0.294
N19760 X1.4832 Y-3.8866 Z-0.2919
N19765 X1.4855 Y-3.8863 Z-0.2894
N19770 X1.4876 Y-3.8854 Z-0.2865
N19775 X1.4894 Y-3.8847 Z-0.2833
N19780 X1.4908 Y-3.8841 Z-0.28
N19785 X1.4918 Y-3.8837 Z-0.2764
N19790 X1.4924 Y-3.8835 Z-0.2728
N19795 X1.4926 Y-3.8834 Z-0.2691
N19800 G0 Z0.2
N19805 G1 X2.0042 Y-2.7594 F300.
N19810 G0 Z-0.235
N19815 G1 Z-0.2725 F20.
N19820 X2.004 Y-2.7595 Z-0.277
N19825 X2.0032 Y-2.7596 Z-0.2815
N19830 X2.0019 Y-2.7599 Z-0.2858
N19835 X2. Y-2.7603 Z-0.2899
N19840 X1.9978 Y-2.7608 Z-0.2938
N19845 X1.995 Y-2.7615 Z-0.2974
N19850 X1.9919 Y-2.7622 Z-0.3006
N19855 X1.9884 Y-2.7629 Z-0.3034
N19860 X1.9846 Y-2.7638 Z-0.3057
N19865 X1.9806 Y-2.7647 Z-0.3076
N19870 X1.9764 Y-2.7656 Z-0.3089
N19875 X1.9721 Y-2.7666 Z-0.3097
N19880 X1.9676 Y-2.7676 Z-0.31
N19885 G3 X1.7724 Y-2.8341 I0.2094 J-0.9342
N19890 G1 X1.7671 Y-2.8368 F50.
N19895 X1.7638 Y-2.8419
N19900 X1.7614 Y-2.8474
N19905 X1.7595 Y-2.8531
N19910 X1.7583 Y-2.8589
N19915 X1.7574 Y-2.8659
N19920 X1.757 Y-2.8746
N19925 X1.7573 Y-2.8817
N19930 X1.7582 Y-2.8896
N19935 X1.7602 Y-2.8992
N19940 X1.7635 Y-2.9108
N19945 X1.7667 Y-2.9194
N19950 X1.7714 Y-2.9294
N19955 X1.7781 Y-2.9409
N19960 X1.7858 Y-2.9522
N19965 X1.7935 Y-2.9617
N19970 X1.8037 Y-2.9725
N19975 X1.8164 Y-2.9838
N19980 X1.8273 Y-2.9921
N19985 X1.8411 Y-3.0009
N19990 X1.8583 Y-3.0101
N19995 X1.8722 Y-3.0161
N20000 X1.8895 Y-3.022
N20005 X1.9097 Y-3.027
N20010 X1.9262 Y-3.0298
N20015 X1.9466 Y-3.0316
N20020 X1.9675 Y-3.0317
N20025 X1.9862 Y-3.0303
N20030 X2.0087 Y-3.0268
N20035 X2.0281 Y-3.0222
N20040 X2.0479 Y-3.0157
N20045 X2.0703 Y-3.0064
N20050 X2.0873 Y-2.9976
N20055 X2.1071 Y-2.9853
N20060 X2.125 Y-2.9721
N20065 X2.1411 Y-2.9581
N20070 X2.1591 Y-2.9396
N20075 X2.1716 Y-2.9246
N20080 X2.1853 Y-2.9051
N20085 X2.1971 Y-2.8851
N20090 X2.2067 Y-2.8655
N20095 X2.2162 Y-2.8409
N20100 X2.222 Y-2.8218
N20105 X2.2271 Y-2.7979
N20110 X2.2301 Y-2.7748
N20115 X2.2313 Y-2.7526
N20120 X2.2305 Y-2.7263
N20125 X2.2282 Y-2.706
N20130 X2.2235 Y-2.6814
N20135 X2.2174 Y-2.6593
N20140 X2.2095 Y-2.6379
N20145 X2.1987 Y-2.6144
N20150 X2.1885 Y-2.5962
N20155 X2.1742 Y-2.5749
N20160 X2.1603 Y-2.5575
N20165 X2.1443 Y-2.5405
N20170 X2.1255 Y-2.5234
N20175 X2.1086 Y-2.5103
N20180 X2.0867 Y-2.496
N20185 X2.0678 Y-2.4858
N20190 X2.0459 Y-2.4761
N20195 X2.0225 Y-2.468
N20200 X2.0014 Y-2.4625
N20205 X1.975 Y-2.4578
N20210 X1.9545 Y-2.4558
N20215 X1.93 Y-2.4555
N20220 X1.906 Y-2.4571
N20225 X1.8839 Y-2.4603
N20230 X1.8578 Y-2.4663
N20235 X1.8383 Y-2.4725
N20240 X1.8151 Y-2.482
N20245 X1.7943 Y-2.4925
N20250 X1.7748 Y-2.5044
N20255 X1.7536 Y-2.5198
N20260 X1.7378 Y-2.5333
N20265 X1.7197 Y-2.5515
N20270 X1.7052 Y-2.5687
N20275 X1.6916 Y-2.5877
N20280 X1.6785 Y-2.6096
N20285 X1.669 Y-2.6287
N20290 X1.6592 Y-2.6531
N20295 X1.6463 Y-2.6948
N20300 X1.6362 Y-2.7404
N20305 X1.6309 Y-2.7766
N20310 X1.6289 Y-2.8091
N20315 X1.6293 Y-2.8381
N20320 X1.632 Y-2.8656
N20325 X1.6368 Y-2.8921
N20330 X1.6434 Y-2.9171
N20335 X1.6519 Y-2.9413
N20340 X1.6623 Y-2.9646
N20345 X1.6743 Y-2.9867
N20350 X1.6882 Y-3.0079
N20355 X1.7039 Y-3.0282
N20360 X1.7211 Y-3.047
N20365 X1.7399 Y-3.0645
N20370 X1.7606 Y-3.0809
N20375 X1.7824 Y-3.0955
N20380 X1.8058 Y-3.1086
N20385 X1.8307 Y-3.12
N20390 X1.8565 Y-3.1294
N20395 X1.8836 Y-3.1369
N20400 X1.9115 Y-3.1421
N20405 X1.9399 Y-3.1452
N20410 X1.9694 Y-3.146
N20415 X1.9986 Y-3.1445
N20420 X2.0281 Y-3.1405
N20425 X2.0575 Y-3.1342
N20430 X2.0864 Y-3.1254
N20435 X2.115 Y-3.1142
N20440 X2.1429 Y-3.1006
N20445 X2.1695 Y-3.0848
N20450 X2.1951 Y-3.0667
N20455 X2.2193 Y-3.0465
N20460 X2.2418 Y-3.0244
N20465 X2.2629 Y-3.
N20470 X2.2818 Y-2.9744
N20475 X2.2987 Y-2.947
N20480 X2.3135 Y-2.9182
N20485 X2.3258 Y-2.8884
N20490 X2.336 Y-2.857
N20495 X2.3434 Y-2.8255
N20500 X2.3484 Y-2.7931
N20505 X2.3507 Y-2.7604
N20510 X2.3505 Y-2.7277
N20515 X2.3475 Y-2.6946
N20520 X2.342 Y-2.6623
N20525 X2.3338 Y-2.6301
N20530 X2.3231 Y-2.5989
N20535 X2.31 Y-2.5687
N20540 X2.2942 Y-2.5393
N20545 X2.2764 Y-2.5116
N20550 X2.2561 Y-2.485
N20555 X2.2341 Y-2.4604
N20560 X2.21 Y-2.4376
N20565 X2.1841 Y-2.4167
N20570 X2.1568 Y-2.3981
N20575 X2.1275 Y-2.3814
N20580 X2.0976 Y-2.3674
N20585 X2.0664 Y-2.3558
N20590 X2.0344 Y-2.3467
N20595 X2.002 Y-2.3403
N20600 X1.9685 Y-2.3363
N20605 X1.9355 Y-2.3352
N20610 X1.9021 Y-2.3367
N20615 X1.8691 Y-2.3408
N20620 X1.8367 Y-2.3476
N20625 X1.8044 Y-2.3571
N20630 X1.7736 Y-2.3689
N20635 X1.7434 Y-2.3833
N20640 X1.7146 Y-2.4
N20645 X1.6874 Y-2.419
N20650 X1.6615 Y-2.4403
N20655 X1.6377 Y-2.4632
N20660 X1.6154 Y-2.4885
N20665 X1.593 Y-2.5185
N20670 X1.572 Y-2.5517
N20675 X1.5525 Y-2.589
N20680 X1.5357 Y-2.6288
N20685 X1.522 Y-2.6698
N20690 X1.512 Y-2.7107
N20695 X1.5055 Y-2.7511
N20700 X1.5023 Y-2.7907
N20705 Y-2.8295
N20710 X1.5054 Y-2.8674
N20715 X1.5114 Y-2.9043
N20720 X1.5202 Y-2.9402
N20725 X1.5318 Y-2.975
N20730 X1.5461 Y-3.0086
N20735 X1.5629 Y-3.0407
N20740 X1.5823 Y-3.0714
N20745 X1.604 Y-3.1004
N20750 X1.6281 Y-3.1276
N20755 X1.6544 Y-3.153
N20760 X1.6827 Y-3.1762
N20765 X1.7131 Y-3.1973
N20770 X1.7453 Y-3.2159
N20775 X1.7791 Y-3.2321
N20780 X1.8144 Y-3.2456
N20785 X1.851 Y-3.2563
N20790 X1.8887 Y-3.2641
N20795 X1.9271 Y-3.2689
N20800 X1.9661 Y-3.2706
N20805 X2.0054 Y-3.2692
N20810 X2.0448 Y-3.2646
N20815 X2.0839 Y-3.2568
N20820 X2.1226 Y-3.2457
N20825 X2.1605 Y-3.2316
N20830 X2.1974 Y-3.2143
N20835 X2.2329 Y-3.194
N20840 X2.267 Y-3.1707
N20845 X2.2993 Y-3.1447
N20850 X2.3295 Y-3.116
N20855 X2.3575 Y-3.0848
N20860 X2.3829 Y-3.0514
N20865 X2.4057 Y-3.0158
N20870 X2.4257 Y-2.9784
N20875 X2.4426 Y-2.9394
N20880 X2.4564 Y-2.899
N20885 X2.4669 Y-2.8576
N20890 X2.4741 Y-2.8153
