%
O01002
(Using high feed G1 F500. instead of G0.)
(T6 D=0.1969 CR=0. TAPER=118deg - ZMIN=-0.5906 - drill)
N10 G90 G94 G17
N15 G20
N20 G53 G0 Z0.

(Drill6)
N25 T6 M6
N30 S5820 M3
N35 G54
N40 G1 X1.2258 Y0. F500.
N45 G0 G43 Z0.5906 H6
N50 G0 Z0.1969
N55 Z0.08
N60 G1 Z-0.0492 F28.661
N65 G0 Z-0.0453
N70 G1 Z-0.0984 F28.661
N75 G0 Z-0.0945
N80 G1 Z-0.1476 F28.661
N85 G0 Z-0.1437
N90 G1 Z-0.1969 F28.661
N95 G0 Z-0.1929
N100 G1 Z-0.2461 F28.661
N105 G0 Z-0.2421
N110 G1 Z-0.2953 F28.661
N115 G0 Z-0.2913
N120 G1 Z-0.3445 F28.661
N125 G0 Z-0.3406
N130 G1 Z-0.3937 F28.661
N135 G0 Z-0.3898
N140 G1 Z-0.4429 F28.661
N145 G0 Z-0.439
N150 G1 Z-0.4921 F28.661
N155 G0 Z-0.4882
N160 G1 Z-0.5413 F28.661
N165 G0 Z0.1969
N170 Z-0.4613
N175 G1 Z-0.5906 F28.661
N180 G0 Z0.1969
N185 G1 X0. Y-1.2258 F500.
N190 G0 Z0.08
N195 G1 Z-0.0492 F28.661
N200 G0 Z-0.0453
N205 G1 Z-0.0984 F28.661
N210 G0 Z-0.0945
N215 G1 Z-0.1476 F28.661
N220 G0 Z-0.1437
N225 G1 Z-0.1969 F28.661
N230 G0 Z-0.1929
N235 G1 Z-0.2461 F28.661
N240 G0 Z-0.2421
N245 G1 Z-0.2953 F28.661
N250 G0 Z-0.2913
N255 G1 Z-0.3445 F28.661
N260 G0 Z-0.3406
N265 G1 Z-0.3937 F28.661
N270 G0 Z-0.3898
N275 G1 Z-0.4429 F28.661
N280 G0 Z-0.439
N285 G1 Z-0.4921 F28.661
N290 G0 Z-0.4882
N295 G1 Z-0.5413 F28.661
N300 G0 Z0.1969
N305 Z-0.4613
N310 G1 Z-0.5906 F28.661
N315 G0 Z0.1969
N320 G1 X-1.2258 Y0. F500.
N325 G0 Z0.08
N330 G1 Z-0.0492 F28.661
N335 G0 Z-0.0453
N340 G1 Z-0.0984 F28.661
N345 G0 Z-0.0945
N350 G1 Z-0.1476 F28.661
N355 G0 Z-0.1437
N360 G1 Z-0.1969 F28.661
N365 G0 Z-0.1929
N370 G1 Z-0.2461 F28.661
N375 G0 Z-0.2421
N380 G1 Z-0.2953 F28.661
N385 G0 Z-0.2913
N390 G1 Z-0.3445 F28.661
N395 G0 Z-0.3406
N400 G1 Z-0.3937 F28.661
N405 G0 Z-0.3898
N410 G1 Z-0.4429 F28.661
N415 G0 Z-0.439
N420 G1 Z-0.4921 F28.661
N425 G0 Z-0.4882
N430 G1 Z-0.5413 F28.661
N435 G0 Z0.1969
N440 Z-0.4613
N445 G1 Z-0.5906 F28.661
N450 G0 Z0.1969
N455 G1 X0. Y1.2258 F500.
N460 G0 Z0.08
N465 G1 Z-0.0492 F28.661
N470 G0 Z-0.0453
N475 G1 Z-0.0984 F28.661
N480 G0 Z-0.0945
N485 G1 Z-0.1476 F28.661
N490 G0 Z-0.1437
N495 G1 Z-0.1969 F28.661
N500 G0 Z-0.1929
N505 G1 Z-0.2461 F28.661
N510 G0 Z-0.2421
N515 G1 Z-0.2953 F28.661
N520 G0 Z-0.2913
N525 G1 Z-0.3445 F28.661
N530 G0 Z-0.3406
N535 G1 Z-0.3937 F28.661
N540 G0 Z-0.3898
N545 G1 Z-0.4429 F28.661
N550 G0 Z-0.439
N555 G1 Z-0.4921 F28.661
N560 G0 Z-0.4882
N565 G1 Z-0.5413 F28.661
N570 G0 Z0.1969
N575 Z-0.4613
N580 G1 Z-0.5906 F28.661
N585 G0 Z0.1969
N590 Z0.5906

N595 M5
N600 G53 G0 Z0.
N605 X0.
N610 G53 G0 Y0.
N615 M30

%
