%
O01001
(Using high feed G1 F300. instead of G0.)
(T5 D=0.25 CR=0. - ZMIN=-0.95 - flat end mill)
(T6 D=0.375 CR=0. - ZMIN=-0.95 - flat end mill)
(T14 D=3. CR=0. - ZMIN=-0.05 - face mill)
(T18 D=0.75 CR=0. - ZMIN=-0.95 - reamer)
N10 G90 G17
N15 G20
N20 G53 G0 Z0.

(Face1)
N25 T14 M6
N30 S2000 M3
N35 G54
N40 G17 G90
N45 M8
N50 G1 X7.75 Y0.6 F300.
N55 G0 G43 Z0.6 H14
N60 T6
N65 G0 Z0.25
N70 G18 G3 X7.45 Z-0.05 I-0.3 K0. F30.
N75 G1 X7.3004
N80 X-1.2004
N85 G17 G2 Y2.429 I0. J0.9145
N90 G1 X7.3004
N95 G18 G2 X7.6004 Z0.25 I0. K0.3
N100 G0 Z0.6
N105 M9
N110 M5
N115 G53 G0 Z0.

(2D Adaptive1)
N120 M1
N125 T6 M6
N130 S15000 M3
N135 G54
N140 G17 G90
N145 M8
N150 G1 X2.8944 Y2.2429 F300.
N155 G0 G43 Z0.6 H6
N160 T18
N165 G0 Z0.2
N170 Z0.195
N175 G1 Z0.0575 F100.
N180 X2.8947 Z0.0485
N185 X2.8956 Y2.2427 Z0.0396
N190 X2.897 Y2.2424 Z0.0307
N195 X2.899 Y2.242 Z0.0219
N200 X2.9016 Y2.2415 Z0.0133
N205 X2.9047 Y2.2409 Z0.0049
N210 X2.9083 Y2.2401 Z-0.0033
N215 X2.9125 Y2.2393 Z-0.0112
N220 X2.9172 Y2.2383 Z-0.0189
N225 X2.9223 Y2.2373 Z-0.0262
N230 X2.9279 Y2.2362 Z-0.0332
N235 X2.9339 Y2.235 Z-0.0397
N240 X2.9404 Y2.2337 Z-0.0459
N245 X2.9472 Y2.2323 Z-0.0516
N250 X2.9543 Y2.2309 Z-0.0568
N255 X2.9618 Y2.2294 Z-0.0616
N260 X2.9696 Y2.2278 Z-0.0658
N265 X2.9776 Y2.2262 Z-0.0695
N270 X2.9859 Y2.2245 Z-0.0727
N275 X2.9943 Y2.2228 Z-0.0753
N280 X3.0029 Y2.2211 Z-0.0774
N285 X3.0116 Y2.2194 Z-0.0788
N290 X3.0204 Y2.2176 Z-0.0797
N295 X3.0292 Y2.2158 Z-0.08
N300 G3 X3.2346 Y2.1972 I0.1887 J0.9386
N305 G1 X3.2406 Y2.1975 F135.
N310 X3.2458 Y2.2005
N315 X3.2502 Y2.2046
N320 X3.2544 Y2.2092
N325 X3.258 Y2.2139
N330 X3.2613 Y2.2194
N335 X3.265 Y2.2266
N340 X3.2683 Y2.2349
N345 X3.2705 Y2.2418
N350 X3.2726 Y2.2507
N355 X3.2742 Y2.2617
N360 X3.2749 Y2.2731
N365 X3.2747 Y2.2832
N370 X3.2735 Y2.2956
N375 X3.2709 Y2.3103
N380 X3.2678 Y2.322
N385 X3.2633 Y2.335
N390 X3.2565 Y2.3503
N395 X3.2492 Y2.3637
N400 X3.2409 Y2.3765
N405 X3.2295 Y2.3911
N410 X3.2179 Y2.4038
N415 X3.2055 Y2.4154
N420 X3.1894 Y2.4283
N425 X3.1744 Y2.4383
N430 X3.1579 Y2.4475
N435 X3.1369 Y2.4572
N440 X3.1205 Y2.4631
N445 X3.1002 Y2.4688
N450 X3.078 Y2.473
N455 X3.0588 Y2.4751
N460 X3.0352 Y2.4758
N465 X3.0145 Y2.4747
N470 X2.9931 Y2.4718
N475 X2.9689 Y2.4666
N480 X2.95 Y2.4609
N485 X2.9275 Y2.4521
N490 X2.9076 Y2.4424
N495 X2.8886 Y2.4311
N500 X2.8676 Y2.4164
N505 X2.8521 Y2.4034
N510 X2.8345 Y2.3862
N515 X2.8197 Y2.3691
N520 X2.8063 Y2.351
N525 X2.7927 Y2.3291
N530 X2.7833 Y2.3107
N535 X2.7736 Y2.2873
N540 X2.7667 Y2.2661
N545 X2.7614 Y2.2437
N550 X2.7575 Y2.2185
N555 X2.756 Y2.1974
N560 X2.7562 Y2.1715
N565 X2.7581 Y2.1499
N570 X2.762 Y2.1266
N575 X2.7682 Y2.1024
N580 X2.7752 Y2.082
N585 X2.7857 Y2.0576
N590 X2.7956 Y2.0391
N595 X2.8086 Y2.0188
N600 X2.8234 Y1.9994
N605 X2.8381 Y1.9829
N610 X2.8578 Y1.9643
N615 X2.8735 Y1.9516
N620 X2.8939 Y1.9376
N625 X2.9145 Y1.9259
N630 X2.9349 Y1.9163
N635 X2.9597 Y1.907
N640 X2.9796 Y1.9014
N645 X3.0045 Y1.8964
N650 X3.0272 Y1.8937
N655 X3.0502 Y1.8929
N660 X3.0761 Y1.894
N665 X3.097 Y1.8966
N670 X3.1224 Y1.9019
N675 X3.1436 Y1.9081
N680 X3.1656 Y1.9165
N685 X3.1883 Y1.9274
N690 X3.207 Y1.9382
N695 X3.2289 Y1.9533
N700 X3.2452 Y1.9667
N705 X3.2626 Y1.9835
N710 X3.2914 Y2.0161
N715 X3.3194 Y2.0534
N720 X3.3394 Y2.0847
N725 X3.3548 Y2.1135
N730 X3.3664 Y2.1404
N735 X3.3754 Y2.1665
N740 X3.382 Y2.1927
N745 X3.3864 Y2.2184
N750 X3.3886 Y2.2438
N755 X3.3888 Y2.2693
N760 X3.387 Y2.2945
N765 X3.3831 Y2.3194
N770 X3.3772 Y2.3442
N775 X3.3693 Y2.3686
N780 X3.3595 Y2.3922
N785 X3.3474 Y2.4156
N790 X3.3335 Y2.4381
N795 X3.3177 Y2.4596
N800 X3.2996 Y2.4804
N805 X3.28 Y2.4996
N810 X3.2586 Y2.5174
N815 X3.2353 Y2.5339
N820 X3.2107 Y2.5484
N825 X3.1844 Y2.5612
N830 X3.1571 Y2.5719
N835 X3.1287 Y2.5804
N840 X3.0993 Y2.5868
N845 X3.0692 Y2.5908
N850 X3.0388 Y2.5924
N855 X3.0079 Y2.5915
N860 X2.9771 Y2.5881
N865 X2.9465 Y2.5823
N870 X2.9158 Y2.5738
N875 X2.8862 Y2.563
N880 X2.8572 Y2.5497
N885 X2.8293 Y2.534
N890 X2.8027 Y2.5162
N895 X2.7771 Y2.4959
N900 X2.7536 Y2.4739
N905 X2.7315 Y2.4497
N910 X2.7116 Y2.4239
N915 X2.6938 Y2.3966
N920 X2.678 Y2.3676
N925 X2.6648 Y2.3378
N930 X2.6538 Y2.3064
N935 X2.6455 Y2.2747
N940 X2.6397 Y2.2423
N945 X2.6365 Y2.2092
N950 X2.636 Y2.1763
N955 X2.6381 Y2.1429
N960 X2.6429 Y2.1103
N965 X2.6503 Y2.0781
N970 X2.6603 Y2.0463
N975 X2.6727 Y2.0158
N980 X2.6879 Y1.9856
N985 X2.705 Y1.9575
N990 X2.7245 Y1.9306
N995 X2.7461 Y1.9053
N1000 X2.7695 Y1.882
N1005 X2.7952 Y1.8602
N1010 X2.822 Y1.841
N1015 X2.8507 Y1.8237
N1020 X2.8804 Y1.8089
N1025 X2.9112 Y1.7966
N1030 X2.9432 Y1.7866
N1035 X2.9755 Y1.7794
N1040 X3.0087 Y1.7747
N1045 X3.0418 Y1.7727
N1050 X3.075 Y1.7734
N1055 X3.1083 Y1.7768
N1060 X3.1409 Y1.7827
N1065 X3.1734 Y1.7914
N1070 X3.2046 Y1.8025
N1075 X3.235 Y1.8161
N1080 X3.2675 Y1.834
N1085 X3.3001 Y1.8555
N1090 X3.3331 Y1.8813
N1095 X3.365 Y1.9106
N1100 X3.3944 Y1.9423
N1105 X3.4205 Y1.9755
N1110 X3.4432 Y2.0097
N1115 X3.4626 Y2.0446
N1120 X3.4786 Y2.0799
N1125 X3.4915 Y2.1157
N1130 X3.5013 Y2.1519
N1135 X3.5081 Y2.1883
N1140 X3.5119 Y2.2248
N1145 X3.5128 Y2.2612
N1150 X3.5107 Y2.2974
N1155 X3.5058 Y2.3333
N1160 X3.498 Y2.3687
N1165 X3.4873 Y2.4035
N1170 X3.4739 Y2.4374
N1175 X3.4576 Y2.4703
N1180 X3.4387 Y2.502
N1185 X3.4171 Y2.5323
N1190 X3.393 Y2.561
N1195 X3.3665 Y2.5879
N1200 X3.3376 Y2.6128
N1205 X3.3066 Y2.6354
N1210 X3.2736 Y2.6556
N1215 X3.2388 Y2.6733
N1220 X3.2025 Y2.6882
N1225 X3.1648 Y2.7003
N1230 X3.1259 Y2.7093
N1235 X3.0862 Y2.7153
N1240 X3.0459 Y2.718
N1245 X3.0051 Y2.7175
N1250 X2.9644 Y2.7138
N1255 X2.9238 Y2.7067
N1260 X2.8837 Y2.6963
N1265 X2.8443 Y2.6827
N1270 X2.806 Y2.6658
N1275 X2.769 Y2.6459
N1280 X2.7335 Y2.6229
N1285 X2.6999 Y2.5971
N1290 X2.6684 Y2.5686
N1295 X2.6391 Y2.5376
N1300 X2.6124 Y2.5042
N1305 X2.5884 Y2.4687
N1310 X2.5673 Y2.4313
N1315 X2.5492 Y2.3923
N1320 X2.5343 Y2.3518
N1325 X2.5226 Y2.3103
N1330 X2.5143 Y2.2678
N1335 X2.5095 Y2.2249
N1340 X2.5081 Y2.1816
N1345 X2.5102 Y2.1383
N1350 X2.5157 Y2.0953
N1355 X2.5247 Y2.0528
N1360 X2.5371 Y2.0112
N1365 X2.5528 Y1.9707
N1370 X2.5717 Y1.9315
N1375 X2.5937 Y1.894
N1380 X2.6186 Y1.8584
N1385 X2.6464 Y1.8248
N1390 X2.6767 Y1.7936
N1395 X2.7094 Y1.765
N1400 X2.7444 Y1.739
N1405 X2.7813 Y1.7159
N1410 X2.82 Y1.6959
N1415 X2.8602 Y1.679
N1420 X2.9015 Y1.6654
N1425 X2.9439 Y1.6552
N1430 X2.9869 Y1.6483
N1435 X3.0304 Y1.645
N1440 X3.074 Y1.6452
N1445 X3.1174 Y1.6489
N1450 X3.1604 Y1.656
N1455 X3.2036 Y1.6668
N1460 X3.2469 Y1.6814
N1465 X3.2898 Y1.6998
N1470 X3.3311 Y1.7215
N1475 X3.3706 Y1.7464
N1480 X3.4082 Y1.7741
N1485 X3.4437 Y1.8045
N1490 X3.4768 Y1.8374
N1495 X3.5074 Y1.8727
N1500 X3.5352 Y1.9101
N1505 X3.5603 Y1.9495
N1510 X3.5822 Y1.9907
N1515 X3.601 Y2.0335
N1520 X3.6165 Y2.0775
N1525 X3.6285 Y2.1227
N1530 X3.6369 Y2.1686
N1535 X3.6417 Y2.215
N1540 X3.6428 Y2.2617
N1545 X3.6402 Y2.3083
N1550 X3.6339 Y2.3546
N1555 X3.624 Y2.4002
N1560 X3.6104 Y2.4449
N1565 X3.5933 Y2.4883
N1570 X3.5728 Y2.5303
N1575 X3.5491 Y2.5705
N1580 X3.5223 Y2.6087
N1585 X3.4926 Y2.6448
N1590 X3.4602 Y2.6783
N1595 X3.4252 Y2.7093
N1600 X3.388 Y2.7376
N1605 X3.3488 Y2.7629
N1610 X3.3077 Y2.7851
N1615 X3.2651 Y2.8042
N1620 X3.2212 Y2.8201
N1625 X3.1762 Y2.8326
N1630 X3.1304 Y2.8416
N1635 X3.0841 Y2.8472
N1640 X3.0374 Y2.8494
N1645 X2.9908 Y2.8482
N1650 X2.9443 Y2.8435
N1655 X2.8983 Y2.8355
N1660 X2.853 Y2.8243
N1665 X2.8086 Y2.8098
N1670 X2.7653 Y2.7922
N1675 X2.7235 Y2.7716
N1680 X2.6832 Y2.7479
N1685 X2.6447 Y2.7214
N1690 X2.6083 Y2.6923
N1695 X2.5739 Y2.6607
N1700 X2.5419 Y2.6267
N1705 X2.5123 Y2.5906
N1710 X2.4852 Y2.5525
N1715 X2.461 Y2.5126
N1720 X2.4396 Y2.4711
N1725 X2.4213 Y2.4282
N1730 X2.4059 Y2.3841
N1735 X2.3937 Y2.339
N1740 X2.3846 Y2.2932
N1745 X2.3787 Y2.2469
N1750 X2.376 Y2.2003
N1755 X2.3766 Y2.1536
N1760 X2.3805 Y2.1071
N1765 X2.3876 Y2.0609
N1770 X2.3979 Y2.0154
N1775 X2.4113 Y1.9707
N1780 X2.4277 Y1.9269
N1785 X2.4471 Y1.8845
N1790 X2.4694 Y1.8435
N1795 X2.4946 Y1.8041
N1800 X2.5224 Y1.7667
N1805 X2.5528 Y1.7312
N1810 X2.5855 Y1.6979
N1815 X2.6204 Y1.6669
N1820 X2.6574 Y1.6384
N1825 X2.6963 Y1.6125
N1830 X2.7369 Y1.5894
N1835 X2.779 Y1.5692
N1840 X2.8224 Y1.552
N1845 X2.8668 Y1.5378
N1850 X2.9122 Y1.5266
N1855 X2.9582 Y1.5186
N1860 X3.0046 Y1.5138
N1865 X3.0513 Y1.5123
N1870 X3.0979 Y1.514
N1875 X3.1444 Y1.519
N1880 X3.1904 Y1.527
N1885 X3.2357 Y1.5381
N1890 X3.2802 Y1.5522
N1895 X3.3237 Y1.5692
N1900 X3.366 Y1.589
N1905 X3.4069 Y1.6115
N1910 X3.4464 Y1.6364
N1915 X3.4843 Y1.6637
N1920 X3.5204 Y1.6933
N1925 X3.5546 Y1.7251
N1930 X3.5867 Y1.759
N1935 X3.6167 Y1.7948
N1940 X3.6444 Y1.8324
N1945 X3.6699 Y1.8715
N1950 X3.6928 Y1.9122
N1955 X3.713 Y1.9543
N1960 X3.7306 Y1.9975
N1965 X3.7454 Y2.0418
N1970 X3.7575 Y2.0869
N1975 X3.7667 Y2.1327
N1980 X3.7728 Y2.179
N1985 X3.7759 Y2.2256
N1990 X3.776 Y2.2723
N1995 X3.7732 Y2.3189
N2000 X3.7674 Y2.3652
N2005 X3.7586 Y2.411
N2010 X3.7468 Y2.4562
N2015 X3.732 Y2.5005
N2020 X3.7145 Y2.5438
N2025 X3.6943 Y2.5859
N2030 X3.6714 Y2.6266
N2035 X3.6459 Y2.6657
N2040 X3.6179 Y2.7031
N2045 X3.5877 Y2.7386
N2050 X3.5552 Y2.7722
N2055 X3.5208 Y2.8037
N2060 X3.4843 Y2.8329
N2065 X3.4461 Y2.8598
N2070 X3.4063 Y2.8841
N2075 X3.3651 Y2.906
N2080 X3.3226 Y2.9254
N2085 X3.279 Y2.9421
N2090 X3.2344 Y2.9559
N2095 X3.189 Y2.967
N2100 X3.1431 Y2.9752
N2105 X3.0967 Y2.9807
N2110 X3.0501 Y2.9834
N2115 X3.0034 Y2.9833
N2120 X2.9568 Y2.9802
N2125 X2.9105 Y2.9744
N2130 X2.8646 Y2.9658
N2135 X2.8193 Y2.9545
N2140 X2.7747 Y2.9406
N2145 X2.731 Y2.924
N2150 X2.6885 Y2.9048
N2155 X2.6472 Y2.8831
N2160 X2.6072 Y2.859
N2165 X2.5687 Y2.8326
N2170 X2.5317 Y2.804
N2175 X2.4966 Y2.7732
N2180 X2.4633 Y2.7405
N2185 X2.432 Y2.7058
N2190 X2.4028 Y2.6694
N2195 X2.3758 Y2.6313
N2200 X2.3509 Y2.5918
N2205 X2.3285 Y2.5508
N2210 X2.3086 Y2.5086
N2215 X2.2911 Y2.4653
N2220 X2.2762 Y2.4211
N2225 X2.2638 Y2.3761
N2230 X2.254 Y2.3304
N2235 X2.2469 Y2.2843
N2240 X2.2426 Y2.2378
N2245 X2.2409 Y2.1911
N2250 X2.242 Y2.1444
N2255 X2.2457 Y2.0979
N2260 X2.2521 Y2.0516
N2265 X2.2612 Y2.0058
N2270 X2.2729 Y1.9606
N2275 X2.2872 Y1.9162
N2280 X2.3041 Y1.8726
N2285 X2.3234 Y1.8301
N2290 X2.3451 Y1.7888
N2295 X2.3692 Y1.7488
N2300 X2.3956 Y1.7103
N2305 X2.4242 Y1.6734
N2310 X2.4549 Y1.6382
N2315 X2.4875 Y1.6047
N2320 X2.5219 Y1.5732
N2325 X2.5582 Y1.5438
N2330 X2.5961 Y1.5165
N2335 X2.6355 Y1.4915
N2340 X2.6763 Y1.4688
N2345 X2.7183 Y1.4484
N2350 X2.7614 Y1.4305
N2355 X2.8055 Y1.4151
N2360 X2.8504 Y1.4023
N2365 X2.896 Y1.3921
N2370 X2.942 Y1.3846
N2375 X2.9885 Y1.3796
N2380 X3.0351 Y1.3774
N2385 X3.0818 Y1.3779
N2390 X3.1284 Y1.381
N2395 X3.1747 Y1.3868
N2400 X3.2207 Y1.3952
N2405 X3.2661 Y1.4061
N2410 X3.3108 Y1.4195
N2415 X3.3547 Y1.4354
N2420 X3.3977 Y1.4536
N2425 X3.4396 Y1.4742
N2430 X3.4803 Y1.497
N2435 X3.5199 Y1.5219
N2440 X3.558 Y1.5488
N2445 X3.5947 Y1.5777
N2450 X3.6297 Y1.6085
N2455 X3.6631 Y1.6412
N2460 X3.6947 Y1.6755
N2465 X3.7245 Y1.7115
N2470 X3.7524 Y1.7489
N2475 X3.7783 Y1.7877
N2480 X3.8021 Y1.8279
N2485 X3.8237 Y1.8693
N2490 X3.8431 Y1.9118
N2495 X3.8601 Y1.9553
N2500 X3.8749 Y1.9996
N2505 X3.8873 Y2.0446
N2510 X3.8973 Y2.0902
N2515 X3.9047 Y2.1363
N2520 X3.9096 Y2.1827
N2525 X3.912 Y2.2294
N2530 X3.9119 Y2.2761
N2535 X3.9093 Y2.3227
N2540 X3.9042 Y2.3691
N2545 X3.8966 Y2.4151
N2550 X3.8864 Y2.4607
N2555 X3.8737 Y2.5057
N2560 X3.8586 Y2.5499
N2565 X3.8413 Y2.5932
N2570 X3.8216 Y2.6355
N2575 X3.7996 Y2.6767
N2580 X3.7754 Y2.7166
N2585 X3.749 Y2.7552
N2590 X3.7207 Y2.7923
N2595 X3.6904 Y2.8278
N2600 X3.6583 Y2.8617
N2605 X3.6244 Y2.8938
N2610 X3.5888 Y2.9241
N2615 X3.5516 Y2.9523
N2620 X3.513 Y2.9786
N2625 X3.4731 Y3.0028
N2630 X3.432 Y3.0249
N2635 X3.3898 Y3.0449
N2640 X3.3465 Y3.0625
N2645 X3.3024 Y3.0778
N2650 X3.2576 Y3.0908
N2655 X3.2121 Y3.1014
N2660 X3.1891 Y3.1055
N2665 X3.1776 Y3.1073
N2670 X3.166 Y3.109
N2675 X3.1197 Y3.1151
N2680 X3.0732 Y3.1188
N2685 X3.0265 Y3.1199
N2690 X2.9798 Y3.1186
N2695 X2.9333 Y3.1149
N2700 X2.887 Y3.1088
N2705 X2.8411 Y3.1004
N2710 X2.7956 Y3.0897
N2715 X2.7508 Y3.0767
N2720 X2.7067 Y3.0613
N2725 X2.6634 Y3.0437
N2730 X2.6211 Y3.024
N2735 X2.5799 Y3.0021
N2740 X2.5398 Y2.9782
N2745 X2.5009 Y2.9524
N2750 X2.4633 Y2.9246
N2755 X2.4273 Y2.8949
N2760 X2.3928 Y2.8635
N2765 X2.3599 Y2.8303
N2770 X2.3287 Y2.7956
N2775 X2.2992 Y2.7594
N2780 X2.2716 Y2.7217
N2785 X2.2459 Y2.6827
N2790 X2.2222 Y2.6425
N2795 X2.2006 Y2.6011
N2800 X2.1811 Y2.5587
N2805 X2.1636 Y2.5154
N2810 X2.1483 Y2.4713
N2815 X2.1352 Y2.4265
N2820 X2.1243 Y2.3811
N2825 X2.1158 Y2.3352
N2830 X2.115 Y2.3294
N2835 X2.109 Y2.2831
N2840 X2.1054 Y2.2365
N2845 X2.104 Y2.1899
N2850 X2.1049 Y2.1432
N2855 X2.1081 Y2.0966
N2860 X2.1136 Y2.0502
N2865 X2.1214 Y2.0042
N2870 X2.1315 Y1.9586
N2875 X2.1439 Y1.9136
N2880 X2.1585 Y1.8692
N2885 X2.1752 Y1.8256
N2890 X2.194 Y1.7829
N2895 X2.2149 Y1.7411
N2900 X2.2379 Y1.7005
N2905 X2.2629 Y1.6611
N2910 X2.2898 Y1.6229
N2915 X2.3186 Y1.5861
N2920 X2.3338 Y1.5684
N2925 X2.3416 Y1.5598
N2930 X2.3456 Y1.5555
N2935 X2.3774 Y1.5213
N2940 X2.411 Y1.4889
N2945 X2.4461 Y1.4581
N2950 X2.4828 Y1.4292
N2955 X2.5209 Y1.4022
N2960 X2.5602 Y1.377
N2965 X2.6007 Y1.3538
N2970 X2.6423 Y1.3325
N2975 X2.6849 Y1.3135
N2980 X2.7284 Y1.2965
N2985 X2.7727 Y1.2818
N2990 X2.8177 Y1.2692
N2995 X2.8632 Y1.2589
N3000 X2.8862 Y1.2548
N3005 X2.8977 Y1.2531
N3010 X2.9093 Y1.2515
N3015 X2.9556 Y1.2454
N3020 X3.0021 Y1.2417
N3025 X3.0488 Y1.2404
N3030 X3.0955 Y1.2414
N3035 X3.1421 Y1.2447
N3040 X3.1884 Y1.2502
N3045 X3.2345 Y1.258
N3050 X3.2801 Y1.2679
N3055 X3.3252 Y1.28
N3060 X3.3696 Y1.2943
N3065 X3.4133 Y1.3108
N3070 X3.4562 Y1.3292
N3075 X3.4983 Y1.3496
N3080 X3.5393 Y1.3719
N3085 X3.5793 Y1.396
N3090 X3.6181 Y1.422
N3095 X3.6556 Y1.4497
N3100 X3.6918 Y1.4792
N3105 X3.6964 Y1.4828
N3110 X3.7012 Y1.4865
N3115 X3.7061 Y1.4904
N3120 X3.7112 Y1.4945
N3125 X3.7158 Y1.4983
N3130 X3.7204 Y1.5021
N3135 X3.725 Y1.506
N3140 X3.7296 Y1.5099
N3145 X3.7342 Y1.5139
N3150 X3.7389 Y1.5181
N3155 X3.7438 Y1.5224
N3160 X3.7489 Y1.527
N3165 X3.7538 Y1.5316
N3170 X3.7582 Y1.5357
N3175 X3.7625 Y1.5398
N3180 X3.7669 Y1.5441
N3185 X3.7714 Y1.5485
N3190 X3.7761 Y1.5531
N3195 X3.7809 Y1.5579
N3200 X3.7858 Y1.563
N3205 X3.7909 Y1.5682
N3210 X3.7952 Y1.5728
N3215 X3.7993 Y1.5772
N3220 X3.8035 Y1.5818
N3225 X3.8079 Y1.5866
N3230 X3.8124 Y1.5916
N3235 X3.817 Y1.5969
N3240 X3.8218 Y1.6024
N3245 X3.8267 Y1.6081
N3250 X3.8309 Y1.6131
N3255 X3.8349 Y1.6179
N3260 X3.8389 Y1.6228
N3265 X3.8431 Y1.628
N3270 X3.8474 Y1.6334
N3275 X3.8518 Y1.6391
N3280 X3.8564 Y1.645
N3285 X3.861 Y1.6511
N3290 X3.865 Y1.6564
N3295 X3.8687 Y1.6615
N3300 X3.8726 Y1.6669
N3305 X3.8766 Y1.6724
N3310 X3.8807 Y1.6782
N3315 X3.8849 Y1.6844
N3320 X3.8892 Y1.6908
N3325 X3.8935 Y1.6971
N3330 X3.8971 Y1.7026
N3335 X3.9006 Y1.708
N3340 X3.9043 Y1.7138
N3345 X3.908 Y1.7197
N3350 X3.9119 Y1.726
N3355 X3.9159 Y1.7326
N3360 X3.92 Y1.7395
N3365 X3.9237 Y1.7457
N3370 X3.927 Y1.7513
N3375 X3.9303 Y1.7572
N3380 X3.9337 Y1.7633
N3385 X3.9372 Y1.7697
N3390 X3.9409 Y1.7764
N3395 X3.9446 Y1.7835
N3400 X3.9483 Y1.7905
N3405 X3.9513 Y1.7965
N3410 X3.9543 Y1.8025
N3415 X3.9574 Y1.8087
N3420 X3.9606 Y1.8153
N3425 X3.9638 Y1.8221
N3430 X3.9672 Y1.8293
N3435 X3.9706 Y1.8368
N3440 X3.9735 Y1.8434
N3445 X3.9762 Y1.8494
N3450 X3.9789 Y1.8557
N3455 X3.9817 Y1.8623
N3460 X3.9845 Y1.8692
N3465 X3.9875 Y1.8764
N3470 X3.9905 Y1.884
N3475 X3.9933 Y1.8913
N3480 X3.9957 Y1.8975
N3485 X3.998 Y1.9038
N3490 X4.0004 Y1.9103
N3495 X4.0028 Y1.9172
N3500 X4.0053 Y1.9244
N3505 X4.0079 Y1.9319
N3510 X4.0104 Y1.9397
N3515 X4.0126 Y1.9464
N3520 X4.0146 Y1.9527
N3525 X4.0166 Y1.9593
N3530 X4.0186 Y1.9661
N3535 X4.0207 Y1.9733
N3540 X4.0239 Y1.9848
N3545 X4.026 Y1.9926
N3550 X4.0278 Y1.9994
N3555 X4.0294 Y2.0058
N3560 X4.0311 Y2.0125
N3565 X4.0328 Y2.0196
N3570 X4.0344 Y2.0269
N3575 X4.0362 Y2.0346
N3580 X4.0379 Y2.0426
N3585 X4.0394 Y2.05
N3590 X4.0407 Y2.0565
N3595 X4.042 Y2.0632
N3600 X4.0433 Y2.0702
N3605 X4.0446 Y2.0775
N3610 X4.0459 Y2.0852
N3615 X4.0472 Y2.0932
N3620 X4.0485 Y2.1012
N3625 X4.0495 Y2.1079
N3630 X4.0504 Y2.1146
N3635 X4.0513 Y2.1216
N3640 X4.0522 Y2.1289
N3645 X4.0531 Y2.1365
N3650 X4.054 Y2.1445
N3655 X4.0549 Y2.1527
N3660 X4.0555 Y2.1599
N3665 X4.0561 Y2.1665
N3670 X4.0567 Y2.1734
N3675 X4.0572 Y2.1806
N3680 X4.0577 Y2.1882
N3685 X4.0582 Y2.196
N3690 X4.0586 Y2.2043
N3695 X4.0589 Y2.212
N3700 X4.0592 Y2.2186
N3705 X4.0594 Y2.2254
N3710 X4.0595 Y2.2324
N3715 X4.0596 Y2.2398
N3720 X4.0597 Y2.2475
N3725 Y2.2555
N3730 X4.0596 Y2.2637
N3735 X4.0595 Y2.2706
N3740 X4.0594 Y2.2772
N3745 X4.0591 Y2.2841
N3750 X4.0589 Y2.2913
N3755 X4.0585 Y2.2988
N3760 X4.0581 Y2.3066
N3765 X4.0577 Y2.3148
N3770 X4.0572 Y2.3223
N3775 X4.0567 Y2.3289
N3780 X4.0561 Y2.3356
N3785 X4.0555 Y2.3427
N3790 X4.0548 Y2.35
N3795 X4.054 Y2.3577
N3800 X4.0531 Y2.3657
N3805 X4.0522 Y2.3737
N3810 X4.0513 Y2.3805
N3815 X4.0504 Y2.3871
N3820 X4.0495 Y2.394
N3825 X4.0484 Y2.4012
N3830 X4.0472 Y2.4087
N3835 X4.0459 Y2.4166
N3840 X4.0445 Y2.4248
N3845 X4.0433 Y2.4319
N3850 X4.0421 Y2.4384
N3855 X4.0407 Y2.4452
N3860 X4.0393 Y2.4523
N3865 X4.0378 Y2.4596
N3870 X4.0361 Y2.4673
N3875 X4.0343 Y2.4753
N3880 X4.0326 Y2.4829
N3885 X4.031 Y2.4894
N3890 X4.0294 Y2.4961
N3895 X4.0276 Y2.503
N3900 X4.0257 Y2.5101
N3905 X4.0237 Y2.5176
N3910 X4.0215 Y2.5254
N3915 X4.0193 Y2.5333
N3920 X4.0173 Y2.5399
N3925 X4.0154 Y2.5463
N3930 X4.0133 Y2.553
N3935 X4.0111 Y2.5599
N3940 X4.0087 Y2.5671
N3945 X4.0062 Y2.5746
N3950 X4.0035 Y2.5825
N3955 X4.0011 Y2.5895
N3960 X3.9989 Y2.5957
N3965 X3.9965 Y2.6021
N3970 X3.994 Y2.6087
N3975 X3.9913 Y2.6156
N3980 X3.9885 Y2.6228
N3985 X3.9855 Y2.6303
N3990 X3.9825 Y2.6377
N3995 X3.9799 Y2.6439
N4000 X3.9772 Y2.6501
N4005 X3.9744 Y2.6565
N4010 X3.9715 Y2.6632
N4015 X3.9683 Y2.6701
N4020 X3.965 Y2.6773
N4025 X3.9615 Y2.6848
N4030 X3.9584 Y2.6913
N4035 X3.9554 Y2.6972
N4040 X3.9523 Y2.7034
N4045 X3.9491 Y2.7098
N4050 X3.9456 Y2.7165
N4055 X3.942 Y2.7235
N4060 X3.9381 Y2.7307
N4065 X3.9344 Y2.7375
N4070 X3.9294 Y2.7464
N4075 X3.9242 Y2.7556
N4080 X3.9204 Y2.762
N4085 X3.9164 Y2.7687
N4090 X3.9122 Y2.7757
N4095 X3.9079 Y2.7827
N4100 X3.9043 Y2.7885
N4105 X3.9006 Y2.7942
N4110 X3.8968 Y2.8002
N4115 X3.8928 Y2.8064
N4120 X3.8885 Y2.8128
N4125 X3.8839 Y2.8195
N4130 X3.8792 Y2.8264
N4135 X3.8751 Y2.8323
N4140 X3.8712 Y2.8378
N4145 X3.8671 Y2.8435
N4150 X3.8628 Y2.8494
N4155 X3.8582 Y2.8555
N4160 X3.8534 Y2.8619
N4165 X3.8484 Y2.8685
N4170 X3.8437 Y2.8745
N4175 X3.8396 Y2.8798
N4180 X3.8353 Y2.8851
N4185 X3.8307 Y2.8907
N4190 X3.826 Y2.8965
N4195 X3.821 Y2.9024
N4200 X3.8157 Y2.9087
N4205 X3.8104 Y2.9148
N4210 X3.8059 Y2.9199
N4215 X3.8014 Y2.925
N4220 X3.7967 Y2.9302
N4225 X3.7917 Y2.9356
N4230 X3.7865 Y2.9413
N4235 X3.7809 Y2.9471
N4240 X3.7752 Y2.9531
N4245 X3.7702 Y2.9583
N4250 X3.7655 Y2.9631
N4255 X3.7605 Y2.968
N4260 X3.7553 Y2.9731
N4265 X3.7499 Y2.9784
N4270 X3.7441 Y2.984
N4275 X3.738 Y2.9897
N4280 X3.7325 Y2.9949
N4285 X3.7275 Y2.9994
N4290 X3.7223 Y3.0041
N4295 X3.7169 Y3.0089
N4300 X3.7112 Y3.0139
N4305 X3.7052 Y3.0191
N4310 X3.6988 Y3.0245
N4315 X3.6927 Y3.0296
N4320 X3.6875 Y3.0339
N4325 X3.6821 Y3.0383
N4330 X3.6764 Y3.0428
N4335 X3.6705 Y3.0475
N4340 X3.6642 Y3.0524
N4345 X3.6577 Y3.0574
N4350 X3.6511 Y3.0624
N4355 X3.6455 Y3.0665
N4360 X3.6399 Y3.0706
N4365 X3.6341 Y3.0748
N4370 X3.6279 Y3.0792
N4375 X3.6215 Y3.0837
N4380 X3.6147 Y3.0884
N4385 X3.6077 Y3.0931
N4390 X3.6018 Y3.097
N4395 X3.5961 Y3.1007
N4400 X3.5901 Y3.1046
N4405 X3.5838 Y3.1086
N4410 X3.5773 Y3.1127
N4415 X3.5703 Y3.1169
N4420 X3.5631 Y3.1213
N4425 X3.5213 Y3.1422
N4430 X3.4789 Y3.1616
N4435 X3.4358 Y3.1796
N4440 X3.392 Y3.1959
N4445 X3.3476 Y3.2105
N4450 X3.3252 Y3.2168
N4455 X3.3139 Y3.2197
N4460 X3.2969 Y3.2239
N4465 X3.286 Y3.2282
N4470 X3.2758 Y3.2339
N4475 X3.2665 Y3.2409
N4480 X3.2332 Y3.2736
N4485 X3.2099 Y3.3141
N4490 X3.1907 Y3.3472
N4495 X3.177 Y3.3671
N4500 X3.1679 Y3.3782
N4505 X3.1578 Y3.3887
N4510 X3.1504 Y3.3952
N4515 X3.1417 Y3.4017
N4520 X3.1363 Y3.4051
N4525 X3.1291 Y3.4089
N4530 X3.1236 Y3.4112
N4535 X3.1207 Y3.4121
N4540 X3.1178 Y3.4129
N4545 X3.0857 Y3.379
N4550 X3.0479 Y3.3516
N4555 X3.007 Y3.329
N4560 X2.9644 Y3.3099
N4565 X2.9209 Y3.293
N4570 X2.8768 Y3.2775
N4575 X2.8326 Y3.2626
N4580 X2.7884 Y3.2476
N4585 X2.7444 Y3.2319
N4590 X2.7007 Y3.2154
N4595 X2.6575 Y3.1978
N4600 X2.6148 Y3.1788
N4605 X2.5728 Y3.1585
N4610 X2.5315 Y3.1366
N4615 X2.4911 Y3.1132
N4620 X2.4517 Y3.0881
N4625 X2.4134 Y3.0614
N4630 X2.3762 Y3.0332
N4635 X2.3403 Y3.0034
N4640 X2.3056 Y2.9721
N4645 X2.2722 Y2.9395
N4650 X2.2403 Y2.9054
N4655 X2.2099 Y2.87
N4660 X2.1811 Y2.8332
N4665 X2.1539 Y2.7952
N4670 X2.1284 Y2.7561
N4675 X2.1046 Y2.716
N4680 X2.0826 Y2.6748
N4685 X2.0622 Y2.6328
N4690 X2.0438 Y2.5899
N4695 X2.0272 Y2.5462
N4700 X2.0126 Y2.5019
N4705 X2.0063 Y2.4794
N4710 X2.0033 Y2.4681
N4715 X2.0019 Y2.4625
N4720 X1.9991 Y2.4511
N4725 X1.9949 Y2.4403
N4730 X1.9892 Y2.4301
N4735 X1.9613 Y2.3926
N4740 X1.9236 Y2.365
N4745 X1.885 Y2.3387
N4750 X1.8667 Y2.3242
N4755 X1.8546 Y2.3133
N4760 X1.8435 Y2.3016
N4765 X1.8428 Y2.3007
N4770 X1.8351 Y2.2894
N4775 X1.8292 Y2.2771
N4780 X1.8254 Y2.264
N4785 X1.8236 Y2.2504
N4790 X1.8235 Y2.2493
N4795 Y2.2478
N4800 X1.8526 Y2.2113
N4805 X1.8763 Y2.171
N4810 X1.896 Y2.1287
N4815 X1.9132 Y2.0853
N4820 X1.9288 Y2.0413
N4825 X1.9436 Y1.997
N4830 X1.951 Y1.9748
N4835 X1.9617 Y1.9432
N4840 X1.9681 Y1.9244
N4845 X1.9742 Y1.9074
N4850 X1.981 Y1.8886
N4855 X1.9857 Y1.8758
N4860 X1.9904 Y1.8635
N4865 X1.9955 Y1.8503
N4870 X2.001 Y1.8362
N4875 X2.0052 Y1.8259
N4880 X2.0093 Y1.8159
N4885 X2.0138 Y1.8053
N4890 X2.0187 Y1.794
N4895 X2.0236 Y1.7827
N4900 X2.0275 Y1.7741
N4905 X2.0315 Y1.7653
N4910 X2.0358 Y1.7559
N4915 X2.0405 Y1.7461
N4920 X2.0455 Y1.7358
N4925 X2.0495 Y1.7275
N4930 X2.0535 Y1.7196
N4935 X2.0578 Y1.7113
N4940 X2.0623 Y1.7025
N4945 X2.0672 Y1.6933
N4950 X2.0721 Y1.6843
N4955 X2.0761 Y1.677
N4960 X2.0802 Y1.6695
N4965 X2.0847 Y1.6616
N4970 X2.0895 Y1.6533
N4975 X2.0946 Y1.6446
N4980 X2.0995 Y1.6364
N4985 X2.1036 Y1.6296
N4990 X2.108 Y1.6225
N4995 X2.1127 Y1.615
N5000 X2.117 Y1.6082
N5005 X2.1237 Y1.5979
N5010 X2.1305 Y1.5877
N5015 X2.1354 Y1.5805
N5020 X2.142 Y1.5709
N5025 X2.1473 Y1.5605
N5030 X2.1512 Y1.5495
N5035 X2.1535 Y1.5381
N5040 X2.1552 Y1.5148
N5045 X2.1525 Y1.5006
N5050 X2.1873 Y1.4695
N5055 X2.2222 Y1.4385
N5060 X2.2574 Y1.4077
N5065 X2.2752 Y1.3927
N5070 X2.2884 Y1.3818
N5075 X2.2977 Y1.3742
N5080 X2.3075 Y1.3663
N5085 X2.3181 Y1.3579
N5090 X2.3293 Y1.3492
N5095 X2.3378 Y1.3428
N5100 X2.3462 Y1.3364
N5105 X2.3553 Y1.3296
N5110 X2.3651 Y1.3225
N5115 X2.3748 Y1.3154
N5120 X2.3825 Y1.31
N5125 X2.3904 Y1.3045
N5130 X2.3988 Y1.2987
N5135 X2.4078 Y1.2926
N5140 X2.4172 Y1.2863
N5145 X2.4248 Y1.2814
N5150 X2.4321 Y1.2766
N5155 X2.4399 Y1.2717
N5160 X2.4481 Y1.2666
N5165 X2.4568 Y1.2612
N5170 X2.4656 Y1.2559
N5175 X2.4727 Y1.2517
N5180 X2.4799 Y1.2474
N5185 X2.4876 Y1.2431
N5190 X2.4956 Y1.2385
N5195 X2.5042 Y1.2338
N5200 X2.5128 Y1.2291
N5205 X2.5198 Y1.2253
N5210 X2.527 Y1.2215
N5215 X2.5345 Y1.2176
N5220 X2.5424 Y1.2136
N5225 X2.5508 Y1.2094
N5230 X2.5595 Y1.2051
N5235 X2.5667 Y1.2016
N5240 X2.5738 Y1.1983
N5245 X2.5813 Y1.1949
N5250 X2.5891 Y1.1913
N5255 X2.5974 Y1.1876
N5260 X2.6061 Y1.1838
N5265 X2.6139 Y1.1805
N5270 X2.6209 Y1.1775
N5275 X2.6283 Y1.1745
N5280 X2.636 Y1.1714
N5285 X2.6442 Y1.1682
N5290 X2.6528 Y1.1648
N5295 X2.6613 Y1.1616
N5300 X2.6684 Y1.159
N5305 X2.6757 Y1.1564
N5310 X2.6834 Y1.1537
N5315 X2.6908 Y1.1511
N5320 X2.6981 Y1.1487
N5325 X2.7054 Y1.1463
N5330 X2.7127 Y1.144
N5335 X2.7201 Y1.1417
N5340 X2.7278 Y1.1393
N5345 X2.7359 Y1.1369
N5350 X2.7445 Y1.1345
N5355 X2.7535 Y1.1319
N5360 X2.7626 Y1.1295
N5365 X2.7737 Y1.1266
N5370 X2.7851 Y1.1237
N5375 X2.7959 Y1.1194
N5380 X2.8061 Y1.1137
N5385 X2.8433 Y1.0855
N5390 X2.8696 Y1.0469
N5395 X2.8734 Y1.0413
N5400 X2.8775 Y1.0354
N5405 X2.8817 Y1.0293
N5410 X2.8852 Y1.0244
N5415 X2.8887 Y1.0195
N5420 X2.8923 Y1.0147
N5425 X2.896 Y1.01
N5430 X2.8997 Y1.0053
N5435 X2.9036 Y1.0007
N5440 X2.9075 Y0.9961
N5445 X2.9115 Y0.9916
N5450 X2.914 Y0.989
N5455 X2.9238 Y0.9801
N5460 X2.9349 Y0.9728
N5465 X2.9469 Y0.9672
N5470 X2.9597 Y0.9635
N5475 X2.9729 Y0.9618
N5480 X2.9882 Y0.961
N5485 X2.9897
N5490 X3.0242 Y0.9925
N5495 X3.0631 Y1.0183
N5500 X3.1046 Y1.0397
N5505 X3.1475 Y1.0582
N5510 X3.1912 Y1.0746
N5515 X3.2353 Y1.09
N5520 X3.2794 Y1.1051
N5525 X3.3236 Y1.1204
N5530 X3.3675 Y1.1364
N5535 X3.411 Y1.1531
N5540 X3.4542 Y1.171
N5545 X3.4968 Y1.1901
N5550 X3.5388 Y1.2105
N5555 X3.58 Y1.2325
N5560 X3.6204 Y1.2559
N5565 X3.6599 Y1.2807
N5570 X3.6986 Y1.3068
N5575 X3.7366 Y1.334
N5580 X3.7735 Y1.3626
N5585 X3.8093 Y1.3925
N5590 X3.844 Y1.4239
N5595 X3.8773 Y1.4566
N5600 X3.9092 Y1.4907
N5605 X3.9397 Y1.526
N5610 X3.9686 Y1.5626
N5615 X3.9961 Y1.6004
N5620 X4.0219 Y1.6393
N5625 X4.0461 Y1.6793
N5630 X4.0686 Y1.7202
N5635 X4.0894 Y1.7619
N5640 X4.1085 Y1.8046
N5645 X4.1259 Y1.8479
N5650 X4.1414 Y1.8919
N5655 X4.1483 Y1.9143
N5660 X4.1715 Y1.9548
N5665 X4.2025 Y1.9896
N5670 X4.2357 Y2.0225
N5675 X4.2515 Y2.0397
N5680 X4.2551 Y2.044
N5685 X4.263 Y2.0554
N5690 X4.2691 Y2.0679
N5695 X4.273 Y2.0812
N5700 X4.2748 Y2.095
N5705 X4.2765 Y2.1257
N5710 Y2.1317
N5715 X4.2753 Y2.1376
N5720 X4.2587 Y2.1813
N5725 X4.2452 Y2.2259
N5730 X4.2336 Y2.2712
N5735 X4.2232 Y2.3167
N5740 X4.213 Y2.3623
N5745 X4.2028 Y2.4078
N5750 X4.1919 Y2.4532
N5755 X4.1801 Y2.4984
N5760 X4.1672 Y2.5433
N5765 X4.153 Y2.5878
N5770 X4.1374 Y2.6318
N5775 X4.1203 Y2.6752
N5780 X4.1016 Y2.718
N5785 X4.0813 Y2.7601
N5790 X4.0595 Y2.8013
N5795 X4.0361 Y2.8417
N5800 X4.0214 Y2.886
N5805 X4.0132 Y2.932
N5810 X4.0127 Y2.9347
N5815 X4.0088 Y2.948
N5820 X4.0029 Y2.9604
N5825 X3.995 Y2.9718
N5830 X3.9878 Y2.9808
N5835 X3.9805 Y2.9896
N5840 X3.9764 Y2.9941
N5845 X3.9397 Y3.0229
N5850 X3.867 Y3.0815
N5855 X3.8304 Y3.1105
N5860 X3.7934 Y3.1389
N5865 X3.7557 Y3.1664
N5870 X3.7169 Y3.1926
N5875 X3.6773 Y3.2172
N5880 X3.6367 Y3.2403
N5885 X3.5954 Y3.262
N5890 X3.5533 Y3.2823
N5895 X3.5105 Y3.301
N5900 X3.4692 Y3.3228
N5905 X3.4311 Y3.3498
N5910 X3.4225 Y3.3559
N5915 X3.4132 Y3.3608
N5920 X3.4032 Y3.3642
N5925 X3.3252 Y3.3851
N5930 X3.3139 Y3.3881
N5935 X3.3027 Y3.3908
N5940 X3.2016 Y3.4068
N5945 X3.1904 Y3.4083
N5950 X3.1679 Y3.4106
N5955 X3.1567 Y3.4116
N5960 X3.0556 Y3.4169
N5965 X3.0444
N5970 X2.9433 Y3.4116
N5975 X2.9321 Y3.4106
N5980 X2.9096 Y3.4083
N5985 X2.8984 Y3.4068
N5990 X2.8759 Y3.4033
N5995 X2.8302 Y3.3937
N6000 X2.7845 Y3.3844
N6005 X2.7392 Y3.3729
N6010 X2.6945 Y3.3596
N6015 X2.6503 Y3.3445
N6020 X2.6067 Y3.3278
N6025 X2.5637 Y3.3095
N6030 X2.5214 Y3.2897
N6035 X2.4799 Y3.2684
N6040 X2.4391 Y3.2457
N6045 X2.3992 Y3.2214
N6050 X2.3602 Y3.1957
N6055 X2.3222 Y3.1686
N6060 X2.2853 Y3.14
N6065 X2.2494 Y3.1101
N6070 X2.2146 Y3.079
N6075 X2.1811 Y3.0465
N6080 X2.1487 Y3.0128
N6085 X2.1177 Y2.9779
N6090 X2.0881 Y2.9418
N6095 X2.0599 Y2.9046
N6100 X2.0331 Y2.8664
N6105 X2.0078 Y2.8271
N6110 X1.984 Y2.7869
N6115 X1.9618 Y2.7459
N6120 X1.9411 Y2.704
N6125 X1.922 Y2.6614
N6130 X1.9015 Y2.6195
N6135 X1.8999 Y2.6167
N6140 X1.8984 Y2.6139
N6145 X1.8972 Y2.611
N6150 X1.8876 Y2.586
N6155 X1.8839 Y2.575
N6160 X1.8763 Y2.5518
N6165 X1.8734 Y2.5413
N6170 X1.8524 Y2.4627
N6175 X1.8494 Y2.4514
N6180 X1.8467 Y2.4402
N6185 X1.8307 Y2.3391
N6190 X1.8292 Y2.3279
N6195 X1.8269 Y2.3054
N6200 X1.8259 Y2.2942
N6205 X1.8236 Y2.2504
N6210 X1.8235 Y2.2493
N6215 X1.8206 Y2.1931
N6220 Y2.1819
N6225 X1.8259 Y2.0808
N6230 X1.8269 Y2.0696
N6235 X1.8292 Y2.0471
N6240 X1.8307 Y2.0359
N6245 X1.8467 Y1.9348
N6250 X1.8494 Y1.9236
N6255 X1.8539 Y1.9067
N6260 X1.8734 Y1.8337
N6265 X1.8763 Y1.8232
N6270 X1.8839 Y1.8
N6275 X1.8876 Y1.7888
N6280 X1.9221 Y1.6989
N6285 X1.927 Y1.6877
N6290 X1.9321 Y1.6765
N6295 X1.9665 Y1.6091
N6300 X1.984 Y1.5754
N6305 X1.9887 Y1.5671
N6310 X2.0343 Y1.4968
N6315 X2.0568 Y1.4631
N6320 X2.0655 Y1.4519
N6325 X2.1122 Y1.3942
N6330 X2.1202 Y1.3845
N6335 X2.1392 Y1.362
N6340 X2.1459 Y1.3549
N6345 X2.2174 Y1.2834
N6350 X2.2245 Y1.2767
N6355 X2.247 Y1.2577
N6360 X2.2582 Y1.2485
N6365 X2.3144 Y1.203
N6370 X2.3256 Y1.1943
N6375 X2.3604 Y1.1711
N6380 X2.4296 Y1.1262
N6385 X2.4379 Y1.1215
N6390 X2.4716 Y1.104
N6395 X2.539 Y1.0696
N6400 X2.5502 Y1.0645
N6405 X2.5614 Y1.0596
N6410 X2.6515 Y1.0251
N6415 X2.6625 Y1.0214
N6420 X2.6857 Y1.0139
N6425 X2.6962 Y1.0109
N6430 X2.7748 Y0.9899
N6435 X2.7861 Y0.9869
N6440 X2.7973 Y0.9842
N6445 X2.8984 Y0.9682
N6450 X2.9096 Y0.9667
N6455 X2.9321 Y0.9644
N6460 X2.9433 Y0.9634
N6465 X2.9729 Y0.9618
N6470 X2.9761 Y0.9619
N6475 X2.98 Y0.962
N6480 X2.9838 Y0.9616
N6485 X2.9882 Y0.961
N6490 X3.0444 Y0.9581
N6495 X3.0556
N6500 X3.1567 Y0.9634
N6505 X3.1679 Y0.9644
N6510 X3.1904 Y0.9667
N6515 X3.2016 Y0.9682
N6520 X3.3027 Y0.9842
N6525 X3.3139 Y0.9869
N6530 X3.3308 Y0.9914
N6535 X3.4038 Y1.0109
N6540 X3.4143 Y1.0139
N6545 X3.4375 Y1.0214
N6550 X3.4487 Y1.0251
N6555 X3.5385 Y1.0596
N6560 X3.5498 Y1.0645
N6565 X3.561 Y1.0696
N6570 X3.6284 Y1.104
N6575 X3.6621 Y1.1215
N6580 X3.6704 Y1.1262
N6585 X3.7407 Y1.1718
N6590 X3.7744 Y1.1943
N6595 X3.7856 Y1.203
N6600 X3.8433 Y1.2497
N6605 X3.853 Y1.2577
N6610 X3.8755 Y1.2767
N6615 X3.8826 Y1.2834
N6620 X3.9541 Y1.3549
N6625 X3.9608 Y1.362
N6630 X3.9798 Y1.3845
N6635 X3.989 Y1.3957
N6640 X4.0345 Y1.4519
N6645 X4.0432 Y1.4631
N6650 X4.0664 Y1.4979
N6655 X4.1113 Y1.567
N6660 X4.116 Y1.5754
N6665 X4.1338 Y1.6096
N6670 X4.1679 Y1.6765
N6675 X4.173 Y1.6877
N6680 X4.1779 Y1.6989
N6685 X4.2124 Y1.789
N6690 X4.2161 Y1.8
N6695 X4.2236 Y1.8232
N6700 X4.2265 Y1.8337
N6705 X4.2476 Y1.9123
N6710 X4.2506 Y1.9236
N6715 X4.2533 Y1.9348
N6720 X4.2693 Y2.0359
N6725 X4.2708 Y2.0471
N6730 X4.2731 Y2.0696
N6735 X4.2741 Y2.0808
N6740 X4.2748 Y2.095
N6745 X4.2747 Y2.0985
N6750 X4.2743 Y2.102
N6755 G2 X4.2748 Y2.116 I0.0333 J0.0058
N6760 G3 X4.2765 Y2.1257 I-0.0604 J0.0152
N6765 G1 X4.2794 Y2.1819
N6770 Y2.1931
N6775 X4.2741 Y2.2942
N6780 X4.2731 Y2.3054
N6785 X4.2708 Y2.3279
N6790 X4.2693 Y2.3391
N6795 X4.2533 Y2.4402
N6800 X4.2506 Y2.4514
N6805 X4.2461 Y2.4684
N6810 X4.2265 Y2.5413
N6815 X4.2236 Y2.5518
N6820 X4.2161 Y2.575
N6825 X4.2123 Y2.5862
N6830 X4.1779 Y2.6761
N6835 X4.173 Y2.6873
N6840 X4.1679 Y2.6985
N6845 X4.1335 Y2.7659
N6850 X4.116 Y2.7996
N6855 X4.1113 Y2.808
N6860 X4.0657 Y2.8782
N6865 X4.0432 Y2.9119
N6870 X4.0345 Y2.9231
N6875 X3.995 Y2.9718
N6880 X3.9933 Y2.9737
N6885 X3.9914 Y2.9755
N6890 G2 X3.9845 Y2.9837 I0.0222 J0.0255
N6895 G1 X3.9826 Y2.9867
N6900 X3.9805 Y2.9896
N6905 X3.9608 Y3.013
N6910 X3.9541 Y3.0201
N6915 X3.8826 Y3.0916
N6920 X3.8755 Y3.0983
N6925 X3.853 Y3.1173
N6930 X3.8418 Y3.1265
N6935 X3.7856 Y3.172
N6940 X3.7744 Y3.1807
N6945 X3.7396 Y3.2039
N6950 X3.6704 Y3.2488
N6955 X3.6621 Y3.2535
N6960 X3.6279 Y3.2713
N6965 X3.561 Y3.3054
N6970 X3.5498 Y3.3105
N6975 X3.5385 Y3.3154
N6980 X3.4485 Y3.3499
N6985 X3.4375 Y3.3536
N6990 X3.4143 Y3.3611
N6995 X3.4032 Y3.3642
N7000 G3 X3.3806 Y3.3604 Z-0.0768 I-0.0067 J-0.0292
N7005 G2 X3.3498 Y3.343 Z-0.072 I-0.2163 J0.3461
N7010 X3.2836 Y3.3162 I-0.1856 J0.3635
N7015 X3.2698 Y3.3147 I-0.011 J0.0359
N7020 G1 X3.0018 Y3.3347
N7025 G2 X2.9884 Y3.3382 I0.0028 J0.0374
N7030 X2.9258 Y3.3753 I0.1759 J0.3683
N7035 X2.9035 Y3.3926 Z-0.0758 I0.2385 J0.3313
N7040 G1 X2.8991 Y3.3963 Z-0.0766 F100.
N7045 G3 X2.8759 Y3.4033 Z-0.08 I-0.0195 J-0.0228
N7050 G1 X2.7973 Y3.3908 F135.
N7055 X2.7861 Y3.3881
N7060 X2.7692 Y3.3836
N7065 X2.6962 Y3.3641
N7070 X2.6857 Y3.3611
N7075 X2.6625 Y3.3536
N7080 X2.6513 Y3.3498
N7085 X2.5614 Y3.3154
N7090 X2.5502 Y3.3105
N7095 X2.539 Y3.3054
N7100 X2.4716 Y3.271
N7105 X2.4379 Y3.2535
N7110 X2.4296 Y3.2488
N7115 X2.3593 Y3.2032
N7120 X2.3256 Y3.1807
N7125 X2.3144 Y3.172
N7130 X2.2567 Y3.1253
N7135 X2.247 Y3.1173
N7140 X2.2245 Y3.0983
N7145 X2.2174 Y3.0916
N7150 X2.1459 Y3.0201
N7155 X2.1392 Y3.013
N7160 X2.1202 Y2.9905
N7165 X2.111 Y2.9793
N7170 X2.0655 Y2.9231
N7175 X2.0568 Y2.9119
N7180 X2.0336 Y2.8771
N7185 X1.9887 Y2.8079
N7190 X1.984 Y2.7996
N7195 X1.9665 Y2.7659
N7200 X1.9321 Y2.6985
N7205 X1.927 Y2.6873
N7210 X1.9221 Y2.6761
N7215 X1.8972 Y2.611
N7220 X1.8965 Y2.6074 Z-0.0798
N7225 X1.8958 Y2.6038 Z-0.0791
N7230 X1.8951 Y2.6004 Z-0.078
N7235 Y2.5988 Z-0.0774
N7240 X1.8955 Y2.5958 Z-0.0759
N7245 X1.896 Y2.593 Z-0.074
N7250 X1.8963 Y2.5904 Z-0.0719
N7255 X1.8967 Y2.5881 Z-0.0694
N7260 X1.8975 Y2.586 Z-0.0665
N7265 X1.8983 Y2.5842 Z-0.0633
N7270 X1.8988 Y2.5828 Z-0.06
N7275 X1.8992 Y2.5818 Z-0.0564
N7280 X1.8995 Y2.5812 Z-0.0528
N7285 X1.8996 Y2.581 Z-0.0491
N7290 G0 Z0.2
N7295 G1 X3.1906 Y2.101 F300.
N7300 G0 Z0.115
N7305 G1 Z-0.0225 F100.
N7310 X3.1904 Y2.1011 Z-0.0315
N7315 X3.1896 Y2.1014 Z-0.0404
N7320 X3.1882 Y2.102 Z-0.0493
N7325 X3.1863 Y2.1028 Z-0.0581
N7330 X3.1839 Y2.1038 Z-0.0667
N7335 X3.181 Y2.1051 Z-0.0751
N7340 X3.1776 Y2.1066 Z-0.0833
N7345 X3.1737 Y2.1083 Z-0.0912
N7350 X3.1694 Y2.1101 Z-0.0989
N7355 X3.1645 Y2.1122 Z-0.1062
N7360 X3.1593 Y2.1145 Z-0.1132
N7365 X3.1537 Y2.1169 Z-0.1197
N7370 X3.1476 Y2.1195 Z-0.1259
N7375 X3.1412 Y2.1223 Z-0.1316
N7380 X3.1345 Y2.1252 Z-0.1368
N7385 X3.1275 Y2.1282 Z-0.1416
N7390 X3.1202 Y2.1314 Z-0.1458
N7395 X3.1127 Y2.1346 Z-0.1495
N7400 X3.105 Y2.138 Z-0.1527
N7405 X3.0971 Y2.1414 Z-0.1553
N7410 X3.089 Y2.1449 Z-0.1574
N7415 X3.0809 Y2.1484 Z-0.1588
N7420 X3.0727 Y2.1519 Z-0.1597
N7425 X3.0644 Y2.1555 Z-0.16
N7430 G3 X2.8674 Y2.2164 I-0.3797 J-0.8788
N7435 G1 X2.8614 Y2.2174 F135.
N7440 X2.8558 Y2.2154
N7445 X2.8506 Y2.2124
N7450 X2.8454 Y2.2086
N7455 X2.8409 Y2.2047
N7460 X2.8367 Y2.2003
N7465 X2.8319 Y2.1942
N7470 X2.8265 Y2.1863
N7475 X2.8229 Y2.18
N7480 X2.8192 Y2.172
N7485 X2.8155 Y2.162
N7490 X2.8121 Y2.1501
N7495 X2.8102 Y2.1405
N7500 X2.8089 Y2.1286
N7505 X2.8084 Y2.1141
N7510 X2.809 Y2.1009
N7515 X2.8107 Y2.0877
N7520 X2.814 Y2.0719
N7525 X2.8187 Y2.0563
N7530 X2.824 Y2.0424
N7535 X2.8318 Y2.0263
N7540 X2.841 Y2.0105
N7545 X2.8504 Y1.997
N7550 X2.8631 Y1.9816
N7555 X2.8764 Y1.9678
N7560 X2.8902 Y1.9558
N7565 X2.908 Y1.9425
N7570 X2.924 Y1.9325
N7575 X2.9421 Y1.9231
N7580 X2.9638 Y1.9139
N7585 X2.9815 Y1.908
N7590 X3.0037 Y1.9027
N7595 X3.0254 Y1.8992
N7600 X3.0462 Y1.8976
N7605 X3.0717
N7610 X3.0909 Y1.8992
N7615 X3.1139 Y1.903
N7620 X3.1367 Y1.9087
N7625 X3.1569 Y1.9155
N7630 X3.1809 Y1.9257
N7635 X3.1986 Y1.9351
N7640 X3.2188 Y1.9478
N7645 X3.2378 Y1.9621
N7650 X3.2541 Y1.9766
N7655 X3.2726 Y1.9959
N7660 X3.2852 Y2.0114
N7665 X3.2991 Y2.0314
N7670 X3.3109 Y2.0519
N7675 X3.3205 Y2.072
N7680 X3.3299 Y2.0968
N7685 X3.3356 Y2.1164
N7690 X3.3406 Y2.1409
N7695 X3.3434 Y2.1638
N7700 X3.3444 Y2.1866
N7705 X3.3434 Y2.2126
N7710 X3.3409 Y2.2333
N7715 X3.3358 Y2.2584
N7720 X3.3296 Y2.2799
N7725 X3.3214 Y2.3018
N7730 X3.3106 Y2.3248
N7735 X3.3 Y2.3433
N7740 X3.2851 Y2.3649
N7745 X3.2716 Y2.3817
N7750 X3.2551 Y2.3989
N7755 X3.2366 Y2.4155
N7760 X3.2192 Y2.4286
N7765 X3.1966 Y2.4431
N7770 X3.1783 Y2.4528
N7775 X3.1559 Y2.4624
N7780 X3.1331 Y2.4702
N7785 X3.1114 Y2.4756
N7790 X3.085 Y2.4801
N7795 X3.0646 Y2.4818
N7800 X3.0396 Y2.482
N7805 X3.0163 Y2.4802
N7810 X2.9938 Y2.4767
N7815 X2.9683 Y2.4706
N7820 X2.9484 Y2.4641
N7825 X2.9248 Y2.4543
N7830 X2.9048 Y2.4439
N7835 X2.885 Y2.4316
N7840 X2.85 Y2.4057
N7845 X2.8149 Y2.375
N7850 X2.7886 Y2.3486
N7855 X2.7676 Y2.3236
N7860 X2.7505 Y2.2996
N7865 X2.7363 Y2.276
N7870 X2.7244 Y2.2519
N7875 X2.7147 Y2.2276
N7880 X2.7072 Y2.2032
N7885 X2.7017 Y2.1784
N7890 X2.6982 Y2.1533
N7895 X2.6968 Y2.1281
N7900 X2.6974 Y2.1027
N7905 X2.7 Y2.0772
N7910 X2.7047 Y2.0519
N7915 X2.7115 Y2.0267
N7920 X2.7205 Y2.0017
N7925 X2.7314 Y1.9774
N7930 X2.7447 Y1.9534
N7935 X2.7599 Y1.9305
N7940 X2.7771 Y1.9086
N7945 X2.7965 Y1.8875
N7950 X2.8175 Y1.8682
N7955 X2.8404 Y1.8502
N7960 X2.865 Y1.834
N7965 X2.8909 Y1.8197
N7970 X2.9184 Y1.8074
N7975 X2.947 Y1.7971
N7980 X2.9764 Y1.7892
N7985 X3.0067 Y1.7837
N7990 X3.0376 Y1.7805
N7995 X3.0687 Y1.7798
N8000 X3.1005 Y1.7817
N8005 X3.1317 Y1.7861
N8010 X3.1628 Y1.793
N8015 X3.1935 Y1.8025
N8020 X3.2231 Y1.8144
N8025 X3.2525 Y1.8289
N8030 X3.2801 Y1.8455
N8035 X3.3066 Y1.8644
N8040 X3.3315 Y1.8855
N8045 X3.3546 Y1.9084
N8050 X3.3762 Y1.9337
N8055 X3.3954 Y1.96
N8060 X3.4126 Y1.9882
N8065 X3.4274 Y2.0176
N8070 X3.4398 Y2.048
N8075 X3.4499 Y2.0799
N8080 X3.4573 Y2.1118
N8085 X3.4621 Y2.1448
N8090 X3.4643 Y2.1778
N8095 X3.4638 Y2.2108
N8100 X3.4606 Y2.2441
N8105 X3.4549 Y2.2765
N8110 X3.4464 Y2.309
N8115 X3.4355 Y2.3402
N8120 X3.4221 Y2.3705
N8125 X3.4062 Y2.3999
N8130 X3.3882 Y2.4276
N8135 X3.3676 Y2.4543
N8140 X3.3453 Y2.4787
N8145 X3.3211 Y2.5015
N8150 X3.295 Y2.5222
N8155 X3.2675 Y2.5407
N8160 X3.2381 Y2.5572
N8165 X3.2081 Y2.571
N8170 X3.1768 Y2.5825
N8175 X3.1447 Y2.5914
N8180 X3.1122 Y2.5977
N8185 X3.0787 Y2.6014
N8190 X3.0457 Y2.6024
N8195 X3.0123 Y2.6007
N8200 X2.9793 Y2.5963
N8205 X2.9469 Y2.5894
N8210 X2.9114 Y2.5787
N8215 X2.8752 Y2.5646
N8220 X2.8374 Y2.5462
N8225 X2.8001 Y2.5242
N8230 X2.7647 Y2.4993
N8235 X2.7321 Y2.4723
N8240 X2.7028 Y2.4436
N8245 X2.6766 Y2.4135
N8250 X2.6535 Y2.3823
N8255 X2.6334 Y2.35
N8260 X2.6163 Y2.3167
N8265 X2.602 Y2.2825
N8270 X2.5906 Y2.2476
N8275 X2.5822 Y2.2122
N8280 X2.5766 Y2.1763
N8285 X2.5739 Y2.1402
N8290 X2.5741 Y2.1039
N8295 X2.5773 Y2.0677
N8300 X2.5833 Y2.0317
N8305 X2.5923 Y1.9962
N8310 X2.6042 Y1.9613
N8315 X2.619 Y1.9271
N8320 X2.6365 Y1.894
N8325 X2.6569 Y1.8622
N8330 X2.6799 Y1.8318
N8335 X2.7055 Y1.8032
N8340 X2.7335 Y1.7765
N8345 X2.7639 Y1.7519
N8350 X2.7963 Y1.7297
N8355 X2.8306 Y1.7101
N8360 X2.8667 Y1.6931
N8365 X2.9043 Y1.679
N8370 X2.9432 Y1.6679
N8375 X2.9831 Y1.6598
N8380 X3.0238 Y1.655
N8385 X3.0649 Y1.6534
N8390 X3.1063 Y1.6552
N8395 X3.1476 Y1.6603
N8400 X3.1887 Y1.6687
N8405 X3.229 Y1.6805
N8410 X3.2685 Y1.6955
N8415 X3.3067 Y1.7137
N8420 X3.3435 Y1.735
N8425 X3.3786 Y1.7593
N8430 X3.4117 Y1.7863
N8435 X3.4426 Y1.816
N8440 X3.4711 Y1.8481
N8445 X3.4969 Y1.8825
N8450 X3.52 Y1.9189
N8455 X3.5401 Y1.9571
N8460 X3.557 Y1.9969
N8465 X3.5708 Y2.0379
N8470 X3.5812 Y2.0799
N8475 X3.5882 Y2.1227
N8480 X3.5918 Y2.1659
N8485 Y2.2093
N8490 X3.5884 Y2.2526
N8495 X3.5816 Y2.2955
N8500 X3.5713 Y2.3377
N8505 X3.5576 Y2.379
N8510 X3.5407 Y2.4191
N8515 X3.5206 Y2.4577
N8520 X3.4974 Y2.4946
N8525 X3.4714 Y2.5295
N8530 X3.4427 Y2.5621
N8535 X3.4113 Y2.5925
N8540 X3.3777 Y2.6202
N8545 X3.342 Y2.6451
N8550 X3.3043 Y2.667
N8555 X3.2651 Y2.6859
N8560 X3.2244 Y2.7016
N8565 X3.1826 Y2.7139
N8570 X3.14 Y2.7228
N8575 X3.0967 Y2.7283
N8580 X3.0532 Y2.7304
N8585 X3.0088 Y2.7288
N8590 X2.9635 Y2.7236
N8595 X2.9176 Y2.7146
N8600 X2.8727 Y2.7019
N8605 X2.8288 Y2.6859
N8610 X2.7863 Y2.6667
N8615 X2.7453 Y2.6444
N8620 X2.706 Y2.6191
N8625 X2.6687 Y2.591
N8630 X2.6336 Y2.5602
N8635 X2.6009 Y2.5269
N8640 X2.5708 Y2.4912
N8645 X2.5435 Y2.4534
N8650 X2.5192 Y2.4135
N8655 X2.498 Y2.3719
N8660 X2.4801 Y2.3287
N8665 X2.4657 Y2.2843
N8670 X2.4549 Y2.2389
N8675 X2.4477 Y2.1928
N8680 X2.4442 Y2.1462
N8685 X2.4444 Y2.0995
N8690 X2.4483 Y2.053
N8695 X2.4559 Y2.0069
N8700 X2.4672 Y1.9616
N8705 X2.4819 Y1.9173
N8710 X2.5002 Y1.8743
N8715 X2.5217 Y1.8329
N8720 X2.5464 Y1.7933
N8725 X2.574 Y1.7557
N8730 X2.6045 Y1.7203
N8735 X2.6376 Y1.6874
N8740 X2.6731 Y1.657
N8745 X2.7108 Y1.6294
N8750 X2.7504 Y1.6047
N8755 X2.7918 Y1.5831
N8760 X2.8347 Y1.5647
N8765 X2.8788 Y1.5495
N8770 X2.924 Y1.5376
N8775 X2.9699 Y1.5291
N8780 X3.0163 Y1.5239
N8785 X3.0629 Y1.5221
N8790 X3.1096 Y1.5236
N8795 X3.1561 Y1.5285
N8800 X3.202 Y1.5366
N8805 X3.2473 Y1.5481
N8810 X3.2916 Y1.5628
N8815 X3.3347 Y1.5807
N8820 X3.3765 Y1.6015
N8825 X3.4167 Y1.6253
N8830 X3.4551 Y1.6518
N8835 X3.4916 Y1.6809
N8840 X3.526 Y1.7125
N8845 X3.5581 Y1.7464
N8850 X3.5877 Y1.7826
N8855 X3.6146 Y1.8207
N8860 X3.6388 Y1.8607
N8865 X3.6602 Y1.9022
N8870 X3.6786 Y1.9451
N8875 X3.6941 Y1.9891
N8880 X3.7065 Y2.0341
N8885 X3.7157 Y2.0799
N8890 X3.7216 Y2.1262
N8895 X3.7243 Y2.1728
N8900 X3.7237 Y2.2195
N8905 X3.7199 Y2.2661
N8910 X3.713 Y2.3122
N8915 X3.7029 Y2.3578
N8920 X3.6897 Y2.4026
N8925 X3.6733 Y2.4463
N8930 X3.6539 Y2.4888
N8935 X3.6316 Y2.5298
N8940 X3.6066 Y2.5692
N8945 X3.5789 Y2.6068
N8950 X3.5487 Y2.6425
N8955 X3.5161 Y2.6759
N8960 X3.4812 Y2.7069
N8965 X3.4443 Y2.7355
N8970 X3.4054 Y2.7614
N8975 X3.3649 Y2.7846
N8980 X3.3229 Y2.805
N8985 X3.2796 Y2.8224
N8990 X3.2352 Y2.8368
N8995 X3.1899 Y2.8481
N9000 X3.1439 Y2.8561
N9005 X3.0974 Y2.861
N9010 X3.0508 Y2.8627
N9015 X3.0041 Y2.8613
N9020 X2.9576 Y2.8569
N9025 X2.9115 Y2.8493
N9030 X2.8661 Y2.8388
N9035 X2.8213 Y2.8254
N9040 X2.7775 Y2.8092
N9045 X2.7348 Y2.7905
N9050 X2.6933 Y2.769
N9055 X2.6532 Y2.7451
N9060 X2.6147 Y2.7186
N9065 X2.5779 Y2.6899
N9070 X2.543 Y2.659
N9075 X2.5099 Y2.626
N9080 X2.479 Y2.591
N9085 X2.4504 Y2.5541
N9090 X2.4242 Y2.5154
N9095 X2.4004 Y2.4752
N9100 X2.3792 Y2.4336
N9105 X2.3607 Y2.3908
N9110 X2.345 Y2.3468
N9115 X2.3323 Y2.3019
N9120 X2.3224 Y2.2562
N9125 X2.3154 Y2.2101
N9130 X2.3114 Y2.1636
N9135 X2.3104 Y2.1169
N9140 X2.3126 Y2.0702
N9145 X2.3177 Y2.0238
N9150 X2.3258 Y1.9778
N9155 X2.3368 Y1.9325
N9160 X2.3507 Y1.8879
N9165 X2.3674 Y1.8443
N9170 X2.387 Y1.8019
N9175 X2.4092 Y1.7608
N9180 X2.4339 Y1.7212
N9185 X2.461 Y1.6832
N9190 X2.4905 Y1.647
N9195 X2.5223 Y1.6128
N9200 X2.5562 Y1.5806
N9205 X2.5919 Y1.5506
N9210 X2.6294 Y1.5228
N9215 X2.6686 Y1.4974
N9220 X2.7093 Y1.4745
N9225 X2.7514 Y1.4542
N9230 X2.7946 Y1.4366
N9235 X2.8388 Y1.4215
N9240 X2.8838 Y1.4092
N9245 X2.9295 Y1.3996
N9250 X2.9757 Y1.3928
N9255 X3.0222 Y1.3889
N9260 X3.0689 Y1.3877
N9265 X3.1156 Y1.3892
N9270 X3.1621 Y1.3935
N9275 X3.2082 Y1.4006
N9280 X3.2538 Y1.4105
N9285 X3.2988 Y1.4232
N9290 X3.3429 Y1.4384
N9295 X3.3861 Y1.4562
N9300 X3.4282 Y1.4764
N9305 X3.469 Y1.4991
N9310 X3.5083 Y1.5242
N9315 X3.5462 Y1.5516
N9320 X3.5823 Y1.5811
N9325 X3.6168 Y1.6127
N9330 X3.6493 Y1.6462
N9335 X3.6798 Y1.6815
N9340 X3.7081 Y1.7187
N9345 X3.7342 Y1.7574
N9350 X3.758 Y1.7975
N9355 X3.7795 Y1.839
N9360 X3.7987 Y1.8816
N9365 X3.8152 Y1.9252
N9370 X3.8292 Y1.9698
N9375 X3.8405 Y2.0151
N9380 X3.8492 Y2.0609
N9385 X3.8553 Y2.1072
N9390 X3.8587 Y2.1538
N9395 X3.8594 Y2.2005
N9400 X3.8574 Y2.2471
N9405 X3.8526 Y2.2936
N9410 X3.8452 Y2.3397
N9415 X3.8352 Y2.3853
N9420 X3.8226 Y2.4303
N9425 X3.8074 Y2.4744
N9430 X3.7896 Y2.5176
N9435 X3.7693 Y2.5596
N9440 X3.7467 Y2.6005
N9445 X3.7218 Y2.64
N9450 X3.6947 Y2.678
N9455 X3.6654 Y2.7144
N9460 X3.634 Y2.7489
N9465 X3.6007 Y2.7816
N9470 X3.5655 Y2.8123
N9475 X3.5287 Y2.841
N9480 X3.4903 Y2.8676
N9485 X3.4504 Y2.8918
N9490 X3.4091 Y2.9137
N9495 X3.3667 Y2.9332
N9500 X3.3232 Y2.9502
N9505 X3.2788 Y2.9647
N9510 X3.2337 Y2.9767
N9515 X3.1879 Y2.986
N9520 X3.1417 Y2.9926
N9525 X3.0952 Y2.9966
N9530 X3.0485 Y2.998
N9535 X3.0018 Y2.9968
N9540 X2.9553 Y2.993
N9545 X2.909 Y2.9867
N9550 X2.8632 Y2.9778
N9555 X2.8179 Y2.9664
N9560 X2.7733 Y2.9526
N9565 X2.7295 Y2.9365
N9570 X2.6865 Y2.9182
N9575 X2.6446 Y2.8976
N9580 X2.6039 Y2.8747
N9585 X2.5645 Y2.8498
N9590 X2.5264 Y2.8228
N9595 X2.4897 Y2.7938
N9600 X2.4546 Y2.763
N9605 X2.4212 Y2.7304
N9610 X2.3895 Y2.6961
N9615 X2.3598 Y2.6601
N9620 X2.332 Y2.6226
N9625 X2.3062 Y2.5836
N9630 X2.2826 Y2.5434
N9635 X2.261 Y2.502
N9640 X2.2418 Y2.4594
N9645 X2.2249 Y2.4159
N9650 X2.2104 Y2.3715
N9655 X2.1983 Y2.3264
N9660 X2.1887 Y2.2807
N9665 X2.1815 Y2.2346
N9670 X2.1768 Y2.1882
N9675 X2.1747 Y2.1415
N9680 X2.1751 Y2.0948
N9685 X2.1781 Y2.0482
N9690 X2.1836 Y2.0019
N9695 X2.1916 Y1.9559
N9700 X2.202 Y1.9103
N9705 X2.2149 Y1.8655
N9710 X2.2303 Y1.8214
N9715 X2.248 Y1.7782
N9720 X2.268 Y1.736
N9725 X2.2902 Y1.6949
N9730 X2.3145 Y1.6551
N9735 X2.341 Y1.6166
N9740 X2.3695 Y1.5796
N9745 X2.3999 Y1.5442
N9750 X2.4322 Y1.5104
N9755 X2.4662 Y1.4784
N9760 X2.5018 Y1.4482
N9765 X2.5389 Y1.4199
N9770 X2.5775 Y1.3936
N9775 X2.6174 Y1.3694
N9780 X2.6586 Y1.3474
N9785 X2.7009 Y1.3275
N9790 X2.7441 Y1.3099
N9795 X2.7881 Y1.2944
N9800 X2.8329 Y1.2812
N9805 X2.8784 Y1.2704
N9810 X2.9013 Y1.2662
N9815 X2.9129 Y1.2644
N9820 X2.9244 Y1.2627
N9825 X2.9302 Y1.262
N9830 X2.9765 Y1.256
N9835 X3.0231 Y1.2525
N9840 X3.0697 Y1.2514
N9845 X3.1164 Y1.2526
N9850 X3.163 Y1.2562
N9855 X3.2093 Y1.2623
N9860 X3.2552 Y1.2707
N9865 X3.3006 Y1.2815
N9870 X3.3454 Y1.2945
N9875 X3.3896 Y1.3098
N9880 X3.4329 Y1.3273
N9885 X3.4753 Y1.3469
N9890 X3.5166 Y1.3686
N9895 X3.5568 Y1.3924
N9900 X3.5957 Y1.4182
N9905 X3.6333 Y1.4459
N9910 X3.6694 Y1.4754
N9915 X3.7041 Y1.5067
N9920 X3.7372 Y1.5397
N9925 X3.7685 Y1.5743
N9930 X3.7981 Y1.6104
N9935 X3.8258 Y1.648
N9940 X3.8516 Y1.6869
N9945 X3.8756 Y1.727
N9950 X3.8975 Y1.7682
N9955 X3.9173 Y1.8104
N9960 X3.935 Y1.8537
N9965 X3.9505 Y1.8977
N9970 X3.9637 Y1.9425
N9975 X3.9748 Y1.9879
N9980 X3.9836 Y2.0337
N9985 X3.9852 Y2.0453
N9990 X3.9913 Y2.0916
N9995 X3.995 Y2.1381
N10000 X3.9964 Y2.1848
N10005 X3.9955 Y2.2315
N10010 X3.9923 Y2.278
N10015 X3.9867 Y2.3244
N10020 X3.9789 Y2.3704
N10025 X3.9688 Y2.416
N10030 X3.9565 Y2.461
N10035 X3.9419 Y2.5054
N10040 X3.9252 Y2.549
N10045 X3.9064 Y2.5917
N10050 X3.8854 Y2.6335
N10055 X3.8624 Y2.6741
N10060 X3.8375 Y2.7136
N10065 X3.8106 Y2.7518
N10070 X3.8034 Y2.761
N10075 X3.7743 Y2.7975
N10080 X3.7434 Y2.8325
N10085 X3.7109 Y2.8659
N10090 X3.6767 Y2.8977
N10095 X3.6409 Y2.9277
N10100 X3.6037 Y2.956
N10105 X3.5652 Y2.9823
N10110 X3.5254 Y3.0068
N10115 X3.4845 Y3.0292
N10120 X3.4425 Y3.0497
N10125 X3.3995 Y3.068
N10130 X3.3557 Y3.0841
N10135 X3.3111 Y3.0981
N10140 X3.266 Y3.1099
N10145 X3.2203 Y3.1194
N10150 X3.1972 Y3.1231
N10155 X3.1914 Y3.1239
N10160 X3.1451 Y3.1299
N10165 X3.0986 Y3.1336
N10170 X3.0519 Y3.1351
N10175 X3.0052 Y3.1343
N10180 X2.9586 Y3.1314
N10185 X2.9122 Y3.1262
N10190 X2.8661 Y3.1187
N10195 X2.8204 Y3.1091
N10200 X2.7752 Y3.0974
N10205 X2.7306 Y3.0836
N10210 X2.6867 Y3.0678
N10215 X2.6435 Y3.05
N10220 X2.6012 Y3.0302
N10225 X2.5959 Y3.0279
N10230 X2.5904 Y3.0255
N10235 X2.5849 Y3.023
N10240 X2.5795 Y3.0205
N10245 X2.574 Y3.0179
N10250 X2.5686 Y3.0153
N10255 X2.5631 Y3.0126
N10260 X2.5574 Y3.0097
N10265 X2.5514 Y3.0067
N10270 X2.5456 Y3.0037
N10275 X2.5403 Y3.0009
N10280 X2.535 Y2.998
N10285 X2.5297 Y2.9951
N10290 X2.5243 Y2.9921
N10295 X2.5187 Y2.989
N10300 X2.513 Y2.9856
N10305 X2.507 Y2.9821
N10310 X2.5008 Y2.9785
N10315 X2.4953 Y2.9751
N10320 X2.4902 Y2.972
N10325 X2.485 Y2.9687
N10330 X2.4796 Y2.9653
N10335 X2.4741 Y2.9617
N10340 X2.4683 Y2.9579
N10345 X2.4623 Y2.9539
N10350 X2.4561 Y2.9497
N10355 X2.4505 Y2.9458
N10360 X2.4455 Y2.9423
N10365 X2.4404 Y2.9386
N10370 X2.4351 Y2.9348
N10375 X2.4296 Y2.9308
N10380 X2.4239 Y2.9265
N10385 X2.4179 Y2.922
N10390 X2.4118 Y2.9173
N10395 X2.4064 Y2.9131
N10400 X2.4015 Y2.9092
N10405 X2.3965 Y2.9052
N10410 X2.3913 Y2.9009
N10415 X2.3859 Y2.8965
N10420 X2.3803 Y2.8918
N10425 X2.3745 Y2.8868
N10430 X2.3687 Y2.8817
N10435 X2.3636 Y2.8773
N10440 X2.3588 Y2.873
N10445 X2.3539 Y2.8686
N10450 X2.3488 Y2.8639
N10455 X2.3435 Y2.859
N10460 X2.338 Y2.8538
N10465 X2.3324 Y2.8483
N10470 X2.3269 Y2.843
N10475 X2.3222 Y2.8384
N10480 X2.3176 Y2.8337
N10485 X2.3128 Y2.8288
N10490 X2.3078 Y2.8237
N10495 X2.3026 Y2.8182
N10500 X2.2973 Y2.8126
N10505 X2.2918 Y2.8066
N10510 X2.287 Y2.8014
N10515 X2.2826 Y2.7965
N10520 X2.2781 Y2.7914
N10525 X2.2734 Y2.786
N10530 X2.2686 Y2.7804
N10535 X2.2636 Y2.7745
N10540 X2.2584 Y2.7683
N10545 X2.2534 Y2.7622
N10550 X2.2492 Y2.7571
N10555 X2.245 Y2.7518
N10560 X2.2407 Y2.7462
N10565 X2.2362 Y2.7404
N10570 X2.2315 Y2.7343
N10575 X2.2267 Y2.7279
N10580 X2.2218 Y2.7213
N10585 X2.2177 Y2.7157
N10590 X2.2138 Y2.7102
N10595 X2.2098 Y2.7046
N10600 X2.2057 Y2.6986
N10605 X2.2014 Y2.6924
N10610 X2.197 Y2.6858
N10615 X2.1924 Y2.6789
N10620 X2.1883 Y2.6726
N10625 X2.1848 Y2.6671
N10630 X2.1811 Y2.6613
N10635 X2.1774 Y2.6553
N10640 X2.1735 Y2.649
N10645 X2.1696 Y2.6424
N10650 X2.1655 Y2.6355
N10655 X2.1614 Y2.6285
N10660 X2.1581 Y2.6226
N10665 X2.1548 Y2.6168
N10670 X2.1514 Y2.6107
N10675 X2.148 Y2.6043
N10680 X2.1444 Y2.5976
N10685 X2.1407 Y2.5906
N10690 X2.1369 Y2.5833
N10695 X2.1337 Y2.5768
N10700 X2.1307 Y2.5709
N10705 X2.1277 Y2.5647
N10710 X2.1246 Y2.5583
N10715 X2.1215 Y2.5515
N10720 X2.1182 Y2.5444
N10725 X2.1148 Y2.537
N10730 X2.1117 Y2.5298
N10735 X2.109 Y2.5236
N10740 X2.1063 Y2.5174
N10745 X2.1036 Y2.5108
N10750 X2.1008 Y2.504
N10755 X2.098 Y2.4969
N10760 X2.095 Y2.4894
N10765 X2.0921 Y2.4817
N10770 X2.0897 Y2.4751
N10775 X2.0874 Y2.4688
N10780 X2.085 Y2.4622
N10785 X2.0826 Y2.4554
N10790 X2.0801 Y2.4482
N10795 X2.0776 Y2.4406
N10800 X2.0751 Y2.4327
N10805 X2.0728 Y2.4256
N10810 X2.0709 Y2.4192
N10815 X2.0689 Y2.4126
N10820 X2.0658 Y2.4021
N10825 X2.0638 Y2.3948
N10830 X2.0617 Y2.387
N10835 X2.0595 Y2.379
N10840 X2.0577 Y2.372
N10845 X2.0561 Y2.3656
N10850 X2.0545 Y2.3589
N10855 X2.0529 Y2.352
N10860 X2.0512 Y2.3447
N10865 X2.0496 Y2.3371
N10870 X2.0479 Y2.3291
N10875 X2.0463 Y2.3214
N10880 X2.0451 Y2.3149
N10885 X2.0438 Y2.3083
N10890 X2.0426 Y2.3014
N10895 X2.0414 Y2.2942
N10900 X2.0401 Y2.2867
N10905 X2.0389 Y2.2788
N10910 X2.0377 Y2.2707
N10915 X2.0367 Y2.2637
N10920 X2.0358 Y2.2572
N10925 X2.0349 Y2.2503
N10930 X2.0341 Y2.2432
N10935 X2.0332 Y2.2358
N10940 X2.0324 Y2.228
N10945 X2.0316 Y2.2199
N10950 X2.0309 Y2.2122
N10955 X2.0304 Y2.2056
N10960 X2.0299 Y2.1988
N10965 X2.0294 Y2.1918
N10970 X2.0289 Y2.1844
N10975 X2.0285 Y2.1767
N10980 X2.0281 Y2.1686
N10985 X2.0278 Y2.1605
N10990 X2.0276 Y2.1536
N10995 X2.0275 Y2.1469
N11000 X2.0273 Y2.1399
N11005 Y2.1326
N11010 Y2.125
N11015 Y2.117
N11020 X2.0274 Y2.1087
N11025 X2.0275 Y2.1014
N11030 X2.0277 Y2.0947
N11035 X2.028 Y2.0878
N11040 X2.0283 Y2.0806
N11045 X2.0286 Y2.0731
N11050 X2.0291 Y2.0652
N11055 X2.0296 Y2.057
N11060 X2.0302 Y2.0492
N11065 X2.0307 Y2.0425
N11070 X2.0313 Y2.0358
N11075 X2.0319 Y2.0288
N11080 X2.0327 Y2.0214
N11085 X2.0335 Y2.0138
N11090 X2.0344 Y2.0058
N11095 X2.0354 Y1.9976
N11100 X2.0363 Y1.9907
N11105 X2.0372 Y1.9842
N11110 X2.0382 Y1.9773
N11115 X2.0393 Y1.9702
N11120 X2.0405 Y1.9628
N11125 X2.0418 Y1.9551
N11130 X2.0433 Y1.947
N11135 X2.0446 Y1.9395
N11140 X2.0459 Y1.933
N11145 X2.0472 Y1.9264
N11150 X2.0486 Y1.9194
N11155 X2.0502 Y1.9122
N11160 X2.0518 Y1.9047
N11165 X2.0536 Y1.8968
N11170 X2.0555 Y1.8889
N11175 X2.0571 Y1.8823
N11180 X2.0588 Y1.8758
N11185 X2.0605 Y1.869
N11190 X2.0624 Y1.862
N11195 X2.0645 Y1.8546
N11200 X2.0666 Y1.8469
N11205 X2.069 Y1.839
N11210 X2.071 Y1.832
N11215 X2.073 Y1.8256
N11220 X2.0751 Y1.819
N11225 X2.0773 Y1.8121
N11230 X2.0797 Y1.8049
N11235 X2.0823 Y1.7975
N11240 X2.085 Y1.7896
N11245 X2.0876 Y1.7823
N11250 X2.0899 Y1.776
N11255 X2.0923 Y1.7695
N11260 X2.0949 Y1.7628
N11265 X2.0976 Y1.7558
N11270 X2.1005 Y1.7486
N11275 X2.1036 Y1.741
N11280 X2.1067 Y1.7334
N11285 X2.1094 Y1.7271
N11290 X2.1121 Y1.7209
N11295 X2.115 Y1.7144
N11300 X2.1181 Y1.7076
N11305 X2.1213 Y1.7006
N11310 X2.1247 Y1.6932
N11315 X2.1283 Y1.6857
N11320 X2.1314 Y1.6793
N11325 X2.1344 Y1.6733
N11330 X2.1376 Y1.6671
N11335 X2.1409 Y1.6606
N11340 X2.1444 Y1.6539
N11345 X2.1481 Y1.6469
N11350 X2.1521 Y1.6396
N11355 X2.1558 Y1.6329
N11360 X2.159 Y1.6271
N11365 X2.1624 Y1.6211
N11370 X2.166 Y1.6149
N11375 X2.1719 Y1.6052
N11380 X2.176 Y1.5983
N11385 X2.1804 Y1.5912
N11390 X2.1843 Y1.585
N11395 X2.1879 Y1.5793
N11400 X2.1916 Y1.5735
N11405 X2.1956 Y1.5674
N11410 X2.1998 Y1.5611
N11415 X2.2043 Y1.5546
N11420 X2.209 Y1.5477
N11425 X2.2135 Y1.5413
N11430 X2.2174 Y1.5358
N11435 X2.2214 Y1.5302
N11440 X2.2257 Y1.5244
N11445 X2.2302 Y1.5183
N11450 X2.2349 Y1.5121
N11455 X2.24 Y1.5055
N11460 X2.245 Y1.4991
N11465 X2.2493 Y1.4937
N11470 X2.2536 Y1.4883
N11475 X2.2581 Y1.4827
N11480 X2.2629 Y1.4769
N11485 X2.268 Y1.4709
N11490 X2.2733 Y1.4647
N11495 X2.2788 Y1.4583
N11500 X2.2835 Y1.453
N11505 X2.288 Y1.4479
N11510 X2.2928 Y1.4426
N11515 X2.2979 Y1.437
N11520 X2.3032 Y1.4313
N11525 X2.3089 Y1.4254
N11530 X2.3147 Y1.4193
N11535 X2.3198 Y1.414
N11540 X2.3246 Y1.4092
N11545 X2.3296 Y1.4042
N11550 X2.3652 Y1.374
N11555 X2.4017 Y1.3449
N11560 X2.4392 Y1.3171
N11565 X2.4777 Y1.2907
N11570 X2.5173 Y1.2659
N11575 X2.5579 Y1.2428
N11580 X2.5994 Y1.2214
N11585 X2.6417 Y1.2017
N11590 X2.6849 Y1.1839
N11595 X2.7288 Y1.168
N11600 X2.7734 Y1.1542
N11605 X2.7847 Y1.1512
N11610 X2.796 Y1.1484
N11615 X2.8068 Y1.144
N11620 X2.817 Y1.1383
N11625 X2.8356 Y1.1242
N11630 X2.8643 Y1.0874
N11635 X2.8894 Y1.048
N11640 X2.9086 Y1.0188
N11645 X2.9222 Y1.0014
N11650 X2.9332 Y0.9894
N11655 X2.9422 Y0.981
N11660 X2.9443 Y0.9794
N11665 X2.9555 Y0.9719
N11670 X2.9676 Y0.9662
N11675 X2.9805 Y0.9625
N11680 X2.9939 Y0.9607
N11685 X2.9956 Y0.9606
N11690 X2.9971
N11695 X3.0294 Y0.9943
N11700 X3.0672 Y1.0218
N11705 X3.108 Y1.0445
N11710 X3.1504 Y1.0639
N11715 X3.1938 Y1.0811
N11720 X3.2377 Y1.0972
N11725 X3.2817 Y1.1128
N11730 X3.3257 Y1.1284
N11735 X3.3695 Y1.1446
N11740 X3.4129 Y1.1616
N11745 X3.4559 Y1.1799
N11750 X3.4983 Y1.1994
N11755 X3.54 Y1.2205
N11760 X3.5809 Y1.243
N11765 X3.6209 Y1.267
N11770 X3.66 Y1.2926
N11775 X3.698 Y1.3198
N11780 X3.7348 Y1.3485
N11785 X3.7703 Y1.3787
N11790 X3.8046 Y1.4105
N11795 X3.8374 Y1.4437
N11800 X3.8688 Y1.4782
N11805 X3.8987 Y1.5141
N11810 X3.9271 Y1.5512
N11815 X3.9539 Y1.5894
N11820 X3.9789 Y1.6288
N11825 X4.0022 Y1.6693
N11830 X4.0237 Y1.7107
N11835 X4.0434 Y1.7531
N11840 X4.0613 Y1.7962
N11845 X4.0773 Y1.8401
N11850 X4.0915 Y1.8846
N11855 X4.1036 Y1.9297
N11860 X4.1302 Y1.968
N11865 X4.1657 Y1.9983
N11870 X4.2037 Y2.0255
N11875 X4.2223 Y2.0395
N11880 X4.2404 Y2.0549
N11885 X4.2532 Y2.0675
N11890 X4.2554 Y2.0702
N11895 X4.2638 Y2.0818
N11900 X4.2702 Y2.0946
N11905 X4.2744 Y2.1083
N11910 X4.2763 Y2.1224
N11915 X4.2765 Y2.1257
N11920 Y2.1272
N11925 X4.2448 Y2.1616
N11930 X4.219 Y2.2004
N11935 X4.1974 Y2.2418
N11940 X4.1788 Y2.2847
N11945 X4.1622 Y2.3283
N11950 X4.1466 Y2.3723
N11955 X4.1314 Y2.4165
N11960 X4.1158 Y2.4605
N11965 X4.0997 Y2.5043
N11970 X4.0826 Y2.5478
N11975 X4.0643 Y2.5907
N11980 X4.0448 Y2.6332
N11985 X4.0238 Y2.6749
N11990 X4.0013 Y2.7158
N11995 X3.9772 Y2.7557
N12000 X3.9708 Y2.7655
N12005 X3.9657 Y2.776
N12010 X3.9585 Y2.7982
N12015 X3.9543 Y2.8447
N12020 X3.9593 Y2.8911
N12025 X3.9658 Y2.9321
N12030 X3.967 Y2.9471
N12035 Y2.9533
N12040 X3.9668 Y2.9578
N12045 X3.9216 Y2.9695
N12050 X3.878 Y2.9861
N12055 X3.8356 Y3.0058
N12060 X3.7942 Y3.0274
N12065 X3.7534 Y3.05
N12070 X3.7128 Y3.073
N12075 X3.672 Y3.0959
N12080 X3.631 Y3.1181
N12085 X3.5895 Y3.1395
N12090 X3.5474 Y3.1597
N12095 X3.5047 Y3.1786
N12100 X3.4614 Y3.1961
N12105 X3.4175 Y3.212
N12110 X3.373 Y3.2263
N12115 X3.328 Y3.2386
N12120 X3.3166 Y3.2413
N12125 X3.3057 Y3.2454
N12130 X3.2955 Y3.251
N12135 X3.2577 Y3.2785
N12140 X3.2295 Y3.3157
N12145 X3.2026 Y3.3539
N12150 X3.1879 Y3.372
N12155 X3.1768 Y3.3841
N12160 X3.1649 Y3.3952
N12165 X3.1537 Y3.4026
N12170 X3.1415 Y3.4083
N12175 X3.1286 Y3.4121
N12180 X3.1153 Y3.4138
N12185 X3.1118 Y3.414
N12190 X3.1103
N12195 X3.0756 Y3.3827
N12200 X3.0365 Y3.3571
N12205 X2.9949 Y3.3359
N12210 X2.952 Y3.3177
N12215 X2.9082 Y3.3014
N12220 X2.864 Y3.2863
N12225 X2.8197 Y3.2715
N12230 X2.7755 Y3.2565
N12235 X2.7315 Y3.2409
N12240 X2.6878 Y3.2245
N12245 X2.6444 Y3.2073
N12250 X2.6013 Y3.1893
N12255 X2.5588 Y3.17
N12260 X2.5169 Y3.1494
N12265 X2.4758 Y3.1273
N12270 X2.4355 Y3.1036
N12275 X2.3962 Y3.0784
N12280 X2.3579 Y3.0517
N12285 X2.3208 Y3.0234
N12290 X2.2848 Y2.9936
N12295 X2.2501 Y2.9624
N12300 X2.2166 Y2.9298
N12305 X2.1846 Y2.8959
N12310 X2.1539 Y2.8606
N12315 X2.1248 Y2.8242
N12320 X2.0971 Y2.7866
N12325 X2.071 Y2.7479
N12330 X2.0465 Y2.7081
N12335 X2.0236 Y2.6674
N12340 X2.0024 Y2.6258
N12345 X1.9829 Y2.5834
N12350 X1.9652 Y2.5402
N12355 X1.9492 Y2.4963
N12360 X1.9351 Y2.4518
N12365 X1.9102 Y2.4123
N12370 X1.8793 Y2.3772
N12375 X1.8475 Y2.3431
N12380 X1.8445 Y2.3394
N12385 X1.8369 Y2.3282
N12390 X1.8312 Y2.3159
N12395 X1.8274 Y2.3029
N12400 X1.8256 Y2.2895
N12405 X1.8235 Y2.2493
N12410 Y2.2433
N12415 X1.8247 Y2.2374
N12420 X1.8383 Y2.1927
N12425 X1.8494 Y2.1474
N12430 X1.8592 Y2.1017
N12435 X1.8776 Y2.0102
N12440 X1.8873 Y1.9645
N12445 X1.8977 Y1.919
N12450 X1.9092 Y1.8737
N12455 X1.922 Y1.8288
N12460 X1.9361 Y1.7843
N12465 X1.9517 Y1.7403
N12470 X1.9689 Y1.6969
N12475 X1.9876 Y1.6541
N12480 X2.0079 Y1.6121
N12485 X2.0298 Y1.5708
N12490 X2.0533 Y1.5305
N12495 X2.0735 Y1.4884
N12500 X2.089 Y1.4443
N12505 X2.0931 Y1.4338
N12510 X2.1007 Y1.4172
N12515 X2.1055 Y1.4083
N12520 X2.1105 Y1.4009
N12525 X2.1142 Y1.3962
N12530 X2.1183 Y1.3918
N12535 X2.1533 Y1.3609
N12540 X2.1885 Y1.3303
N12545 X2.2243 Y1.3002
N12550 X2.2605 Y1.2708
N12555 X2.2975 Y1.2422
N12560 X2.3352 Y1.2147
N12565 X2.3736 Y1.1882
N12570 X2.413 Y1.163
N12575 X2.4531 Y1.1391
N12580 X2.494 Y1.1166
N12585 X2.5357 Y1.0956
N12590 X2.5781 Y1.0761
N12595 X2.6196 Y1.0546
N12600 X2.658 Y1.0281
N12605 X2.6654 Y1.0228
N12610 X2.6734 Y1.0184
N12615 X2.6819 Y1.0151
N12620 X2.6857 Y1.0139
N12625 X2.6962 Y1.0109
N12630 X2.7748 Y0.9899
N12635 X2.7861 Y0.9869
N12640 X2.7973 Y0.9842
N12645 X2.8984 Y0.9682
N12650 X2.9096 Y0.9667
N12655 X2.9321 Y0.9644
N12660 X2.9433 Y0.9634
N12665 X2.9939 Y0.9607
N12670 X2.9955 Y0.9606
N12675 X2.9956
N12680 X3.0444 Y0.9581
N12685 X3.0556
N12690 X3.1567 Y0.9634
N12695 X3.1679 Y0.9644
N12700 X3.1904 Y0.9667
N12705 X3.2016 Y0.9682
N12710 X3.3027 Y0.9842
N12715 X3.3139 Y0.9869
N12720 X3.3308 Y0.9914
N12725 X3.3364 Y0.9929
N12730 X3.3808 Y1.0072
N12735 X3.4255 Y1.0208
N12740 X3.4695 Y1.0363
N12745 X3.5129 Y1.0535
N12750 X3.5556 Y1.0724
N12755 X3.5976 Y1.0928
N12760 X3.6388 Y1.1148
N12765 X3.6792 Y1.1382
N12770 X3.7188 Y1.1631
N12775 X3.7573 Y1.1894
N12780 X3.7948 Y1.2172
N12785 X3.8313 Y1.2464
N12790 X3.8666 Y1.2769
N12795 X3.9008 Y1.3087
N12800 X3.9337 Y1.3418
N12805 X3.9654 Y1.3761
N12810 X3.9958 Y1.4115
N12815 X4.0249 Y1.4481
N12820 X4.0525 Y1.4857
N12825 X4.0786 Y1.5244
N12830 X4.1032 Y1.5641
N12835 X4.1263 Y1.6047
N12840 X4.1478 Y1.6461
N12845 X4.1677 Y1.6884
N12850 X4.1861 Y1.7313
N12855 X4.195 Y1.7467
N12860 X4.1972 Y1.7508
N12865 X4.1992 Y1.755
N12870 X4.201 Y1.7592
N12875 X4.2124 Y1.789
N12880 X4.2161 Y1.8
N12885 X4.2236 Y1.8232
N12890 X4.2265 Y1.8337
N12895 X4.2476 Y1.9123
N12900 X4.2506 Y1.9236
N12905 X4.2533 Y1.9348
N12910 X4.2693 Y2.0359
N12915 X4.2708 Y2.0471
N12920 X4.2731 Y2.0696
N12925 X4.2741 Y2.0808
N12930 X4.2763 Y2.1224
N12935 Y2.1226
N12940 X4.2764 Y2.1255
N12945 X4.2765 Y2.1257
N12950 X4.2794 Y2.1819
N12955 Y2.1931
N12960 X4.2741 Y2.2942
N12965 X4.2731 Y2.3054
N12970 X4.2708 Y2.3279
N12975 X4.2693 Y2.3391
N12980 X4.2533 Y2.4402
N12985 X4.2506 Y2.4514
N12990 X4.2461 Y2.4684
N12995 X4.2265 Y2.5413
N13000 X4.2236 Y2.5518
N13005 X4.2161 Y2.575
N13010 X4.2123 Y2.5862
N13015 X4.1779 Y2.6761
N13020 X4.173 Y2.6873
N13025 X4.1679 Y2.6985
N13030 X4.1335 Y2.7659
N13035 X4.116 Y2.7996
N13040 X4.1113 Y2.808
N13045 X4.0657 Y2.8782
N13050 X4.0432 Y2.9119
N13055 X4.0345 Y2.9231
N13060 X3.9878 Y2.9808
N13065 X3.9798 Y2.9905
N13070 X3.9608 Y3.013
N13075 X3.9541 Y3.0201
N13080 X3.8826 Y3.0916
N13085 X3.8755 Y3.0983
N13090 X3.853 Y3.1173
N13095 X3.8418 Y3.1265
N13100 X3.7856 Y3.172
N13105 X3.7744 Y3.1807
N13110 X3.7396 Y3.2039
N13115 X3.6704 Y3.2488
N13120 X3.6621 Y3.2535
N13125 X3.6279 Y3.2713
N13130 X3.561 Y3.3054
N13135 X3.5498 Y3.3105
N13140 X3.5385 Y3.3154
N13145 X3.4485 Y3.3499
N13150 X3.4375 Y3.3536
N13155 X3.4143 Y3.3611
N13160 X3.4038 Y3.3641
N13165 X3.3252 Y3.3851
N13170 X3.3139 Y3.3881
N13175 X3.3027 Y3.3908
N13180 X3.2016 Y3.4068
N13185 X3.1904 Y3.4083
N13190 X3.1679 Y3.4106
N13195 X3.1567 Y3.4116
N13200 X3.1153 Y3.4138
N13205 X3.115
N13210 X3.1122 Y3.4139
N13215 X3.1118 Y3.414
N13220 X3.0556 Y3.4169
N13225 X3.0444
N13230 X2.9433 Y3.4116
N13235 X2.9321 Y3.4106
N13240 X2.9096 Y3.4083
N13245 X2.8984 Y3.4068
N13250 X2.7973 Y3.3908
N13255 X2.7861 Y3.3881
N13260 X2.7692 Y3.3836
N13265 X2.6962 Y3.3641
N13270 X2.6857 Y3.3611
N13275 X2.6625 Y3.3536
N13280 X2.6513 Y3.3498
N13285 X2.5614 Y3.3154
N13290 X2.5502 Y3.3105
N13295 X2.539 Y3.3054
N13300 X2.4716 Y3.271
N13305 X2.4379 Y3.2535
N13310 X2.4296 Y3.2488
N13315 X2.3593 Y3.2032
N13320 X2.3256 Y3.1807
N13325 X2.3144 Y3.172
N13330 X2.2567 Y3.1253
N13335 X2.247 Y3.1173
N13340 X2.2245 Y3.0983
N13345 X2.2174 Y3.0916
N13350 X2.1459 Y3.0201
N13355 X2.1392 Y3.013
N13360 X2.1202 Y2.9905
N13365 X2.111 Y2.9793
N13370 X2.0655 Y2.9231
N13375 X2.0568 Y2.9119
N13380 X2.0336 Y2.8771
N13385 X1.9887 Y2.8079
N13390 X1.984 Y2.7996
N13395 X1.9665 Y2.7659
N13400 X1.9321 Y2.6985
N13405 X1.927 Y2.6873
N13410 X1.9221 Y2.6761
N13415 X1.8876 Y2.586
N13420 X1.8839 Y2.575
N13425 X1.8763 Y2.5518
N13430 X1.8734 Y2.5413
N13435 X1.8524 Y2.4627
N13440 X1.8494 Y2.4514
N13445 X1.8467 Y2.4402
N13450 X1.8307 Y2.3391
N13455 X1.8292 Y2.3279
N13460 X1.8269 Y2.3054
N13465 X1.8259 Y2.2942
N13470 X1.8256 Y2.2895
N13475 X1.8258 Y2.2848
N13480 X1.8267 Y2.2801
N13485 G2 X1.8261 Y2.2623 I-0.0329 J-0.0079
N13490 G3 X1.8235 Y2.2493 I0.0595 J-0.0184
N13495 G1 X1.8206 Y2.1931
N13500 Y2.1819
N13505 X1.8259 Y2.0808
N13510 X1.8269 Y2.0696
N13515 X1.8292 Y2.0471
N13520 X1.8307 Y2.0359
N13525 X1.8467 Y1.9348
N13530 X1.8494 Y1.9236
N13535 X1.8539 Y1.9067
N13540 X1.8734 Y1.8337
N13545 X1.8763 Y1.8232
N13550 X1.8839 Y1.8
N13555 X1.8876 Y1.7888
N13560 X1.9221 Y1.6989
N13565 X1.927 Y1.6877
N13570 X1.9321 Y1.6765
N13575 X1.9665 Y1.6091
N13580 X1.984 Y1.5754
N13585 X1.9887 Y1.5671
N13590 X2.0343 Y1.4968
N13595 X2.0568 Y1.4631
N13600 X2.0655 Y1.4519
N13605 X2.1122 Y1.3942
N13610 X2.1202 Y1.3845
N13615 X2.1392 Y1.362
N13620 X2.1459 Y1.3549
N13625 X2.2174 Y1.2834
N13630 X2.2245 Y1.2767
N13635 X2.247 Y1.2577
N13640 X2.2582 Y1.2485
N13645 X2.3144 Y1.203
N13650 X2.3256 Y1.1943
N13655 X2.3604 Y1.1711
N13660 X2.4296 Y1.1262
N13665 X2.4379 Y1.1215
N13670 X2.4716 Y1.104
N13675 X2.539 Y1.0696
N13680 X2.5502 Y1.0645
N13685 X2.5614 Y1.0596
N13690 X2.6515 Y1.0251
N13695 X2.6625 Y1.0214
N13700 X2.6819 Y1.0151
N13705 X2.6861 Y1.0142 Z-0.1594
N13710 X2.6902 Y1.0139 Z-0.1589
N13715 X2.6903
N13720 G3 X2.7048 Y1.0176 Z-0.1568 I0. J0.03
N13725 G2 X2.7362 Y1.0338 Z-0.152 I0.287 J-0.5198
N13730 X2.7994 Y1.0596 I0.2556 J-0.5359
N13735 X2.8128 Y1.0616 I0.0121 J-0.0355
N13740 G1 X3.2086 Y1.0481
N13745 G2 X3.2218 Y1.0452 I-0.0013 J-0.0375
N13750 X3.2835 Y1.0149 I-0.2301 J-0.5473
N13755 X3.3078 Y1.0005 Z-0.1558 I-0.2918 J-0.5171
N13760 G1 X3.3134 Y0.9969 Z-0.1567 F100.
N13765 G3 X3.3364 Y0.9929 Z-0.16 I0.0163 J0.0252
N13770 G1 X3.4038 Y1.0109 F135.
N13775 X3.4143 Y1.0139
N13780 X3.4375 Y1.0214
N13785 X3.4487 Y1.0251
N13790 X3.5385 Y1.0596
N13795 X3.5498 Y1.0645
N13800 X3.561 Y1.0696
N13805 X3.6284 Y1.104
N13810 X3.6621 Y1.1215
N13815 X3.6704 Y1.1262
N13820 X3.7407 Y1.1718
N13825 X3.7744 Y1.1943
N13830 X3.7856 Y1.203
N13835 X3.8433 Y1.2497
N13840 X3.853 Y1.2577
N13845 X3.8755 Y1.2767
N13850 X3.8826 Y1.2834
N13855 X3.9541 Y1.3549
N13860 X3.9608 Y1.362
N13865 X3.9798 Y1.3845
N13870 X3.989 Y1.3957
N13875 X4.0345 Y1.4519
N13880 X4.0432 Y1.4631
N13885 X4.0664 Y1.4979
N13890 X4.1113 Y1.567
N13895 X4.116 Y1.5754
N13900 X4.1338 Y1.6096
N13905 X4.1679 Y1.6765
N13910 X4.173 Y1.6877
N13915 X4.1779 Y1.6989
N13920 X4.201 Y1.7592
N13925 X4.2017 Y1.7628 Z-0.1598
N13930 X4.2024 Y1.7664 Z-0.1591
N13935 X4.203 Y1.7699 Z-0.158
N13940 Y1.7714 Z-0.1574
N13945 X4.2026 Y1.7744 Z-0.1559
N13950 X4.2022 Y1.7772 Z-0.154
N13955 X4.2018 Y1.7798 Z-0.1519
N13960 X4.2015 Y1.7821 Z-0.1494
N13965 X4.2006 Y1.7842 Z-0.1465
N13970 X4.1999 Y1.786 Z-0.1433
N13975 X4.1993 Y1.7874 Z-0.14
N13980 X4.1989 Y1.7884 Z-0.1364
N13985 X4.1987 Y1.789 Z-0.1328
N13990 X4.1986 Y1.7892 Z-0.1291
N13995 G0 Z0.2
N14000 G1 X2.9011 Y2.2589 F300.
N14005 G0 Z0.035
N14010 G1 Z-0.1025 F100.
N14015 X2.9014 Y2.2588 Z-0.1115
N14020 X2.9022 Y2.2585 Z-0.1204
N14025 X2.9036 Y2.2581 Z-0.1293
N14030 X2.9056 Y2.2575 Z-0.1381
N14035 X2.908 Y2.2567 Z-0.1467
N14040 X2.9111 Y2.2557 Z-0.1551
N14045 X2.9146 Y2.2546 Z-0.1633
N14050 X2.9187 Y2.2534 Z-0.1713
N14055 X2.9232 Y2.2519 Z-0.1789
N14060 X2.9282 Y2.2504 Z-0.1862
N14065 X2.9336 Y2.2487 Z-0.1932
N14070 X2.9395 Y2.2468 Z-0.1997
N14075 X2.9458 Y2.2449 Z-0.2059
N14080 X2.9524 Y2.2428 Z-0.2116
N14085 X2.9594 Y2.2406 Z-0.2168
N14090 X2.9667 Y2.2383 Z-0.2216
N14095 X2.9743 Y2.236 Z-0.2258
N14100 X2.9821 Y2.2335 Z-0.2295
N14105 X2.9901 Y2.231 Z-0.2327
N14110 X2.9983 Y2.2284 Z-0.2353
N14115 X3.0067 Y2.2258 Z-0.2374
N14120 X3.0152 Y2.2232 Z-0.2388
N14125 X3.0237 Y2.2205 Z-0.2397
N14130 X3.0323 Y2.2178 Z-0.24
N14135 G3 X3.2346 Y2.1778 I0.2858 J0.9137
N14140 G1 X3.2406 Y2.1775 F135.
N14145 X3.246 Y2.1803
N14150 X3.2509 Y2.1837
N14155 X3.2553 Y2.1877
N14160 X3.2597 Y2.1926
N14165 X3.2644 Y2.1988
N14170 X3.2677 Y2.2038
N14175 X3.2712 Y2.2104
N14180 X3.275 Y2.219
N14185 X3.2784 Y2.2292
N14190 X3.2805 Y2.2374
N14195 X3.2823 Y2.2478
N14200 X3.2834 Y2.2605
N14205 X3.2835 Y2.2729
N14210 X3.2827 Y2.2846
N14215 X3.2805 Y2.2986
N14220 X3.2768 Y2.3143
N14225 X3.2728 Y2.3267
N14230 X3.2667 Y2.3413
N14235 X3.2581 Y2.3581
N14240 X3.2505 Y2.3704
N14245 X3.2401 Y2.3845
N14250 X3.2265 Y2.4001
N14255 X3.2151 Y2.4113
N14260 X3.2001 Y2.4238
N14265 X3.1827 Y2.4361
N14270 X3.1674 Y2.4452
N14275 X3.1478 Y2.4547
N14280 X3.1285 Y2.4622
N14285 X3.1095 Y2.468
N14290 X3.0857 Y2.4731
N14295 X3.0669 Y2.4756
N14300 X3.0447 Y2.4768
N14305 X3.0213 Y2.4761
N14310 X3.0011 Y2.4739
N14315 X2.9767 Y2.4693
N14320 X2.9567 Y2.4638
N14325 X2.9353 Y2.456
N14330 X2.9131 Y2.4458
N14335 X2.8949 Y2.4356
N14340 X2.8737 Y2.4214
N14345 X2.8571 Y2.4082
N14350 X2.8401 Y2.3924
N14355 X2.8235 Y2.3741
N14360 X2.8104 Y2.3573
N14365 X2.7962 Y2.3354
N14370 X2.7861 Y2.3169
N14375 X2.7765 Y2.2952
N14380 X2.7684 Y2.2721
N14385 X2.7628 Y2.2511
N14390 X2.7581 Y2.2247
N14395 X2.7561 Y2.2044
N14400 X2.7558 Y2.18
N14405 X2.7573 Y2.1561
N14410 X2.7605 Y2.1341
N14415 X2.7665 Y2.1079
N14420 X2.7726 Y2.0885
N14425 X2.782 Y2.0654
N14430 X2.7924 Y2.0446
N14435 X2.8043 Y2.0251
N14440 X2.8197 Y2.0039
N14445 X2.8332 Y1.9881
N14450 X2.8512 Y1.9701
N14455 X2.8685 Y1.9555
N14460 X2.8874 Y1.9419
N14465 X2.9093 Y1.9287
N14470 X2.9283 Y1.9192
N14475 X2.9526 Y1.9094
N14480 X2.9733 Y1.903
N14485 X2.9965 Y1.8978
N14490 X3.0212 Y1.8943
N14495 X3.0429 Y1.893
N14500 X3.0697 Y1.8935
N14505 X3.0904 Y1.8956
N14510 X3.1143 Y1.9
N14515 X3.1377 Y1.9062
N14520 X3.1587 Y1.9136
N14525 X3.1833 Y1.9247
N14530 X3.2011 Y1.9345
N14535 X3.222 Y1.9482
N14540 X3.2404 Y1.9626
N14545 X3.2721 Y1.9917
N14550 X3.3038 Y2.0259
N14555 X3.3273 Y2.0554
N14560 X3.3455 Y2.0823
N14565 X3.3599 Y2.1079
N14570 X3.3715 Y2.1331
N14575 X3.3807 Y2.1581
N14580 X3.3877 Y2.1832
N14585 X3.3926 Y2.2087
N14590 X3.3954 Y2.2338
N14595 X3.3962 Y2.259
N14600 X3.3949 Y2.2845
N14605 X3.3917 Y2.3096
N14610 X3.3864 Y2.3345
N14615 X3.3789 Y2.3595
N14620 X3.3695 Y2.3837
N14625 X3.358 Y2.4074
N14630 X3.3443 Y2.4307
N14635 X3.3288 Y2.4528
N14640 X3.3111 Y2.4741
N14645 X3.2916 Y2.4941
N14650 X3.2704 Y2.5127
N14655 X3.247 Y2.53
N14660 X3.2224 Y2.5453
N14665 X3.1964 Y2.5587
N14670 X3.1688 Y2.5703
N14675 X3.1404 Y2.5796
N14680 X3.1109 Y2.5866
N14685 X3.0806 Y2.5914
N14690 X3.05 Y2.5937
N14695 X3.019 Y2.5935
N14700 X2.9877 Y2.5908
N14705 X2.9568 Y2.5857
N14710 X2.9258 Y2.5779
N14715 X2.8957 Y2.5677
N14720 X2.8664 Y2.5551
N14725 X2.8378 Y2.5399
N14730 X2.8107 Y2.5226
N14735 X2.7846 Y2.5028
N14740 X2.7604 Y2.4813
N14745 X2.7379 Y2.4577
N14750 X2.7172 Y2.4322
N14755 X2.6988 Y2.4053
N14760 X2.6822 Y2.3765
N14765 X2.6682 Y2.3469
N14770 X2.6566 Y2.3161
N14775 X2.6475 Y2.2843
N14780 X2.641 Y2.2521
N14785 X2.637 Y2.2188
N14790 X2.6357 Y2.186
N14795 X2.6371 Y2.1528
N14800 X2.6411 Y2.1199
N14805 X2.6477 Y2.0876
N14810 X2.6571 Y2.0554
N14815 X2.6687 Y2.0245
N14820 X2.6831 Y1.9944
N14825 X2.6996 Y1.9657
N14830 X2.7184 Y1.9384
N14835 X2.7396 Y1.9124
N14840 X2.7625 Y1.8886
N14845 X2.7876 Y1.8663
N14850 X2.814 Y1.8464
N14855 X2.8421 Y1.8286
N14860 X2.8717 Y1.813
N14865 X2.9021 Y1.7999
N14870 X2.934 Y1.7892
N14875 X2.9661 Y1.7812
N14880 X2.999 Y1.7758
N14885 X3.0322 Y1.773
N14890 X3.0653 Y1.7729
N14895 X3.099 Y1.7755
N14900 X3.1316 Y1.7807
N14905 X3.164 Y1.7886
N14910 X3.1957 Y1.799
N14915 X3.2298 Y1.8134
N14920 X3.2645 Y1.8314
N14925 X3.2999 Y1.8536
N14930 X3.3347 Y1.8795
N14935 X3.3672 Y1.908
N14940 X3.3966 Y1.9383
N14945 X3.4227 Y1.97
N14950 X3.4455 Y2.0026
N14955 X3.4652 Y2.0362
N14960 X3.4817 Y2.0704
N14965 X3.4952 Y2.1054
N14970 X3.5057 Y2.1409
N14975 X3.5133 Y2.1768
N14980 X3.5179 Y2.213
N14985 X3.5196 Y2.2493
N14990 X3.5184 Y2.2855
N14995 X3.5143 Y2.3215
N15000 X3.5073 Y2.3572
N15005 X3.4975 Y2.3923
N15010 X3.4847 Y2.4267
N15015 X3.4692 Y2.4602
N15020 X3.4509 Y2.4925
N15025 X3.4298 Y2.5236
N15030 X3.4062 Y2.553
N15035 X3.3801 Y2.5807
N15040 X3.3515 Y2.6065
N15045 X3.3208 Y2.63
N15050 X3.2881 Y2.6512
N15055 X3.2535 Y2.6698
N15060 X3.2172 Y2.6857
N15065 X3.1795 Y2.6987
N15070 X3.1406 Y2.7087
N15075 X3.1008 Y2.7156
N15080 X3.0602 Y2.7194
N15085 X3.0193 Y2.7198
N15090 X2.9782 Y2.717
N15095 X2.9372 Y2.7108
N15100 X2.8966 Y2.7013
N15105 X2.8568 Y2.6885
N15110 X2.8179 Y2.6725
N15115 X2.7802 Y2.6534
N15120 X2.7441 Y2.6312
N15125 X2.7098 Y2.6061
N15130 X2.6776 Y2.5782
N15135 X2.6475 Y2.5477
N15140 X2.6199 Y2.5149
N15145 X2.595 Y2.4799
N15150 X2.573 Y2.4429
N15155 X2.554 Y2.4043
N15160 X2.5381 Y2.3641
N15165 X2.5255 Y2.3228
N15170 X2.5162 Y2.2805
N15175 X2.5103 Y2.2377
N15180 X2.5079 Y2.1944
N15185 X2.509 Y2.151
N15190 X2.5136 Y2.1079
N15195 X2.5216 Y2.0652
N15200 X2.533 Y2.0233
N15205 X2.5478 Y1.9824
N15210 X2.5658 Y1.9428
N15215 X2.5869 Y1.9048
N15220 X2.611 Y1.8686
N15225 X2.6379 Y1.8344
N15230 X2.6675 Y1.8025
N15235 X2.6996 Y1.773
N15240 X2.7339 Y1.7463
N15245 X2.7704 Y1.7223
N15250 X2.8086 Y1.7014
N15255 X2.8484 Y1.6835
N15260 X2.8894 Y1.669
N15265 X2.9315 Y1.6578
N15270 X2.9744 Y1.6499
N15275 X3.0178 Y1.6456
N15280 X3.0614 Y1.6448
N15285 X3.1049 Y1.6474
N15290 X3.149 Y1.6537
N15295 X3.1935 Y1.6637
N15300 X3.2381 Y1.6776
N15305 X3.2814 Y1.695
N15310 X3.3233 Y1.7156
N15315 X3.3636 Y1.7393
N15320 X3.402 Y1.7658
N15325 X3.4383 Y1.7951
N15330 X3.4724 Y1.8271
N15335 X3.504 Y1.8614
N15340 X3.5329 Y1.8981
N15345 X3.5591 Y1.9368
N15350 X3.5822 Y1.9773
N15355 X3.6021 Y2.0196
N15360 X3.6187 Y2.0632
N15365 X3.6318 Y2.108
N15370 X3.6414 Y2.1537
N15375 X3.6474 Y2.2
N15380 X3.6496 Y2.2467
N15385 X3.6481 Y2.2933
N15390 X3.6429 Y2.3397
N15395 X3.634 Y2.3856
N15400 X3.6215 Y2.4306
N15405 X3.6055 Y2.4744
N15410 X3.5861 Y2.5169
N15415 X3.5634 Y2.5577
N15420 X3.5375 Y2.5966
N15425 X3.5087 Y2.6333
N15430 X3.4772 Y2.6678
N15435 X3.4431 Y2.6997
N15440 X3.4067 Y2.7289
N15445 X3.3682 Y2.7553
N15450 X3.3278 Y2.7787
N15455 X3.2857 Y2.799
N15460 X3.2423 Y2.8161
N15465 X3.1977 Y2.8298
N15470 X3.1521 Y2.8402
N15475 X3.106 Y2.8472
N15480 X3.0594 Y2.8508
N15485 X3.0127 Y2.851
N15490 X2.9661 Y2.8478
N15495 X2.9199 Y2.8413
N15500 X2.8743 Y2.8315
N15505 X2.8294 Y2.8185
N15510 X2.7856 Y2.8022
N15515 X2.7431 Y2.7829
N15520 X2.7022 Y2.7605
N15525 X2.6629 Y2.7353
N15530 X2.6254 Y2.7074
N15535 X2.59 Y2.6769
N15540 X2.5568 Y2.6441
N15545 X2.526 Y2.609
N15550 X2.4978 Y2.5718
N15555 X2.4722 Y2.5327
N15560 X2.4495 Y2.4919
N15565 X2.4297 Y2.4497
N15570 X2.4129 Y2.4061
N15575 X2.3991 Y2.3615
N15580 X2.3884 Y2.3161
N15585 X2.3809 Y2.27
N15590 X2.3766 Y2.2235
N15595 X2.3757 Y2.1768
N15600 X2.378 Y2.1302
N15605 X2.3835 Y2.0838
N15610 X2.3922 Y2.0379
N15615 X2.4041 Y1.9927
N15620 X2.4189 Y1.9485
N15625 X2.4369 Y1.9054
N15630 X2.4579 Y1.8637
N15635 X2.4817 Y1.8235
N15640 X2.5082 Y1.7851
N15645 X2.5373 Y1.7486
N15650 X2.5689 Y1.7141
N15655 X2.6027 Y1.6819
N15660 X2.6386 Y1.6522
N15665 X2.6766 Y1.625
N15670 X2.7164 Y1.6006
N15675 X2.7578 Y1.579
N15680 X2.8006 Y1.5602
N15685 X2.8445 Y1.5445
N15690 X2.8894 Y1.5317
N15695 X2.9351 Y1.5221
N15700 X2.9814 Y1.5158
N15705 X3.028 Y1.5127
N15710 X3.0747 Y1.5128
N15715 X3.1212 Y1.5161
N15720 X3.1675 Y1.5224
N15725 X3.2133 Y1.5317
N15730 X3.2583 Y1.5442
N15735 X3.3024 Y1.5595
N15740 X3.3454 Y1.5776
N15745 X3.3873 Y1.5983
N15750 X3.4278 Y1.6215
N15755 X3.4667 Y1.6472
N15760 X3.504 Y1.6754
N15765 X3.5395 Y1.7058
N15770 X3.573 Y1.7382
N15775 X3.6045 Y1.7727
N15780 X3.6338 Y1.809
N15785 X3.6608 Y1.8471
N15790 X3.6853 Y1.8869
N15795 X3.7073 Y1.9281
N15800 X3.7266 Y1.9706
N15805 X3.7433 Y2.0142
N15810 X3.7571 Y2.0588
N15815 X3.768 Y2.1042
N15820 X3.776 Y2.1502
N15825 X3.7809 Y2.1966
N15830 X3.783 Y2.2433
N15835 X3.782 Y2.29
N15840 X3.778 Y2.3365
N15845 X3.7709 Y2.3826
N15850 X3.7608 Y2.4282
N15855 X3.7479 Y2.4731
N15860 X3.7321 Y2.5171
N15865 X3.7136 Y2.5599
N15870 X3.6923 Y2.6014
N15875 X3.6683 Y2.6415
N15880 X3.6419 Y2.68
N15885 X3.6131 Y2.7168
N15890 X3.5821 Y2.7517
N15895 X3.5489 Y2.7845
N15900 X3.5136 Y2.8151
N15905 X3.4765 Y2.8435
N15910 X3.4378 Y2.8696
N15915 X3.3975 Y2.8932
N15920 X3.3559 Y2.9143
N15925 X3.313 Y2.9327
N15930 X3.269 Y2.9484
N15935 X3.2241 Y2.9614
N15940 X3.1786 Y2.9716
N15945 X3.1325 Y2.9792
N15950 X3.0861 Y2.9838
N15955 X3.0394 Y2.9856
N15960 X2.9927 Y2.9846
N15965 X2.9462 Y2.9808
N15970 X2.8999 Y2.9743
N15975 X2.8542 Y2.9651
N15980 X2.809 Y2.9531
N15985 X2.7647 Y2.9384
N15990 X2.7214 Y2.9211
N15995 X2.6791 Y2.9012
N16000 X2.6381 Y2.879
N16005 X2.5984 Y2.8544
N16010 X2.5602 Y2.8274
N16015 X2.5238 Y2.7983
N16020 X2.4891 Y2.767
N16025 X2.4562 Y2.7338
N16030 X2.4254 Y2.6988
N16035 X2.3966 Y2.6621
N16040 X2.37 Y2.6236
N16045 X2.3458 Y2.5837
N16050 X2.324 Y2.5424
N16055 X2.3045 Y2.5
N16060 X2.2875 Y2.4565
N16065 X2.273 Y2.4121
N16070 X2.2612 Y2.3669
N16075 X2.2521 Y2.3212
N16080 X2.2456 Y2.2749
N16085 X2.2419 Y2.2284
N16090 X2.2407 Y2.1817
N16095 X2.2423 Y2.135
N16100 X2.2466 Y2.0885
N16105 X2.2536 Y2.0424
N16110 X2.2632 Y1.9967
N16115 X2.2755 Y1.9516
N16120 X2.2902 Y1.9073
N16125 X2.3076 Y1.864
N16130 X2.3274 Y1.8217
N16135 X2.3497 Y1.7807
N16140 X2.3743 Y1.741
N16145 X2.4012 Y1.7028
N16150 X2.4301 Y1.6662
N16155 X2.4611 Y1.6312
N16160 X2.4941 Y1.5982
N16165 X2.529 Y1.5672
N16170 X2.5656 Y1.5382
N16175 X2.6038 Y1.5114
N16180 X2.6435 Y1.4868
N16185 X2.6845 Y1.4645
N16190 X2.7268 Y1.4446
N16195 X2.7701 Y1.4272
N16200 X2.8144 Y1.4124
N16205 X2.8594 Y1.4001
N16210 X2.9051 Y1.3904
N16215 X2.9512 Y1.3833
N16220 X2.9977 Y1.3789
N16225 X3.0444 Y1.3772
N16230 X3.0911 Y1.3782
N16235 X3.1376 Y1.3818
N16240 X3.1839 Y1.3879
N16245 X3.2298 Y1.3966
N16250 X3.2751 Y1.4078
N16255 X3.3197 Y1.4215
N16260 X3.3636 Y1.4377
N16265 X3.4065 Y1.4561
N16270 X3.4483 Y1.4767
N16275 X3.4891 Y1.4996
N16280 X3.5286 Y1.5245
N16285 X3.5666 Y1.5515
N16290 X3.6032 Y1.5805
N16295 X3.6382 Y1.6114
N16300 X3.6716 Y1.6441
N16305 X3.7032 Y1.6785
N16310 X3.733 Y1.7144
N16315 X3.7608 Y1.7519
N16320 X3.7866 Y1.7909
N16325 X3.8102 Y1.8311
N16330 X3.8317 Y1.8726
N16335 X3.851 Y1.9151
N16340 X3.868 Y1.9586
N16345 X3.8826 Y2.0029
N16350 X3.8948 Y2.048
N16355 X3.9045 Y2.0937
N16360 X3.9117 Y2.1398
N16365 X3.9165 Y2.1862
N16370 X3.9187 Y2.2329
N16375 X3.9185 Y2.2796
N16380 X3.9156 Y2.3262
N16385 X3.9102 Y2.3726
N16390 X3.9023 Y2.4186
N16395 X3.8919 Y2.4641
N16400 X3.8791 Y2.509
N16405 X3.8639 Y2.5531
N16410 X3.8463 Y2.5964
N16415 X3.8263 Y2.6386
N16420 X3.8041 Y2.6797
N16425 X3.7797 Y2.7195
N16430 X3.7533 Y2.758
N16435 X3.7249 Y2.795
N16440 X3.7173 Y2.8039
N16445 X3.7134 Y2.8083
N16450 X3.6824 Y2.8431
N16455 X3.6495 Y2.8763
N16460 X3.615 Y2.9077
N16465 X3.5787 Y2.9372
N16470 X3.541 Y2.9647
N16475 X3.5019 Y2.9901
N16480 X3.4614 Y3.0135
N16485 X3.4198 Y3.0347
N16490 X3.3772 Y3.0537
N16495 X3.3336 Y3.0705
N16500 X3.2892 Y3.0849
N16505 X3.2441 Y3.097
N16510 X3.1984 Y3.1068
N16515 X3.1754 Y3.1104
N16520 X3.1696 Y3.1112
N16525 X3.1233 Y3.1173
N16530 X3.0768 Y3.1208
N16535 X3.0301 Y3.122
N16540 X2.9834 Y3.1207
N16545 X2.9368 Y3.1171
N16550 X2.8905 Y3.1112
N16555 X2.8446 Y3.1029
N16560 X2.7991 Y3.0922
N16565 X2.7543 Y3.0792
N16570 X2.7102 Y3.0639
N16575 X2.6669 Y3.0464
N16580 X2.6245 Y3.0269
N16585 X2.5831 Y3.0052
N16590 X2.5429 Y2.9815
N16595 X2.504 Y2.9557
N16600 X2.4664 Y2.928
N16605 X2.4303 Y2.8984
N16610 X2.3956 Y2.8671
N16615 X2.3626 Y2.8341
N16620 X2.3312 Y2.7996
N16625 X2.3016 Y2.7635
N16630 X2.2739 Y2.7259
N16635 X2.2481 Y2.687
N16640 X2.2242 Y2.6468
N16645 X2.2024 Y2.6055
N16650 X2.1826 Y2.5633
N16655 X2.1649 Y2.5201
N16660 X2.1494 Y2.476
N16665 X2.1361 Y2.4312
N16670 X2.1251 Y2.3859
N16675 X2.1164 Y2.34
N16680 X2.1148 Y2.3284
N16685 X2.1088 Y2.2821
N16690 X2.1052 Y2.2356
N16695 X2.1038 Y2.1889
N16700 X2.1047 Y2.1422
N16705 X2.108 Y2.0956
N16710 X2.1136 Y2.0493
N16715 X2.1215 Y2.0033
N16720 X2.1317 Y1.9577
N16725 X2.144 Y1.9127
N16730 X2.1586 Y1.8683
N16735 X2.1754 Y1.8247
N16740 X2.1942 Y1.782
N16745 X2.2153 Y1.7403
N16750 X2.2383 Y1.6997
N16755 X2.2634 Y1.6603
N16760 X2.2903 Y1.6222
N16765 X2.319 Y1.5854
N16770 X2.3343 Y1.5677
N16775 X2.3421 Y1.559
N16780 X2.3461 Y1.5548
N16785 X2.378 Y1.5207
N16790 X2.4116 Y1.4883
N16795 X2.4468 Y1.4576
N16800 X2.4835 Y1.4287
N16805 X2.5215 Y1.4017
N16810 X2.5609 Y1.3765
N16815 X2.6014 Y1.3533
N16820 X2.643 Y1.3322
N16825 X2.6857 Y1.3132
N16830 X2.7292 Y1.2963
N16835 X2.7735 Y1.2815
N16840 X2.8185 Y1.269
N16845 X2.864 Y1.2586
N16850 X2.887 Y1.2546
N16855 X2.8985 Y1.2528
N16860 X2.9043 Y1.252
N16865 X2.9506 Y1.2458
N16870 X2.9971 Y1.2419
N16875 X3.0438 Y1.2403
N16880 X3.0905 Y1.241
N16885 X3.1371 Y1.2439
N16890 X3.1835 Y1.249
N16895 X3.2296 Y1.2564
N16900 X3.2753 Y1.266
N16905 X3.3205 Y1.2778
N16910 X3.3651 Y1.2917
N16915 X3.4089 Y1.3076
N16920 X3.4521 Y1.3255
N16925 X3.4943 Y1.3454
N16930 X3.5356 Y1.3672
N16935 X3.5758 Y1.3909
N16940 X3.5809 Y1.3937
N16945 X3.5864 Y1.3968
N16950 X3.5919 Y1.4
N16955 X3.5971 Y1.403
N16960 X3.6022 Y1.406
N16965 X3.6074 Y1.4091
N16970 X3.6125 Y1.4123
N16975 X3.6176 Y1.4155
N16980 X3.6229 Y1.4189
N16985 X3.6284 Y1.4224
N16990 X3.6341 Y1.4262
N16995 X3.6396 Y1.4298
N17000 X3.6445 Y1.4332
N17005 X3.6495 Y1.4366
N17010 X3.6544 Y1.4401
N17015 X3.6595 Y1.4437
N17020 X3.6648 Y1.4475
N17025 X3.6703 Y1.4516
N17030 X3.676 Y1.4558
N17035 X3.6817 Y1.4601
N17040 X3.6866 Y1.4639
N17045 X3.6914 Y1.4676
N17050 X3.6963 Y1.4715
N17055 X3.7014 Y1.4756
N17060 X3.7066 Y1.4799
N17065 X3.7121 Y1.4844
N17070 X3.7177 Y1.4891
N17075 X3.7234 Y1.4939
N17080 X3.7283 Y1.4982
N17085 X3.7329 Y1.5023
N17090 X3.7377 Y1.5066
N17095 X3.7427 Y1.511
N17100 X3.7478 Y1.5157
N17105 X3.7531 Y1.5207
N17110 X3.7586 Y1.5259
N17115 X3.7641 Y1.5312
N17120 X3.7687 Y1.5357
N17125 X3.7732 Y1.5402
N17130 X3.7779 Y1.5448
N17135 X3.7827 Y1.5497
N17140 X3.7876 Y1.5548
N17145 X3.7928 Y1.5602
N17150 X3.7981 Y1.5659
N17155 X3.8032 Y1.5714
N17160 X3.8076 Y1.5762
N17165 X3.8119 Y1.581
N17170 X3.8164 Y1.5861
N17175 X3.8211 Y1.5914
N17180 X3.8259 Y1.597
N17185 X3.8309 Y1.6029
N17190 X3.836 Y1.609
N17195 X3.8405 Y1.6146
N17200 X3.8446 Y1.6196
N17205 X3.8488 Y1.6249
N17210 X3.8531 Y1.6304
N17215 X3.8576 Y1.6361
N17220 X3.8622 Y1.6422
N17225 X3.867 Y1.6486
N17230 X3.8717 Y1.6549
N17235 X3.8756 Y1.6603
N17240 X3.8795 Y1.6658
N17245 X3.8836 Y1.6714
N17250 X3.8877 Y1.6774
N17255 X3.892 Y1.6836
N17260 X3.8964 Y1.6902
N17265 X3.9009 Y1.6971
N17270 X3.9048 Y1.7031
N17275 X3.9084 Y1.7086
N17280 X3.9121 Y1.7145
N17285 X3.9159 Y1.7206
N17290 X3.9198 Y1.727
N17295 X3.9239 Y1.7337
N17300 X3.9281 Y1.7408
N17305 X3.932 Y1.7475
N17310 X3.9353 Y1.7533
N17315 X3.9386 Y1.7592
N17320 X3.942 Y1.7654
N17325 X3.9455 Y1.7719
N17330 X3.9492 Y1.7787
N17335 X3.9529 Y1.7859
N17340 X3.9567 Y1.7931
N17345 X3.9598 Y1.7993
N17350 X3.9627 Y1.8052
N17355 X3.9658 Y1.8115
N17360 X3.9689 Y1.818
N17365 X3.9721 Y1.8248
N17370 X3.9754 Y1.832
N17375 X3.9788 Y1.8395
N17380 X3.9818 Y1.8463
N17385 X3.9844 Y1.8523
N17390 X3.9871 Y1.8586
N17395 X3.9898 Y1.8652
N17400 X3.9926 Y1.872
N17405 X3.9955 Y1.8792
N17410 X3.9984 Y1.8867
N17415 X4.0013 Y1.8942
N17420 X4.0037 Y1.9006
N17425 X4.006 Y1.9069
N17430 X4.0083 Y1.9135
N17435 X4.0107 Y1.9204
N17440 X4.0132 Y1.9276
N17445 X4.0157 Y1.9351
N17450 X4.0183 Y1.943
N17455 X4.0204 Y1.9499
N17460 X4.0224 Y1.9562
N17465 X4.0244 Y1.9629
N17470 X4.0275 Y1.9734
N17475 X4.0306 Y1.9847
N17480 X4.0327 Y1.9927
N17485 X4.0347 Y2.0001
N17490 X4.0363 Y2.0066
N17495 X4.038 Y2.0132
N17500 X4.0396 Y2.0202
N17505 X4.0413 Y2.0274
N17510 X4.043 Y2.035
N17515 X4.0447 Y2.043
N17520 X4.0463 Y2.0509
N17525 X4.0477 Y2.0577
N17530 X4.0489 Y2.0643
N17535 X4.0502 Y2.0712
N17540 X4.0515 Y2.0784
N17545 X4.0527 Y2.086
N17550 X4.054 Y2.0939
N17555 X4.0553 Y2.1021
N17560 X4.0563 Y2.1093
N17565 X4.0572 Y2.1158
N17570 X4.0581 Y2.1226
N17575 X4.059 Y2.1297
N17580 X4.0599 Y2.1371
N17585 X4.0607 Y2.1448
N17590 X4.0615 Y2.153
N17595 X4.0623 Y2.1608
N17600 X4.0629 Y2.1674
N17605 X4.0634 Y2.1741
N17610 X4.0639 Y2.1811
N17615 X4.0644 Y2.1884
N17620 X4.0648 Y2.196
N17625 X4.0652 Y2.2039
N17630 X4.0655 Y2.2121
N17635 X4.0658 Y2.2192
N17640 X4.066 Y2.2258
N17645 X4.0661 Y2.2327
N17650 X4.0662 Y2.2398
N17655 X4.0663 Y2.2473
N17660 X4.0662 Y2.2551
N17665 Y2.2633
N17670 X4.066 Y2.271
N17675 X4.0659 Y2.2776
N17680 X4.0657 Y2.2844
N17685 X4.0654 Y2.2915
N17690 X4.0651 Y2.2989
N17695 X4.0647 Y2.3066
N17700 X4.0642 Y2.3146
N17705 X4.0636 Y2.3228
N17710 X4.0631 Y2.3296
N17715 X4.0626 Y2.3363
N17720 X4.0619 Y2.3433
N17725 X4.0612 Y2.3506
N17730 X4.0604 Y2.3581
N17735 X4.0596 Y2.3661
N17740 X4.0586 Y2.3743
N17745 X4.0576 Y2.3816
N17750 X4.0568 Y2.3882
N17755 X4.0558 Y2.395
N17760 X4.0547 Y2.4022
N17765 X4.0536 Y2.4096
N17770 X4.0523 Y2.4173
N17775 X4.0509 Y2.4255
N17780 X4.0495 Y2.4332
N17785 X4.0483 Y2.4398
N17790 X4.047 Y2.4464
N17795 X4.0456 Y2.4533
N17800 X4.0441 Y2.4605
N17805 X4.0424 Y2.468
N17810 X4.0407 Y2.4759
N17815 X4.0388 Y2.4839
N17820 X4.0372 Y2.4907
N17825 X4.0356 Y2.4971
N17830 X4.0339 Y2.5038
N17835 X4.032 Y2.5108
N17840 X4.03 Y2.518
N17845 X4.0279 Y2.5255
N17850 X4.0257 Y2.5334
N17855 X4.0235 Y2.5407
N17860 X4.0216 Y2.547
N17865 X4.0196 Y2.5535
N17870 X4.0174 Y2.5603
N17875 X4.0151 Y2.5673
N17880 X4.0126 Y2.5746
N17885 X4.01 Y2.5822
N17890 X4.0073 Y2.5899
N17895 X4.005 Y2.5963
N17900 X4.0027 Y2.6026
N17905 X4.0002 Y2.6092
N17910 X3.9976 Y2.616
N17915 X3.9948 Y2.6231
N17920 X3.9918 Y2.6304
N17925 X3.9886 Y2.6381
N17930 X3.9858 Y2.6448
N17935 X3.9832 Y2.651
N17940 X3.9804 Y2.6573
N17945 X3.9775 Y2.6639
N17950 X3.9743 Y2.6708
N17955 X3.971 Y2.678
N17960 X3.9675 Y2.6855
N17965 X3.9641 Y2.6925
N17970 X3.9611 Y2.6985
N17975 X3.958 Y2.7047
N17980 X3.9548 Y2.7111
N17985 X3.9513 Y2.7177
N17990 X3.9477 Y2.7247
N17995 X3.9438 Y2.7319
N18000 X3.9399 Y2.7391
N18005 X3.9349 Y2.748
N18010 X3.9297 Y2.757
N18015 X3.9263 Y2.7628
N18020 X3.9228 Y2.7687
N18025 X3.9191 Y2.7749
N18030 X3.8946 Y2.8146
N18035 X3.8904 Y2.8207
N18040 X3.886 Y2.827
N18045 X3.8814 Y2.8336
N18050 X3.8765 Y2.8404
N18055 X3.8714 Y2.8474
N18060 X3.8671 Y2.8532
N18065 X3.8629 Y2.8587
N18070 X3.8585 Y2.8645
N18075 X3.8538 Y2.8705
N18080 X3.8489 Y2.8768
N18085 X3.8437 Y2.8833
N18090 X3.8383 Y2.89
N18095 X3.8337 Y2.8956
N18100 X3.8292 Y2.9008
N18105 X3.8246 Y2.9063
N18110 X3.8197 Y2.912
N18115 X3.8146 Y2.9179
N18120 X3.8091 Y2.924
N18125 X3.8034 Y2.9303
N18130 X3.7984 Y2.9358
N18135 X3.7938 Y2.9408
N18140 X3.7889 Y2.946
N18145 X3.7838 Y2.9513
N18150 X3.7784 Y2.9569
N18155 X3.7728 Y2.9626
N18160 X3.7668 Y2.9686
N18165 X3.7613 Y2.974
N18170 X3.7564 Y2.9788
N18175 X3.7514 Y2.9836
N18180 X3.746 Y2.9886
N18185 X3.7404 Y2.9938
N18190 X3.7346 Y2.9992
N18195 X3.7283 Y3.0049
N18200 X3.7224 Y3.0102
N18205 X3.7172 Y3.0147
N18210 X3.712 Y3.0192
N18215 X3.7064 Y3.0239
N18220 X3.7006 Y3.0288
N18225 X3.6945 Y3.0339
N18230 X3.6563 Y3.0606
N18235 X3.6172 Y3.0862
N18240 X3.5772 Y3.1104
N18245 X3.5364 Y3.1331
N18250 X3.4948 Y3.1541
N18255 X3.4523 Y3.1735
N18260 X3.409 Y3.191
N18265 X3.365 Y3.2067
N18270 X3.3204 Y3.2203
N18275 X3.3034 Y3.2247
N18280 X3.2926 Y3.229
N18285 X3.2824 Y3.2348
N18290 X3.2638 Y3.2489
N18295 X3.2353 Y3.2859
N18300 X3.2105 Y3.3254
N18305 X3.1912 Y3.3551
N18310 X3.1776 Y3.3728
N18315 X3.1669 Y3.3847
N18320 X3.1577 Y3.3933
N18325 X3.1552 Y3.3953
N18330 X3.144 Y3.4029
N18335 X3.1317 Y3.4087
N18340 X3.1186 Y3.4126
N18345 X3.1051 Y3.4143
N18350 X3.1037 Y3.4144
N18355 X3.1022
N18360 X3.0703 Y3.3804
N18365 X3.0327 Y3.3526
N18370 X2.992 Y3.3297
N18375 X2.9496 Y3.3102
N18380 X2.9062 Y3.2929
N18385 X2.8624 Y3.2768
N18390 X2.8184 Y3.2612
N18395 X2.7744 Y3.2455
N18400 X2.7306 Y3.2294
N18405 X2.6872 Y3.2123
N18410 X2.6442 Y3.1941
N18415 X2.6018 Y3.1745
N18420 X2.5601 Y3.1535
N18425 X2.5191 Y3.131
N18430 X2.4791 Y3.107
N18435 X2.44 Y3.0815
N18440 X2.402 Y3.0543
N18445 X2.3652 Y3.0256
N18450 X2.3297 Y2.9953
N18455 X2.2954 Y2.9636
N18460 X2.2625 Y2.9304
N18465 X2.2311 Y2.8959
N18470 X2.2012 Y2.8601
N18475 X2.1728 Y2.823
N18480 X2.1461 Y2.7847
N18485 X2.1211 Y2.7453
N18490 X2.0978 Y2.7048
N18495 X2.0763 Y2.6634
N18500 X2.0565 Y2.621
N18505 X2.0387 Y2.5779
N18510 X2.0226 Y2.5341
N18515 X2.0085 Y2.4895
N18520 X2.0025 Y2.467
N18525 X2.0011 Y2.4613
N18530 X1.9984 Y2.45
N18535 X1.9941 Y2.4391
N18540 X1.9885 Y2.4289
N18545 X1.9607 Y2.3914
N18550 X1.9229 Y2.364
N18555 X1.8843 Y2.3377
N18560 X1.866 Y2.3232
N18565 X1.8541 Y2.3124
N18570 X1.8433 Y2.301
N18575 X1.8426 Y2.3001
N18580 X1.835 Y2.2889
N18585 X1.8292 Y2.2766
N18590 X1.8253 Y2.2635
N18595 X1.8236 Y2.25
N18600 X1.8235 Y2.2493
N18605 Y2.2478
N18610 X1.8526 Y2.2112
N18615 X1.8762 Y2.171
N18620 X1.896 Y2.1287
N18625 X1.9131 Y2.0852
N18630 X1.9287 Y2.0412
N18635 X1.9435 Y1.9969
N18640 X1.9509 Y1.9748
N18645 X1.9613 Y1.9438
N18650 X1.968 Y1.9245
N18655 X1.9738 Y1.9079
N18660 X1.9804 Y1.8897
N18665 X1.9854 Y1.8762
N18670 X1.9899 Y1.8643
N18675 X1.9949 Y1.8515
N18680 X2.0003 Y1.8377
N18685 X2.0048 Y1.8266
N18690 X2.0088 Y1.8168
N18695 X2.0132 Y1.8064
N18700 X2.018 Y1.7953
N18705 X2.0231 Y1.7837
N18710 X2.0271 Y1.7748
N18715 X2.0311 Y1.766
N18720 X2.0354 Y1.7567
N18725 X2.04 Y1.7469
N18730 X2.045 Y1.7365
N18735 X2.0493 Y1.7279
N18740 X2.0532 Y1.72
N18745 X2.0575 Y1.7117
N18750 X2.062 Y1.7029
N18755 X2.0669 Y1.6937
N18760 X2.0719 Y1.6845
N18765 X2.0759 Y1.6771
N18770 X2.0801 Y1.6696
N18775 X2.0845 Y1.6617
N18780 X2.0893 Y1.6535
N18785 X2.0944 Y1.6448
N18790 X2.0994 Y1.6364
N18795 X2.1036 Y1.6295
N18800 X2.1079 Y1.6224
N18805 X2.1126 Y1.615
N18810 X2.117 Y1.6082
N18815 X2.1236 Y1.598
N18820 X2.1303 Y1.5879
N18825 X2.135 Y1.5809
N18830 X2.1417 Y1.5713
N18835 X2.1469 Y1.5609
N18840 X2.1508 Y1.5499
N18845 X2.1532 Y1.5384
N18850 X2.1548 Y1.5152
N18855 X2.1518 Y1.4991
N18860 X2.1869 Y1.4684
N18865 X2.222 Y1.4376
N18870 X2.2573 Y1.407
N18875 X2.2752 Y1.392
N18880 X2.2889 Y1.3807
N18885 X2.2985 Y1.373
N18890 X2.3087 Y1.3649
N18895 X2.3197 Y1.3562
N18900 X2.331 Y1.3474
N18905 X2.3394 Y1.3411
N18910 X2.348 Y1.3346
N18915 X2.3573 Y1.3278
N18920 X2.3672 Y1.3205
N18925 X2.3767 Y1.3137
N18930 X2.3843 Y1.3084
N18935 X2.3922 Y1.3029
N18940 X2.4007 Y1.2971
N18945 X2.4097 Y1.291
N18950 X2.419 Y1.2848
N18955 X2.4265 Y1.28
N18960 X2.4339 Y1.2752
N18965 X2.4417 Y1.2703
N18970 X2.45 Y1.2651
N18975 X2.4588 Y1.2598
N18980 X2.4675 Y1.2546
N18985 X2.4745 Y1.2504
N18990 X2.4819 Y1.2461
N18995 X2.4896 Y1.2417
N19000 X2.4978 Y1.2371
N19005 X2.5065 Y1.2323
N19010 X2.5149 Y1.2278
N19015 X2.5219 Y1.224
N19020 X2.5292 Y1.2202
N19025 X2.5369 Y1.2163
N19030 X2.545 Y1.2122
N19035 X2.5536 Y1.2079
N19040 X2.5621 Y1.2038
N19045 X2.5692 Y1.2004
N19050 X2.5765 Y1.197
N19055 X2.5841 Y1.1935
N19060 X2.5921 Y1.1899
N19065 X2.6006 Y1.1861
N19070 X2.6094 Y1.1823
N19075 X2.6167 Y1.1792
N19080 X2.6239 Y1.1762
N19085 X2.6314 Y1.1731
N19090 X2.6393 Y1.17
N19095 X2.6477 Y1.1667
N19100 X2.6565 Y1.1633
N19105 X2.6645 Y1.1604
N19110 X2.6715 Y1.1578
N19115 X2.6789 Y1.1552
N19120 X2.6867 Y1.1525
N19125 X2.6939 Y1.15
N19130 X2.7013 Y1.1475
N19135 X2.7085 Y1.1452
N19140 X2.7158 Y1.1429
N19145 X2.7234 Y1.1405
N19150 X2.7315 Y1.1381
N19155 X2.7399 Y1.1357
N19160 X2.7488 Y1.1331
N19165 X2.7577 Y1.1307
N19170 X2.7651 Y1.1287
N19175 X2.7725 Y1.1268
N19180 X2.7838 Y1.1239
N19185 X2.7947 Y1.1196
N19190 X2.8048 Y1.1138
N19195 X2.8421 Y1.0857
N19200 X2.8686 Y1.0472
N19205 X2.8725 Y1.0415
N19210 X2.8766 Y1.0355
N19215 X2.8809 Y1.0293
N19220 X2.8844 Y1.0244
N19225 X2.8879 Y1.0196
N19230 X2.8916 Y1.0148
N19235 X2.8952 Y1.01
N19240 X2.899 Y1.0054
N19245 X2.9028 Y1.0008
N19250 X2.9068 Y0.9962
N19255 X2.9108 Y0.9917
N19260 X2.9149 Y0.9873
N19265 X2.9272 Y0.9771
N19270 X2.9412 Y0.9693
N19275 X2.9563 Y0.9642
N19280 X2.9722 Y0.9619
N19285 X2.9882 Y0.961
N19290 X2.9897
N19295 X3.0243 Y0.9924
N19300 X3.0633 Y1.0181
N19305 X3.1048 Y1.0394
N19310 X3.1477 Y1.0578
N19315 X3.1914 Y1.0742
N19320 X3.2355 Y1.0895
N19325 X3.2798 Y1.1045
N19330 X3.3239 Y1.1197
N19335 X3.3679 Y1.1354
N19340 X3.4115 Y1.152
N19345 X3.4547 Y1.1697
N19350 X3.4974 Y1.1886
N19355 X3.5396 Y1.2087
N19360 X3.5812 Y1.2299
N19365 X3.6221 Y1.2524
N19370 X3.6623 Y1.2762
N19375 X3.7015 Y1.3015
N19380 X3.7397 Y1.3284
N19385 X3.7768 Y1.3567
N19390 X3.8127 Y1.3866
N19395 X3.8473 Y1.4179
N19400 X3.8806 Y1.4506
N19405 X3.9126 Y1.4847
N19410 X3.9431 Y1.52
N19415 X3.9721 Y1.5566
N19420 X3.9996 Y1.5943
N19425 X4.0255 Y1.6332
N19430 X4.0499 Y1.673
N19435 X4.0725 Y1.7138
N19440 X4.0935 Y1.7555
N19445 X4.1128 Y1.7981
N19450 X4.1303 Y1.8414
N19455 X4.1461 Y1.8853
N19460 X4.16 Y1.9299
N19465 X4.1868 Y1.9681
N19470 X4.2188 Y2.0021
N19475 X4.2351 Y2.0188
N19480 X4.2559 Y2.0417
N19485 X4.2565 Y2.0424
N19490 X4.2638 Y2.0534
N19495 X4.2693 Y2.0655
N19500 X4.273 Y2.0782
N19505 X4.2747 Y2.0913
N19510 X4.2765 Y2.1257
N19515 Y2.1317
N19520 X4.2753 Y2.1376
N19525 X4.2602 Y2.1818
N19530 X4.2479 Y2.2268
N19535 X4.2372 Y2.2723
N19540 X4.2274 Y2.3179
N19545 X4.2178 Y2.3636
N19550 X4.2078 Y2.4092
N19555 X4.1972 Y2.4547
N19560 X4.1856 Y2.4999
N19565 X4.1727 Y2.5448
N19570 X4.1586 Y2.5893
N19575 X4.1429 Y2.6333
N19580 X4.1258 Y2.6768
N19585 X4.1071 Y2.7195
N19590 X4.0869 Y2.7616
N19595 X4.0652 Y2.803
N19600 X4.0418 Y2.8434
N19605 X4.0258 Y2.8873
N19610 X4.0177 Y2.928
N19615 X4.0138 Y2.9415
N19620 X4.0078 Y2.9542
N19625 X3.9999 Y2.9658
N19630 X3.9878 Y2.9808
N19635 X3.9805 Y2.9896
N19640 X3.9764 Y2.9941
N19645 X3.9404 Y3.0238
N19650 X3.9046 Y3.0537
N19655 X3.8684 Y3.0832
N19660 X3.8316 Y3.1119
N19665 X3.794 Y3.1397
N19670 X3.7558 Y3.1665
N19675 X3.7169 Y3.1923
N19680 X3.6772 Y3.2169
N19685 X3.6367 Y3.2402
N19690 X3.5955 Y3.2621
N19695 X3.5536 Y3.2826
N19700 X3.5109 Y3.3017
N19705 X3.4703 Y3.3246
N19710 X3.4371 Y3.349
N19715 X3.4282 Y3.3547
N19720 X3.4187 Y3.3593
N19725 X3.4086 Y3.3627
N19730 X3.4038 Y3.3641
N19735 X3.3252 Y3.3851
N19740 X3.3139 Y3.3881
N19745 X3.3027 Y3.3908
N19750 X3.2016 Y3.4068
N19755 X3.1904 Y3.4083
N19760 X3.1679 Y3.4106
N19765 X3.1567 Y3.4116
N19770 X3.1051 Y3.4143
N19775 X3.1038 Y3.4144
N19780 X3.1037
N19785 X3.0556 Y3.4169
N19790 X3.0444
N19795 X2.9433 Y3.4116
N19800 X2.9321 Y3.4106
N19805 X2.9096 Y3.4083
N19810 X2.8984 Y3.4068
N19815 X2.8647 Y3.4015
N19820 X2.819 Y3.3919
N19825 X2.7732 Y3.3825
N19830 X2.728 Y3.3709
N19835 X2.6834 Y3.3573
N19840 X2.6393 Y3.3418
N19845 X2.5958 Y3.3248
N19850 X2.553 Y3.3061
N19855 X2.5109 Y3.2859
N19860 X2.4696 Y3.2642
N19865 X2.429 Y3.2411
N19870 X2.3894 Y3.2164
N19875 X2.3507 Y3.1903
N19880 X2.3129 Y3.1628
N19885 X2.2762 Y3.1339
N19890 X2.2407 Y3.1037
N19895 X2.2062 Y3.0722
N19900 X2.173 Y3.0394
N19905 X2.141 Y3.0054
N19910 X2.1103 Y2.9702
N19915 X2.081 Y2.9338
N19920 X2.0532 Y2.8963
N19925 X2.0268 Y2.8578
N19930 X2.0018 Y2.8184
N19935 X1.9784 Y2.778
N19940 X1.9566 Y2.7367
N19945 X1.9363 Y2.6947
N19950 X1.9176 Y2.6519
N19955 X1.9023 Y2.6228
N19960 X1.9008 Y2.6198
N19965 X1.8994 Y2.6167
N19970 X1.8982 Y2.6136
N19975 X1.8876 Y2.586
N19980 X1.8839 Y2.575
N19985 X1.8763 Y2.5518
N19990 X1.8734 Y2.5413
N19995 X1.8524 Y2.4627
N20000 X1.8494 Y2.4514
N20005 X1.8467 Y2.4402
N20010 X1.8307 Y2.3391
N20015 X1.8292 Y2.3279
N20020 X1.8269 Y2.3054
N20025 X1.8259 Y2.2942
N20030 X1.8236 Y2.25
N20035 Y2.2499
N20040 X1.8235 Y2.2494
N20045 Y2.2493
N20050 X1.8206 Y2.1931
N20055 Y2.1819
N20060 X1.8259 Y2.0808
N20065 X1.8269 Y2.0696
N20070 X1.8292 Y2.0471
N20075 X1.8307 Y2.0359
N20080 X1.8467 Y1.9348
N20085 X1.8494 Y1.9236
N20090 X1.8539 Y1.9067
N20095 X1.8734 Y1.8337
N20100 X1.8763 Y1.8232
N20105 X1.8839 Y1.8
N20110 X1.8876 Y1.7888
N20115 X1.9221 Y1.6989
N20120 X1.927 Y1.6877
N20125 X1.9321 Y1.6765
N20130 X1.9665 Y1.6091
N20135 X1.984 Y1.5754
N20140 X1.9887 Y1.5671
N20145 X2.0343 Y1.4968
N20150 X2.0568 Y1.4631
N20155 X2.0655 Y1.4519
N20160 X2.1122 Y1.3942
N20165 X2.1202 Y1.3845
N20170 X2.1392 Y1.362
N20175 X2.1459 Y1.3549
N20180 X2.2174 Y1.2834
N20185 X2.2245 Y1.2767
N20190 X2.247 Y1.2577
N20195 X2.2582 Y1.2485
N20200 X2.3144 Y1.203
N20205 X2.3256 Y1.1943
N20210 X2.3604 Y1.1711
N20215 X2.4296 Y1.1262
N20220 X2.4379 Y1.1215
N20225 X2.4716 Y1.104
N20230 X2.539 Y1.0696
N20235 X2.5502 Y1.0645
N20240 X2.5614 Y1.0596
N20245 X2.6515 Y1.0251
N20250 X2.6625 Y1.0214
N20255 X2.6857 Y1.0139
N20260 X2.6962 Y1.0109
N20265 X2.7748 Y0.9899
N20270 X2.7861 Y0.9869
N20275 X2.7973 Y0.9842
N20280 X2.8984 Y0.9682
N20285 X2.9096 Y0.9667
N20290 X2.9321 Y0.9644
N20295 X2.9433 Y0.9634
N20300 X2.9722 Y0.9619
N20305 X2.9756 Y0.962
N20310 X2.9796
N20315 X2.9836 Y0.9616
N20320 X2.9882 Y0.961
N20325 X3.0444 Y0.9581
N20330 X3.0556
N20335 X3.1567 Y0.9634
N20340 X3.1679 Y0.9644
N20345 X3.1904 Y0.9667
N20350 X3.2016 Y0.9682
N20355 X3.3027 Y0.9842
N20360 X3.3139 Y0.9869
N20365 X3.3308 Y0.9914
N20370 X3.4038 Y1.0109
N20375 X3.4143 Y1.0139
N20380 X3.4375 Y1.0214
N20385 X3.4487 Y1.0251
N20390 X3.5385 Y1.0596
N20395 X3.5498 Y1.0645
N20400 X3.561 Y1.0696
N20405 X3.6284 Y1.104
N20410 X3.6621 Y1.1215
N20415 X3.6704 Y1.1262
N20420 X3.7407 Y1.1718
N20425 X3.7744 Y1.1943
N20430 X3.7856 Y1.203
N20435 X3.8433 Y1.2497
N20440 X3.853 Y1.2577
N20445 X3.8755 Y1.2767
N20450 X3.8826 Y1.2834
N20455 X3.9541 Y1.3549
N20460 X3.9608 Y1.362
N20465 X3.9798 Y1.3845
N20470 X3.989 Y1.3957
N20475 X4.0345 Y1.4519
N20480 X4.0432 Y1.4631
N20485 X4.0664 Y1.4979
N20490 X4.1113 Y1.567
N20495 X4.116 Y1.5754
N20500 X4.1338 Y1.6096
N20505 X4.1679 Y1.6765
N20510 X4.173 Y1.6877
N20515 X4.1779 Y1.6989
N20520 X4.2124 Y1.789
N20525 X4.2161 Y1.8
N20530 X4.2236 Y1.8232
N20535 X4.2265 Y1.8337
N20540 X4.2476 Y1.9123
N20545 X4.2506 Y1.9236
N20550 X4.2533 Y1.9348
N20555 X4.2693 Y2.0359
N20560 X4.2708 Y2.0471
N20565 X4.2731 Y2.0696
N20570 X4.2741 Y2.0808
N20575 X4.2747 Y2.0913
N20580 X4.2745 Y2.0953
N20585 X4.2739 Y2.0993
N20590 G2 X4.2745 Y2.1148 I0.0331 J0.0066
N20595 G3 X4.2765 Y2.1257 I-0.0601 J0.0164
N20600 G1 X4.2794 Y2.1819
N20605 Y2.1931
N20610 X4.2741 Y2.2942
N20615 X4.2731 Y2.3054
N20620 X4.2708 Y2.3279
N20625 X4.2693 Y2.3391
N20630 X4.2533 Y2.4402
N20635 X4.2506 Y2.4514
N20640 X4.2461 Y2.4684
N20645 X4.2265 Y2.5413
N20650 X4.2236 Y2.5518
N20655 X4.2161 Y2.575
N20660 X4.2123 Y2.5862
N20665 X4.1779 Y2.6761
N20670 X4.173 Y2.6873
N20675 X4.1679 Y2.6985
N20680 X4.1335 Y2.7659
N20685 X4.116 Y2.7996
N20690 X4.1113 Y2.808
N20695 X4.0657 Y2.8782
N20700 X4.0432 Y2.9119
N20705 X4.0345 Y2.9231
N20710 X3.9999 Y2.9658
N20715 X3.9976 Y2.9683
N20720 X3.9951 Y2.9705
N20725 G2 X3.9857 Y2.9817 I0.0235 J0.0292
N20730 G1 X3.9832 Y2.9858
N20735 X3.9805 Y2.9896
N20740 X3.9608 Y3.013
N20745 X3.9541 Y3.0201
N20750 X3.8826 Y3.0916
N20755 X3.8755 Y3.0983
N20760 X3.853 Y3.1173
N20765 X3.8418 Y3.1265
N20770 X3.7856 Y3.172
N20775 X3.7744 Y3.1807
N20780 X3.7396 Y3.2039
N20785 X3.6704 Y3.2488
N20790 X3.6621 Y3.2535
N20795 X3.6279 Y3.2713
N20800 X3.561 Y3.3054
N20805 X3.5498 Y3.3105
N20810 X3.5385 Y3.3154
N20815 X3.4485 Y3.3499
N20820 X3.4375 Y3.3536
N20825 X3.4143 Y3.3611
N20830 X3.4086 Y3.3627
N20835 G3 X3.386 Y3.3591 Z-0.2368 I-0.007 J-0.0292
N20840 G2 X3.3552 Y3.3418 Z-0.232 I-0.2244 J0.3647
N20845 X3.2839 Y3.3134 I-0.1936 J0.3819
N20850 X3.2705 Y3.312 I-0.0107 J0.0359
N20855 G1 X2.9951 Y3.3317
N20860 G2 X2.982 Y3.335 I0.0027 J0.0374
N20865 X2.9148 Y3.3738 I0.1795 J0.3887
N20870 X2.8923 Y3.3909 Z-0.2358 I0.2468 J0.3499
N20875 G1 X2.8875 Y3.3948 Z-0.2367 F100.
N20880 G3 X2.8647 Y3.4015 Z-0.24 I-0.0192 J-0.0231
N20885 G1 X2.7973 Y3.3908 F135.
N20890 X2.7861 Y3.3881
N20895 X2.7692 Y3.3836
N20900 X2.6962 Y3.3641
N20905 X2.6857 Y3.3611
N20910 X2.6625 Y3.3536
N20915 X2.6513 Y3.3498
N20920 X2.5614 Y3.3154
N20925 X2.5502 Y3.3105
N20930 X2.539 Y3.3054
N20935 X2.4716 Y3.271
N20940 X2.4379 Y3.2535
N20945 X2.4296 Y3.2488
N20950 X2.3593 Y3.2032
N20955 X2.3256 Y3.1807
N20960 X2.3144 Y3.172
N20965 X2.2567 Y3.1253
N20970 X2.247 Y3.1173
N20975 X2.2245 Y3.0983
N20980 X2.2174 Y3.0916
N20985 X2.1459 Y3.0201
N20990 X2.1392 Y3.013
N20995 X2.1202 Y2.9905
N21000 X2.111 Y2.9793
N21005 X2.0655 Y2.9231
N21010 X2.0568 Y2.9119
N21015 X2.0336 Y2.8771
N21020 X1.9887 Y2.8079
N21025 X1.984 Y2.7996
N21030 X1.9665 Y2.7659
N21035 X1.9321 Y2.6985
N21040 X1.927 Y2.6873
N21045 X1.9221 Y2.6761
N21050 X1.8982 Y2.6136
N21055 X1.8975 Y2.61 Z-0.2398
N21060 X1.8968 Y2.6064 Z-0.2391
N21065 X1.8961 Y2.603 Z-0.238
N21070 Y2.6014 Z-0.2374
N21075 X1.8965 Y2.5984 Z-0.2359
N21080 X1.897 Y2.5956 Z-0.234
N21085 X1.8973 Y2.593 Z-0.2319
N21090 X1.8977 Y2.5907 Z-0.2294
N21095 X1.8985 Y2.5886 Z-0.2265
N21100 X1.8993 Y2.5868 Z-0.2233
N21105 X1.8998 Y2.5854 Z-0.22
N21110 X1.9002 Y2.5844 Z-0.2164
N21115 X1.9005 Y2.5838 Z-0.2128
N21120 X1.9006 Y2.5836 Z-0.2091
N21125 G0 Z0.2
N21130 G1 X3.0966 Y2.0291 F300.
N21135 G0 Z-0.045
N21140 G1 Z-0.1825 F100.
N21145 X3.0965 Y2.0294 Z-0.1915
N21150 X3.0961 Y2.0302 Z-0.2004
N21155 X3.0955 Y2.0315 Z-0.2093
N21160 X3.0946 Y2.0333 Z-0.2181
N21165 X3.0936 Y2.0357 Z-0.2267
N21170 X3.0922 Y2.0386 Z-0.2351
N21175 X3.0907 Y2.042 Z-0.2433
N21180 X3.0889 Y2.0458 Z-0.2512
N21185 X3.0869 Y2.0502 Z-0.2589
N21190 X3.0848 Y2.0549 Z-0.2662
N21195 X3.0824 Y2.0601 Z-0.2732
N21200 X3.0798 Y2.0657 Z-0.2797
N21205 X3.0771 Y2.0717 Z-0.2859
N21210 X3.0742 Y2.078 Z-0.2916
N21215 X3.0711 Y2.0846 Z-0.2968
N21220 X3.0679 Y2.0916 Z-0.3016
N21225 X3.0646 Y2.0988 Z-0.3058
N21230 X3.0612 Y2.1062 Z-0.3095
N21235 X3.0577 Y2.1139 Z-0.3127
N21240 X3.0541 Y2.1217 Z-0.3153
N21245 X3.0505 Y2.1297 Z-0.3174
N21250 X3.0468 Y2.1378 Z-0.3188
N21255 X3.043 Y2.1459 Z-0.3197
N21260 X3.0393 Y2.1541 Z-0.32
N21265 G3 X2.9336 Y2.3312 I-0.8703 J-0.399
N21270 G1 X2.9299 Y2.3359 F135.
N21275 X2.9243 Y2.338
N21280 X2.9184 Y2.3393
N21285 X2.9124 Y2.34
N21290 X2.9064
N21295 X2.8993 Y2.3395
N21300 X2.8906 Y2.338
N21305 X2.8844 Y2.3365
N21310 X2.8766 Y2.3339
N21315 X2.8674 Y2.3299
N21320 X2.8572 Y2.3246
N21325 X2.8494 Y2.3197
N21330 X2.8405 Y2.3129
N21335 X2.8303 Y2.3039
N21340 X2.8214 Y2.2946
N21345 X2.8135 Y2.2849
N21350 X2.8049 Y2.2725
N21355 X2.7967 Y2.2584
N21360 X2.7907 Y2.2458
N21365 X2.7848 Y2.2301
N21370 X2.7795 Y2.2122
N21375 X2.7764 Y2.197
N21380 X2.7741 Y2.1785
N21385 X2.7733 Y2.1585
N21390 X2.774 Y2.1413
N21395 X2.7764 Y2.1206
N21400 X2.7804 Y2.1009
N21405 X2.7857 Y2.0826
N21410 X2.7939 Y2.0607
N21415 X2.802 Y2.0435
N21420 X2.8126 Y2.025
N21425 X2.8259 Y2.0056
N21430 X2.8382 Y1.9904
N21435 X2.8546 Y1.9732
N21440 X2.8706 Y1.9589
N21445 X2.888 Y1.9457
N21450 X2.9092 Y1.9322
N21455 X2.9268 Y1.9228
N21460 X2.9492 Y1.9131
N21465 X2.9704 Y1.9059
N21470 X2.992 Y1.9005
N21475 X3.0174 Y1.8962
N21480 X3.0377 Y1.8944
N21485 X3.0627 Y1.8943
N21490 X3.0851 Y1.896
N21495 X3.1076 Y1.8995
N21500 X3.1325 Y1.9054
N21505 X3.1523 Y1.9119
N21510 X3.176 Y1.9218
N21515 X3.1955 Y1.9319
N21520 X3.2154 Y1.9442
N21525 X3.2357 Y1.9592
N21530 X3.2517 Y1.9732
N21535 X3.2701 Y1.992
N21540 X3.2837 Y2.0084
N21545 X3.2974 Y2.0279
N21550 X3.31 Y2.0492
N21555 X3.3195 Y2.0689
N21560 X3.3293 Y2.0939
N21565 X3.3352 Y2.1136
N21570 X3.3403 Y2.1375
N21575 X3.3434 Y2.1613
N21580 X3.3445 Y2.1836
N21585 X3.3437 Y2.2104
N21590 X3.3415 Y2.2307
N21595 X3.3367 Y2.2552
N21600 X3.3305 Y2.2777
N21605 X3.3226 Y2.2991
N21610 X3.3117 Y2.3229
N21615 X3.3015 Y2.3411
N21620 X3.2871 Y2.3624
N21625 X3.2731 Y2.3799
N21630 X3.2572 Y2.397
N21635 X3.2383 Y2.4141
N21640 X3.2214 Y2.4272
N21645 X3.1994 Y2.4415
N21650 X3.1804 Y2.4517
N21655 X3.1586 Y2.4614
N21660 X3.1351 Y2.4696
N21665 X3.114 Y2.4751
N21670 X3.0875 Y2.4798
N21675 X3.0473 Y2.4836
N21680 X3.0007 Y2.4843
N21685 X2.9634 Y2.4821
N21690 X2.9308 Y2.4775
N21695 X2.9023 Y2.4712
N21700 X2.8757 Y2.463
N21705 X2.8508 Y2.4531
N21710 X2.8275 Y2.4415
N21715 X2.8055 Y2.4283
N21720 X2.7847 Y2.4135
N21725 X2.7655 Y2.3972
N21730 X2.7476 Y2.3794
N21735 X2.7309 Y2.36
N21740 X2.7159 Y2.3394
N21745 X2.7025 Y2.3174
N21750 X2.6906 Y2.294
N21755 X2.6807 Y2.2696
N21760 X2.6726 Y2.244
N21765 X2.6664 Y2.2175
N21770 X2.6624 Y2.1903
N21775 X2.6605 Y2.1622
N21780 X2.6609 Y2.1339
N21785 X2.6636 Y2.1054
N21790 X2.6687 Y2.0766
N21795 X2.6761 Y2.0483
N21800 X2.6859 Y2.0202
N21805 X2.698 Y1.9927
N21810 X2.7124 Y1.9661
N21815 X2.7291 Y1.9405
N21820 X2.748 Y1.916
N21825 X2.7687 Y1.8931
N21830 X2.7916 Y1.8716
N21835 X2.8162 Y1.852
N21840 X2.8424 Y1.8344
N21845 X2.8704 Y1.8186
N21850 X2.8993 Y1.8053
N21855 X2.9297 Y1.7942
N21860 X2.9608 Y1.7855
N21865 X2.9925 Y1.7794
N21870 X3.0251 Y1.7758
N21875 X3.0575 Y1.7748
N21880 X3.0904 Y1.7764
N21885 X3.1228 Y1.7807
N21890 X3.1548 Y1.7875
N21895 X3.1866 Y1.797
N21900 X3.2171 Y1.8089
N21905 X3.2471 Y1.8235
N21910 X3.2754 Y1.8401
N21915 X3.3024 Y1.8591
N21920 X3.328 Y1.8804
N21925 X3.3516 Y1.9033
N21930 X3.3737 Y1.9287
N21935 X3.3933 Y1.9552
N21940 X3.4108 Y1.9833
N21945 X3.426 Y2.0129
N21950 X3.4388 Y2.0433
N21955 X3.4492 Y2.0754
N21960 X3.4569 Y2.1074
N21965 X3.462 Y2.1404
N21970 X3.4645 Y2.1735
N21975 X3.4643 Y2.2066
N21980 X3.4614 Y2.2401
N21985 X3.456 Y2.2727
N21990 X3.4478 Y2.3051
N21995 X3.4371 Y2.3366
N22000 X3.424 Y2.367
N22005 X3.4083 Y2.3967
N22010 X3.3905 Y2.4245
N22015 X3.3702 Y2.4513
N22020 X3.3481 Y2.476
