%
O01002
(Using high feed G1 F300. instead of G0.)
(T6 D=0.375 CR=0. - ZMIN=-0.95 - flat end mill)
(T17 D=0.266 CR=0. TAPER=118deg - ZMIN=-1.0799 - drill)
N10 G90 G17
N15 G20
N20 G53 G0 Z0.

(Drill3)
N25 T17 M6
N30 S5000 M3
N35 G54
N40 G17 G90
N45 M8
N50 G1 X4.2687 Y2.1875 F300.
N55 G0 G43 Z0.6 H17
N60 T6
N65 G0 Z0.2
N70 G98 G83 X4.2687 Y2.1875 Z-1.0799 R-0.15 Q0.0665 F39.37
N75 X3.05 Y0.9688
N80 G80
N85 G0 Z0.6
N90 M9
N95 M5
N100 G53 G0 Z0.

(2D Contour3)
N105 M1
N110 T6 M6
N115 S15000 M3
N120 G54
N125 G17 G90
N130 M8
N135 G1 X0. Y2.025 F300.
N140 G0 G43 Z0.6 H6
N145 T17
N150 G0 Z0.2
N155 G1 Z0.1394 F45.
N160 Z-0.0625
N165 G18 G2 X0.0375 Z-0.1 I0.0375 K0. F100.
N170 G1 X0.075
N175 G17 G3 X0.1125 Y2.0625 I0. J0.0375
N180 G1 Y2.9 F135.
N185 G2 X0.4 Y3.1875 I0.2875 J0.
N190 G1 X1.4298
N195 G3 X1.4821 Y3.2157 I0. J0.0625
N200 G2 X4.6179 I1.5679 J-1.0282
N205 G3 X4.6702 Y3.1875 I0.0523 J0.0343
N210 G1 X5.7
N215 G2 X5.9875 Y2.9 I0. J-0.2875
N220 G1 Y0.5
N225 G2 X5.55 Y0.0625 I-0.4375 J0.
N230 G1 X0.55
N235 G2 X0.1125 Y0.5 I0. J0.4375
N240 G1 Y2.0625
N245 G3 X0.075 Y2.1 I-0.0375 J0.
N250 G1 X0.0375
N255 G18 G3 X0. Z-0.0625 I0. K0.0375
N260 G0 Z0.2
N265 Y2.025
N270 G1 Z0.0394 F45.
N275 Z-0.1625
N280 G2 X0.0375 Z-0.2 I0.0375 K0. F100.
N285 G1 X0.075
N290 G17 G3 X0.1125 Y2.0625 I0. J0.0375
N295 G1 Y2.9 F135.
N300 G2 X0.4 Y3.1875 I0.2875 J0.
N305 G1 X1.4298
N310 G3 X1.4821 Y3.2157 I0. J0.0625
N315 G2 X4.6179 I1.5679 J-1.0282
N320 G3 X4.6702 Y3.1875 I0.0523 J0.0343
N325 G1 X5.7
N330 G2 X5.9875 Y2.9 I0. J-0.2875
N335 G1 Y0.5
N340 G2 X5.55 Y0.0625 I-0.4375 J0.
N345 G1 X0.55
N350 G2 X0.1125 Y0.5 I0. J0.4375
N355 G1 Y2.0625
N360 G3 X0.075 Y2.1 I-0.0375 J0.
N365 G1 X0.0375
N370 G18 G3 X0. Z-0.1625 I0. K0.0375
N375 G0 Z0.2
N380 Y2.025
N385 G1 Z-0.0606 F45.
N390 Z-0.2625
N395 G2 X0.0375 Z-0.3 I0.0375 K0. F100.
N400 G1 X0.075
N405 G17 G3 X0.1125 Y2.0625 I0. J0.0375
N410 G1 Y2.9 F135.
N415 G2 X0.4 Y3.1875 I0.2875 J0.
N420 G1 X1.4298
N425 G3 X1.4821 Y3.2157 I0. J0.0625
N430 G2 X4.6179 I1.5679 J-1.0282
N435 G3 X4.6702 Y3.1875 I0.0523 J0.0343
N440 G1 X5.7
N445 G2 X5.9875 Y2.9 I0. J-0.2875
N450 G1 Y0.5
N455 G2 X5.55 Y0.0625 I-0.4375 J0.
N460 G1 X0.55
N465 G2 X0.1125 Y0.5 I0. J0.4375
N470 G1 Y2.0625
N475 G3 X0.075 Y2.1 I-0.0375 J0.
N480 G1 X0.0375
N485 G18 G3 X0. Z-0.2625 I0. K0.0375
N490 G0 Z0.2
N495 Y2.025
N500 G1 Z-0.1606 F45.
N505 Z-0.3625
N510 G2 X0.0375 Z-0.4 I0.0375 K0. F100.
N515 G1 X0.075
N520 G17 G3 X0.1125 Y2.0625 I0. J0.0375
N525 G1 Y2.9 F135.
N530 G2 X0.4 Y3.1875 I0.2875 J0.
N535 G1 X1.4298
N540 G3 X1.4821 Y3.2157 I0. J0.0625
N545 G2 X4.6179 I1.5679 J-1.0282
N550 G3 X4.6702 Y3.1875 I0.0523 J0.0343
N555 G1 X5.7
N560 G2 X5.9875 Y2.9 I0. J-0.2875
N565 G1 Y0.5
N570 G2 X5.55 Y0.0625 I-0.4375 J0.
N575 G1 X0.55
N580 G2 X0.1125 Y0.5 I0. J0.4375
N585 G1 Y2.0625
N590 G3 X0.075 Y2.1 I-0.0375 J0.
N595 G1 X0.0375
N600 G18 G3 X0. Z-0.3625 I0. K0.0375
N605 G0 Z0.2
N610 Y2.025
N615 G1 Z-0.2606 F45.
N620 Z-0.4625
N625 G2 X0.0375 Z-0.5 I0.0375 K0. F100.
N630 G1 X0.075
N635 G17 G3 X0.1125 Y2.0625 I0. J0.0375
N640 G1 Y2.9 F135.
N645 G2 X0.4 Y3.1875 I0.2875 J0.
N650 G1 X1.4298
N655 G3 X1.4821 Y3.2157 I0. J0.0625
N660 G2 X4.6179 I1.5679 J-1.0282
N665 G3 X4.6702 Y3.1875 I0.0523 J0.0343
N670 G1 X5.7
N675 G2 X5.9875 Y2.9 I0. J-0.2875
N680 G1 Y0.5
N685 G2 X5.55 Y0.0625 I-0.4375 J0.
N690 G1 X0.55
N695 G2 X0.1125 Y0.5 I0. J0.4375
N700 G1 Y2.0625
N705 G3 X0.075 Y2.1 I-0.0375 J0.
N710 G1 X0.0375
N715 G18 G3 X0. Z-0.4625 I0. K0.0375
N720 G0 Z0.2
N725 Y2.025
N730 G1 Z-0.3606 F45.
N735 Z-0.5625
N740 G2 X0.0375 Z-0.6 I0.0375 K0. F100.
N745 G1 X0.075
N750 G17 G3 X0.1125 Y2.0625 I0. J0.0375
N755 G1 Y2.9 F135.
N760 G2 X0.4 Y3.1875 I0.2875 J0.
N765 G1 X1.4298
N770 G3 X1.4821 Y3.2157 I0. J0.0625
N775 G2 X4.6179 I1.5679 J-1.0282
N780 G3 X4.6702 Y3.1875 I0.0523 J0.0343
N785 G1 X5.7
N790 G2 X5.9875 Y2.9 I0. J-0.2875
N795 G1 Y0.5
N800 G2 X5.55 Y0.0625 I-0.4375 J0.
N805 G1 X0.55
N810 G2 X0.1125 Y0.5 I0. J0.4375
N815 G1 Y2.0625
N820 G3 X0.075 Y2.1 I-0.0375 J0.
N825 G1 X0.0375
N830 G18 G3 X0. Z-0.5625 I0. K0.0375
N835 G0 Z0.2
N840 Y2.025
N845 G1 Z-0.4606 F45.
N850 Z-0.6625
N855 G2 X0.0375 Z-0.7 I0.0375 K0. F100.
N860 G1 X0.075
N865 G17 G3 X0.1125 Y2.0625 I0. J0.0375
N870 G1 Y2.9 F135.
N875 G2 X0.4 Y3.1875 I0.2875 J0.
N880 G1 X1.4298
N885 G3 X1.4821 Y3.2157 I0. J0.0625
N890 G2 X4.6179 I1.5679 J-1.0282
N895 G3 X4.6702 Y3.1875 I0.0523 J0.0343
N900 G1 X5.7
N905 G2 X5.9875 Y2.9 I0. J-0.2875
N910 G1 Y0.5
N915 G2 X5.55 Y0.0625 I-0.4375 J0.
N920 G1 X0.55
N925 G2 X0.1125 Y0.5 I0. J0.4375
N930 G1 Y2.0625
N935 G3 X0.075 Y2.1 I-0.0375 J0.
N940 G1 X0.0375
N945 G18 G3 X0. Z-0.6625 I0. K0.0375
N950 G0 Z0.2
N955 Y2.025
N960 G1 Z-0.5606 F45.
N965 Z-0.7625
N970 G2 X0.0375 Z-0.8 I0.0375 K0. F100.
N975 G1 X0.075
N980 G17 G3 X0.1125 Y2.0625 I0. J0.0375
N985 G1 Y2.9 F135.
N990 G2 X0.4 Y3.1875 I0.2875 J0.
N995 G1 X1.4298
N1000 G3 X1.4821 Y3.2157 I0. J0.0625
N1005 G2 X4.6179 I1.5679 J-1.0282
N1010 G3 X4.6702 Y3.1875 I0.0523 J0.0343
N1015 G1 X5.7
N1020 G2 X5.9875 Y2.9 I0. J-0.2875
N1025 G1 Y0.5
N1030 G2 X5.55 Y0.0625 I-0.4375 J0.
N1035 G1 X0.55
N1040 G2 X0.1125 Y0.5 I0. J0.4375
N1045 G1 Y2.0625
N1050 G3 X0.075 Y2.1 I-0.0375 J0.
N1055 G1 X0.0375
N1060 G18 G3 X0. Z-0.7625 I0. K0.0375
N1065 G0 Z0.2
N1070 Y2.025
N1075 G1 Z-0.6606 F45.
N1080 Z-0.8625
N1085 G2 X0.0375 Z-0.9 I0.0375 K0. F100.
N1090 G1 X0.075
N1095 G17 G3 X0.1125 Y2.0625 I0. J0.0375
N1100 G1 Y2.9 F135.
N1105 G2 X0.4 Y3.1875 I0.2875 J0.
N1110 G1 X0.5459
N1115 Z-0.85
N1120 X1.2959
N1125 Z-0.9 F45.
N1130 X1.4298 F135.
N1135 G3 X1.4821 Y3.2157 I0. J0.0625
N1140 G2 X2.675 Y4.0246 I1.5679 J-1.0282
N1145 G1 Z-0.85
N1150 G2 X3.425 I0.375 J-1.8371
N1155 G1 Z-0.9 F45.
N1160 G2 X4.6179 Y3.2157 I-0.375 J-1.8371 F135.
N1165 G3 X4.6702 Y3.1875 I0.0523 J0.0343
N1170 G1 X4.837
N1175 Z-0.85
N1180 X5.587
N1185 Z-0.9 F45.
N1190 X5.7 F135.
N1195 G2 X5.9875 Y2.9 I0. J-0.2875
N1200 G1 Y0.5
N1205 G2 X5.5647 Y0.0627 I-0.4375 J0.
N1210 G1 Z-0.85
N1215 G2 X5.55 Y0.0625 I-0.0147 J0.4373
N1220 G1 X4.8147
N1225 Z-0.9 F45.
N1230 X3.4504 F135.
N1235 Z-0.85
N1240 X2.7004
N1245 Z-0.9 F45.
N1250 X1.4051 F135.
N1255 Z-0.85
N1260 X0.6551
N1265 Z-0.9 F45.
N1270 X0.55 F135.
N1275 G2 X0.1125 Y0.5 I0. J0.4375
N1280 G1 Y2.0625
N1285 G3 X0.075 Y2.1 I-0.0375 J0.
N1290 G1 X0.0375
N1295 G18 G3 X0. Z-0.8625 I0. K0.0375
N1300 G0 Z0.2
N1305 Y2.025
N1310 G1 Z-0.7606 F45.
N1315 Z-0.9125
N1320 G2 X0.0375 Z-0.95 I0.0375 K0. F100.
N1325 G1 X0.075
N1330 G17 G3 X0.1125 Y2.0625 I0. J0.0375
N1335 G1 Y2.9 F135.
N1340 G2 X0.4 Y3.1875 I0.2875 J0.
N1345 G1 X0.5459
N1350 Z-0.85
N1355 X1.2959
N1360 Z-0.95 F45.
N1365 X1.4298 F135.
N1370 G3 X1.4821 Y3.2157 I0. J0.0625
N1375 G2 X2.675 Y4.0246 I1.5679 J-1.0282
N1380 G1 Z-0.85
N1385 G2 X3.425 I0.375 J-1.8371
N1390 G1 Z-0.95 F45.
N1395 G2 X4.6179 Y3.2157 I-0.375 J-1.8371 F135.
N1400 G3 X4.6702 Y3.1875 I0.0523 J0.0343
N1405 G1 X4.837
N1410 Z-0.85
N1415 X5.587
N1420 Z-0.95 F45.
N1425 X5.7 F135.
N1430 G2 X5.9875 Y2.9 I0. J-0.2875
N1435 G1 Y0.5
N1440 G2 X5.5647 Y0.0627 I-0.4375 J0.
N1445 G1 Z-0.85
N1450 G2 X5.55 Y0.0625 I-0.0147 J0.4373
N1455 G1 X4.8147
N1460 Z-0.95 F45.
N1465 X3.4504 F135.
N1470 Z-0.85
N1475 X2.7004
N1480 Z-0.95 F45.
N1485 X1.4051 F135.
N1490 Z-0.85
N1495 X0.6551
N1500 Z-0.95 F45.
N1505 X0.55 F135.
N1510 G2 X0.1125 Y0.5 I0. J0.4375
N1515 G1 Y2.0625
N1520 G3 X0.075 Y2.1 I-0.0375 J0.
N1525 G1 X0.0375
N1530 G18 G3 X0. Z-0.9125 I0. K0.0375
N1535 G0 Z0.6

N1540 M5
N1545 M9
N1550 G53 G0 Z0.
N1555 X3.05
N1560 G53 G0 Y0.
N1565 M2

%
