%
O01003
(Using high feed G1 F300. instead of G0.)
(T14 D=3. CR=0. - ZMIN=-0.06 - face mill)
N10 G90 G17
N15 G20
N20 G53 G0 Z0.

(Face2)
N25 T14 M6
N30 S2000 M3
N35 G54
N40 G17 G90
N45 M8
N50 G1 X5.3622 Y0.6153 F300.
N55 G0 G43 Z0.6 H14
N60 G0 Z0.24
N65 G18 G3 X5.0622 Z-0.06 I-0.3 K0. F30.
N70 G1 X-1.3129
N75 G17 G2 Y2.4597 I0. J0.9222
N80 G1 X5.3129
N85 G3 Y4.304 I0. J0.9222
N90 G1 X-1.3129
N95 G18 G3 X-1.6129 Z0.24 I0. K0.3
N100 G0 Z0.6

N105 M5
N110 M9
N115 G53 G0 Z0.
N120 X2.
N125 G53 G0 Y0.
N130 M2

%
