%
O01004
(Using high feed G1 F300. instead of G0.)
(T6 D=0.375 CR=0. - ZMIN=-0.25 - flat end mill)
N10 G90 G17
N15 G20
N20 G53 G0 Z0.

(2D Contour4)
N25 T6 M6
N30 S15000 M3
N35 G54
N40 G17 G90
N45 M8
N50 G1 X1.775 Y3.05 F300.
N55 G0 G43 Z0.6 H6
N60 G0 Z0.2
N65 G1 Z0.1394 F45.
N70 Z-0.0625
N75 G19 G2 Y3.0125 Z-0.1 J-0.0375 K0. F100.
N80 G1 Y2.975
N85 G17 G3 X1.8125 Y2.9375 I0.0375 J0.
N90 G1 X2.65 F135.
N95 G2 X2.9375 Y2.65 I0. J-0.2875
N100 G1 Y1.6202
N105 G3 X2.9657 Y1.5679 I0.0625 J0.
N110 G2 Y-1.5679 I-1.0282 J-1.5679
N115 G3 X2.9375 Y-1.6202 I0.0343 J-0.0523
N120 G1 Y-2.65
N125 G2 X2.65 Y-2.9375 I-0.2875 J0.
N130 G1 X0.25
N135 G2 X-0.1875 Y-2.5 I0. J0.4375
N140 G1 Y2.5
N145 G2 X0.25 Y2.9375 I0.4375 J0.
N150 G1 X1.8125
N155 G3 X1.85 Y2.975 I0. J0.0375
N160 G1 Y3.0125
N165 G19 G3 Y3.05 Z-0.0625 J0. K0.0375
N170 G0 Z0.2
N175 X1.775
N180 G1 Z0.0394 F45.
N185 Z-0.1625
N190 G2 Y3.0125 Z-0.2 J-0.0375 K0. F100.
N195 G1 Y2.975
N200 G17 G3 X1.8125 Y2.9375 I0.0375 J0.
N205 G1 X2.65 F135.
N210 G2 X2.9375 Y2.65 I0. J-0.2875
N215 G1 Y1.6202
N220 G3 X2.9657 Y1.5679 I0.0625 J0.
N225 G2 Y-1.5679 I-1.0282 J-1.5679
N230 G3 X2.9375 Y-1.6202 I0.0343 J-0.0523
N235 G1 Y-2.65
N240 G2 X2.65 Y-2.9375 I-0.2875 J0.
N245 G1 X0.25
N250 G2 X-0.1875 Y-2.5 I0. J0.4375
N255 G1 Y2.5
N260 G2 X0.25 Y2.9375 I0.4375 J0.
N265 G1 X1.8125
N270 G3 X1.85 Y2.975 I0. J0.0375
N275 G1 Y3.0125
N280 G19 G3 Y3.05 Z-0.1625 J0. K0.0375
N285 G0 Z0.6

(Bore4)
N290 G17
N295 G1 X1.9219 Y1.2219 F300.
N300 G0 Z0.6
N305 Z0.0425
N310 G1 Z0. F100.
N315 Y1.2031
N320 G3 X1.9375 Y1.1875 I0.0156 J0.
N325 X1.9348 Y1.1876 Z-0.0151 I0. J0.0312 F135.
N330 X1.9321 Y1.188 Z-0.0301 I0.0027 J0.0311
N335 X1.9294 Y1.1886 Z-0.0452 I0.0054 J0.0308
N340 X1.9268 Y1.1894 Z-0.0603 I0.0081 J0.0302
N345 X1.9243 Y1.1904 Z-0.0753 I0.0107 J0.0294
N350 X1.9219 Y1.1917 Z-0.0904 I0.0132 J0.0283
N355 X1.9196 Y1.1932 Z-0.1055 I0.0156 J0.0271
N360 X1.9174 Y1.1948 Z-0.1205 I0.0179 J0.0256
N365 X1.9154 Y1.1967 Z-0.1356 I0.0201 J0.0239
N370 X1.9136 Y1.1987 Z-0.1507 I0.0221 J0.0221
N375 X1.9119 Y1.2008 Z-0.1657 I0.0239 J0.0201
N380 X1.9104 Y1.2031 Z-0.1808 I0.0256 J0.0179
N385 X1.9092 Y1.2055 Z-0.1959 I0.0271 J0.0156
N390 X1.9081 Y1.2081 Z-0.2109 I0.0283 J0.0132
N395 X1.9073 Y1.2107 Z-0.226 I0.0294 J0.0107
N400 X1.9067 Y1.2133 Z-0.2411 I0.0302 J0.0081
N405 X1.9611 Y1.2392 Z-0.25 I0.0308 J0.0054
N410 X1.9139 Y1.1983 I-0.0236 J-0.0205
N415 X1.9611 Y1.2392 I0.0236 J0.0205
N420 X1.9391 Y1.2408 I-0.0118 J-0.0102
N425 G1 X1.9249 Y1.2285
N430 G0 Z0.2
N435 G1 X3.1406 Y0.0031 F300.
N440 G0 Z0.0425
N445 G1 Z0. F100.
N450 Y-0.0156
N455 G3 X3.1562 Y-0.0312 I0.0156 J0.
N460 X3.1535 Y-0.0311 Z-0.0151 I0. J0.0312 F135.
N465 X3.1508 Y-0.0308 Z-0.0301 I0.0027 J0.0311
N470 X3.1482 Y-0.0302 Z-0.0452 I0.0054 J0.0308
N475 X3.1456 Y-0.0294 Z-0.0603 I0.0081 J0.0302
N480 X3.143 Y-0.0283 Z-0.0753 I0.0107 J0.0294
N485 X3.1406 Y-0.0271 Z-0.0904 I0.0132 J0.0283
N490 X3.1383 Y-0.0256 Z-0.1055 I0.0156 J0.0271
N495 X3.1362 Y-0.0239 Z-0.1205 I0.0179 J0.0256
N500 X3.1342 Y-0.0221 Z-0.1356 I0.0201 J0.0239
N505 X3.1323 Y-0.0201 Z-0.1507 I0.0221 J0.0221
N510 X3.1307 Y-0.0179 Z-0.1657 I0.0239 J0.0201
N515 X3.1292 Y-0.0156 Z-0.1808 I0.0256 J0.0179
N520 X3.1279 Y-0.0132 Z-0.1959 I0.0271 J0.0156
N525 X3.1269 Y-0.0107 Z-0.2109 I0.0283 J0.0132
N530 X3.1261 Y-0.0081 Z-0.226 I0.0294 J0.0107
N535 X3.1255 Y-0.0054 Z-0.2411 I0.0302 J0.0081
N540 X3.1799 Y0.0205 Z-0.25 I0.0308 J0.0054
N545 X3.1326 Y-0.0205 I-0.0236 J-0.0205
N550 X3.1799 Y0.0205 I0.0236 J0.0205
N555 X3.1578 Y0.022 I-0.0118 J-0.0102
N560 G1 X3.1437 Y0.0098
N565 G0 Z0.2
N570 G1 X1.9219 Y-1.2156 F300.
N575 G0 Z0.0425
N580 G1 Z0. F100.
N585 Y-1.2344
N590 G3 X1.9375 Y-1.25 I0.0156 J0.
N595 X1.9348 Y-1.2499 Z-0.0151 I0. J0.0313 F135.
N600 X1.9321 Y-1.2495 Z-0.0301 I0.0027 J0.0311
N605 X1.9294 Y-1.2489 Z-0.0452 I0.0054 J0.0308
N610 X1.9268 Y-1.2481 Z-0.0603 I0.0081 J0.0302
N615 X1.9243 Y-1.2471 Z-0.0753 I0.0107 J0.0294
N620 X1.9219 Y-1.2458 Z-0.0904 I0.0132 J0.0283
N625 X1.9196 Y-1.2443 Z-0.1055 I0.0156 J0.0271
N630 X1.9174 Y-1.2427 Z-0.1205 I0.0179 J0.0256
N635 X1.9154 Y-1.2408 Z-0.1356 I0.0201 J0.0239
N640 X1.9136 Y-1.2388 Z-0.1507 I0.0221 J0.0221
N645 X1.9119 Y-1.2367 Z-0.1657 I0.0239 J0.0201
N650 X1.9104 Y-1.2344 Z-0.1808 I0.0256 J0.0179
N655 X1.9092 Y-1.232 Z-0.1959 I0.0271 J0.0156
N660 X1.9081 Y-1.2294 Z-0.2109 I0.0283 J0.0132
N665 X1.9073 Y-1.2268 Z-0.226 I0.0294 J0.0107
N670 X1.9067 Y-1.2242 Z-0.2411 I0.0302 J0.0081
N675 X1.9611 Y-1.1983 Z-0.25 I0.0308 J0.0054
N680 X1.9139 Y-1.2392 I-0.0236 J-0.0205
N685 X1.9611 Y-1.1983 I0.0236 J0.0205
N690 X1.9391 Y-1.1967 I-0.0118 J-0.0102
N695 G1 X1.9249 Y-1.209
N700 G0 Z0.2
N705 G1 X0.7031 Y0.0031 F300.
N710 G0 Z0.0425
N715 G1 Z0. F100.
N720 Y-0.0156
N725 G3 X0.7188 Y-0.0312 I0.0156 J0.
N730 X0.716 Y-0.0311 Z-0.0151 I0. J0.0312 F135.
N735 X0.7133 Y-0.0308 Z-0.0301 I0.0027 J0.0311
N740 X0.7107 Y-0.0302 Z-0.0452 I0.0054 J0.0308
N745 X0.7081 Y-0.0294 Z-0.0603 I0.0081 J0.0302
N750 X0.7055 Y-0.0283 Z-0.0753 I0.0107 J0.0294
N755 X0.7031 Y-0.0271 Z-0.0904 I0.0132 J0.0283
N760 X0.7008 Y-0.0256 Z-0.1055 I0.0156 J0.0271
N765 X0.6987 Y-0.0239 Z-0.1205 I0.0179 J0.0256
N770 X0.6967 Y-0.0221 Z-0.1356 I0.0201 J0.0239
N775 X0.6948 Y-0.0201 Z-0.1507 I0.0221 J0.0221
N780 X0.6932 Y-0.0179 Z-0.1657 I0.0239 J0.0201
N785 X0.6917 Y-0.0156 Z-0.1808 I0.0256 J0.0179
N790 X0.6904 Y-0.0132 Z-0.1959 I0.0271 J0.0156
N795 X0.6894 Y-0.0107 Z-0.2109 I0.0283 J0.0132
N800 X0.6886 Y-0.0081 Z-0.226 I0.0294 J0.0107
N805 X0.688 Y-0.0054 Z-0.2411 I0.0302 J0.0081
N810 X0.7424 Y0.0205 Z-0.25 I0.0308 J0.0054
N815 X0.6951 Y-0.0205 I-0.0236 J-0.0205
N820 X0.7424 Y0.0205 I0.0236 J0.0205
N825 X0.7203 Y0.022 I-0.0118 J-0.0102
N830 G1 X0.7062 Y0.0098
N835 G0 Z0.6

N840 M5
N845 M9
N850 G53 G0 Z0.
N855 X1.8125
N860 G53 G0 Y0.
N865 M2

%
