%
O01001
(Using high feed G1 F500. instead of G0.)
(T1 D=0.0625 CR=0. - ZMIN=-0.3281 - flat end mill)
(T5 D=0.25 CR=0. - ZMIN=-0.625 - flat end mill)
N10 G90 G17
N15 G20
N20 G53 G0 Z0.

(2D Pocket1)
N25 T5 M6
N30 S15000 M3
N35 G54
N40 G17 G90
N45 M8
N50 G1 X2.2619 Y2.4882 F500.
N55 G0 G43 Z0.6 H5
N60 T1
N65 G0 Z0.2
N70 G1 Z-0.0406 F30.
N75 X2.2621 Y2.4879 Z-0.0445 F75.
N80 X2.2625 Y2.4871 Z-0.0484
N85 X2.2631 Y2.4857 Z-0.052
N90 X2.264 Y2.4839 Z-0.0553
N95 X2.2652 Y2.4816 Z-0.0583
N100 X2.2665 Y2.4789 Z-0.0609
N105 X2.268 Y2.4759 Z-0.0629
N110 X2.2696 Y2.4727 Z-0.0644
N115 X2.2713 Y2.4693 Z-0.0653
N120 X2.273 Y2.4658 Z-0.0656
N125 X2.3363 Y2.3382
N130 G2 X2.3759 Y2.238 I-0.5813 J-0.2882 F90.
N135 G3 X2.447 Y2.2538 I0.0349 J0.0106
N140 G1 X2.4418 Y2.2907
N145 G3 X2.4261 Y2.3158 I-0.0361 J-0.0051
N150 G1 X2.369 Y2.3544
N155 X2.3655 Y2.3565
N160 X2.3618 Y2.3581
N165 X2.1837 Y2.4279
N170 G3 X2.1423 Y2.3706 I-0.0133 J-0.034
N175 G2 X2.2578 Y2.05 I-0.3873 J-0.3206
N180 G1 X2.256 Y1.2638
N185 G3 X2.2688 Y1.251 I0.0128 J0.
N190 G1 X2.3756
N195 G3 X2.4121 Y1.288 I0. J0.0365
N200 G1 X2.4054 Y1.7547
N205 G3 X2.4031 Y1.7669 I-0.0365 J-0.0005
N210 G1 X2.1704 Y2.3939
N215 G3 X2.1401 Y2.4175 I-0.0342 J-0.0127
N220 G1 X1.9307 Y2.44
N225 G3 X1.9108 Y2.3709 I-0.0039 J-0.0363
N230 G2 X2.1118 Y2.05 I-0.1558 J-0.3209
N235 G1 Y1.25
N240 G2 X2.1043 Y1.1818 I-0.3148 J0.
N245 X2.0838 Y1.1162 I-0.3997 J0.0888
N250 G3 X2.0914 Y1.105 I0.0076 J-0.0031
N255 G1 X2.3756
N260 X2.3766
N265 G18 G2 X2.4016 Z-0.0406 I0. K0.025
N270 G1 X1.5145 Y0.959
N275 G2 X1.5395 Z-0.0656 I0.025 K0. F75.
N280 G1 X1.6343
N285 X2.3759 F90.
N290 G17 G3 Y1.0008 I0. J0.0209
N295 G1 X2.0051
N300 X1.6343 Y0.9799
N305 G3 X1.6146 Y0.9598 I0.0012 J-0.0209
N310 G1 X1.612 Y0.8968
N315 G3 X1.6329 Y0.875 I0.0209 J-0.0009
N320 G1 X2.255
N325 X2.3756
N330 G3 X2.3877 Y0.8904 I0. J0.0125
N335 G1 X2.2199 Y1.5815
N340 X2.2191 Y1.5838
N345 X1.8801 Y2.3146
N350 G3 X1.8668 Y2.3217 I-0.0113 J-0.0053
N355 G1 X1.6344 Y2.2855
N360 G3 X1.6363 Y2.2606 I0.0019 J-0.0124
N365 G1 X1.755 Y2.2607
N370 G2 X1.9657 Y2.05 I0. J-0.2108
N375 G1 Y1.25
N380 G2 X1.755 Y1.0392 I-0.2108 J0.
N385 G1 X1.6344 Y1.0394
N390 X1.5739
N395 X1.57 Z-0.0653
N400 X1.5662 Y1.0395 Z-0.0644
N405 X1.5625 Z-0.0629
N410 X1.5592 Z-0.0609
N415 X1.5562 Z-0.0583
N420 X1.5537 Z-0.0553
N425 X1.5516 Z-0.052
N430 X1.5501 Z-0.0484
N435 X1.5492 Z-0.0445
N440 X1.5489 Z-0.0406
N445 G0 Z0.2
N450 G1 X1.4528 Y2.2032 F500.
N455 Z-0.0431 F30.
N460 X1.453 Z-0.0466 F75.
N465 X1.4538 Y2.2031 Z-0.0501
N470 X1.4552 Y2.2028 Z-0.0533
N475 X1.457 Y2.2026 Z-0.0564
N480 X1.4593 Y2.2022 Z-0.059
N485 X1.4619 Y2.2018 Z-0.0613
N490 X1.4649 Y2.2013 Z-0.0632
N495 X1.4681 Y2.2008 Z-0.0645
N500 X1.4715 Y2.2003 Z-0.0653
N505 X1.475 Y2.1997 Z-0.0656
N510 X1.629 Y2.1753
N515 X1.6329 Y2.175
N520 X1.755 F90.
N525 G2 X1.88 Y2.05 I0. J-0.125
N530 G1 Y1.25
N535 G2 X1.755 Y1.125 I-0.125 J0.
N540 G1 X1.6329
N545 X1.629 Y1.1247
N550 X1.5393 Y1.1105
N555 X1.5354 Y1.1099 Z-0.0653
N560 X1.5317 Y1.1093 Z-0.0644
N565 X1.5281 Y1.1087 Z-0.0629
N570 X1.5248 Y1.1082 Z-0.0609
N575 X1.5218 Y1.1077 Z-0.0583
N580 X1.5193 Y1.1073 Z-0.0553
N585 X1.5173 Y1.107 Z-0.052
N590 X1.5158 Y1.1068 Z-0.0484
N595 X1.5149 Y1.1066 Z-0.0445
N600 X1.5146 Z-0.0406
N605 G0 Z0.2
N610 G1 X2.2619 Y2.4882 F500.
N615 Z-0.1062 F30.
N620 X2.2621 Y2.4879 Z-0.1102 F75.
N625 X2.2625 Y2.4871 Z-0.114
N630 X2.2631 Y2.4857 Z-0.1176
N635 X2.264 Y2.4839 Z-0.1209
N640 X2.2652 Y2.4816 Z-0.1239
N645 X2.2665 Y2.4789 Z-0.1265
N650 X2.268 Y2.4759 Z-0.1285
N655 X2.2696 Y2.4727 Z-0.13
N660 X2.2713 Y2.4693 Z-0.1309
N665 X2.273 Y2.4658 Z-0.1312
N670 X2.3363 Y2.3382
N675 G2 X2.3759 Y2.238 I-0.5813 J-0.2882 F90.
N680 G3 X2.447 Y2.2538 I0.0349 J0.0106
N685 G1 X2.4418 Y2.2907
N690 G3 X2.4261 Y2.3158 I-0.0361 J-0.0051
N695 G1 X2.369 Y2.3544
N700 X2.3655 Y2.3565
N705 X2.3618 Y2.3581
N710 X2.1837 Y2.4279
N715 G3 X2.1423 Y2.3706 I-0.0133 J-0.034
N720 G2 X2.2578 Y2.05 I-0.3873 J-0.3206
N725 G1 X2.256 Y1.2638
N730 G3 X2.2688 Y1.251 I0.0128 J0.
N735 G1 X2.3756
N740 G3 X2.4121 Y1.288 I0. J0.0365
N745 G1 X2.4054 Y1.7547
N750 G3 X2.4031 Y1.7669 I-0.0365 J-0.0005
N755 G1 X2.1704 Y2.3939
N760 G3 X2.1401 Y2.4175 I-0.0342 J-0.0127
N765 G1 X1.9307 Y2.44
N770 G3 X1.9108 Y2.3709 I-0.0039 J-0.0363
N775 G2 X2.1118 Y2.05 I-0.1558 J-0.3209
N780 G1 Y1.25
N785 G2 X2.1043 Y1.1818 I-0.3148 J0.
N790 X2.0838 Y1.1162 I-0.3997 J0.0888
N795 G3 X2.0914 Y1.105 I0.0076 J-0.0031
N800 G1 X2.3756
N805 X2.3766
N810 G18 G2 X2.4016 Z-0.1062 I0. K0.025
N815 G1 X1.5145 Y0.959
N820 G2 X1.5395 Z-0.1312 I0.025 K0. F75.
N825 G1 X1.6343
N830 X2.3759 F90.
N835 G17 G3 Y1.0008 I0. J0.0209
N840 G1 X2.0051
N845 X1.6343 Y0.9799
N850 G3 X1.6146 Y0.9598 I0.0012 J-0.0209
N855 G1 X1.612 Y0.8968
N860 G3 X1.6329 Y0.875 I0.0209 J-0.0009
N865 G1 X2.255
N870 X2.3756
N875 G3 X2.3877 Y0.8904 I0. J0.0125
N880 G1 X2.2199 Y1.5815
N885 X2.2191 Y1.5838
N890 X1.8801 Y2.3146
N895 G3 X1.8668 Y2.3217 I-0.0113 J-0.0053
N900 G1 X1.6344 Y2.2855
N905 G3 X1.6363 Y2.2606 I0.0019 J-0.0124
N910 G1 X1.755 Y2.2607
N915 G2 X1.9657 Y2.05 I0. J-0.2108
N920 G1 Y1.25
N925 G2 X1.755 Y1.0392 I-0.2108 J0.
N930 G1 X1.6344 Y1.0394
N935 X1.5739
N940 X1.57 Z-0.1309
N945 X1.5662 Y1.0395 Z-0.13
N950 X1.5625 Z-0.1285
N955 X1.5592 Z-0.1265
N960 X1.5562 Z-0.1239
N965 X1.5537 Z-0.1209
N970 X1.5516 Z-0.1176
N975 X1.5501 Z-0.114
N980 X1.5492 Z-0.1102
N985 X1.5489 Z-0.1062
N990 G0 Z0.2
N995 G1 X1.4528 Y2.2032 F500.
N1000 Z-0.1087 F30.
N1005 X1.453 Z-0.1123 F75.
N1010 X1.4538 Y2.2031 Z-0.1157
N1015 X1.4552 Y2.2028 Z-0.119
N1020 X1.457 Y2.2026 Z-0.122
N1025 X1.4593 Y2.2022 Z-0.1247
N1030 X1.4619 Y2.2018 Z-0.127
N1035 X1.4649 Y2.2013 Z-0.1288
N1040 X1.4681 Y2.2008 Z-0.1301
N1045 X1.4715 Y2.2003 Z-0.131
N1050 X1.475 Y2.1997 Z-0.1312
N1055 X1.629 Y2.1753
N1060 X1.6329 Y2.175
N1065 X1.755 F90.
N1070 G2 X1.88 Y2.05 I0. J-0.125
N1075 G1 Y1.25
N1080 G2 X1.755 Y1.125 I-0.125 J0.
N1085 G1 X1.6329
N1090 X1.629 Y1.1247
N1095 X1.5393 Y1.1105
N1100 X1.5354 Y1.1099 Z-0.1309
N1105 X1.5317 Y1.1093 Z-0.13
N1110 X1.5281 Y1.1087 Z-0.1285
N1115 X1.5248 Y1.1082 Z-0.1265
N1120 X1.5218 Y1.1077 Z-0.1239
N1125 X1.5193 Y1.1073 Z-0.1209
N1130 X1.5173 Y1.107 Z-0.1176
N1135 X1.5158 Y1.1068 Z-0.114
N1140 X1.5149 Y1.1066 Z-0.1102
N1145 X1.5146 Z-0.1062
N1150 G0 Z0.2
N1155 G1 X2.2619 Y2.4882 F500.
N1160 Z-0.1719 F30.
N1165 X2.2621 Y2.4879 Z-0.1758 F75.
N1170 X2.2625 Y2.4871 Z-0.1796
N1175 X2.2631 Y2.4857 Z-0.1832
N1180 X2.264 Y2.4839 Z-0.1866
N1185 X2.2652 Y2.4816 Z-0.1896
N1190 X2.2665 Y2.4789 Z-0.1921
N1195 X2.268 Y2.4759 Z-0.1942
N1200 X2.2696 Y2.4727 Z-0.1957
N1205 X2.2713 Y2.4693 Z-0.1966
N1210 X2.273 Y2.4658 Z-0.1969
N1215 X2.3363 Y2.3382
N1220 G2 X2.3759 Y2.238 I-0.5813 J-0.2882 F90.
N1225 G3 X2.447 Y2.2538 I0.0349 J0.0106
N1230 G1 X2.4418 Y2.2907
N1235 G3 X2.4261 Y2.3158 I-0.0361 J-0.0051
N1240 G1 X2.369 Y2.3544
N1245 X2.3655 Y2.3565
N1250 X2.3618 Y2.3581
N1255 X2.1837 Y2.4279
N1260 G3 X2.1423 Y2.3706 I-0.0133 J-0.034
N1265 G2 X2.2578 Y2.05 I-0.3873 J-0.3206
N1270 G1 X2.256 Y1.2638
N1275 G3 X2.2688 Y1.251 I0.0128 J0.
N1280 G1 X2.3756
N1285 G3 X2.4121 Y1.288 I0. J0.0365
N1290 G1 X2.4054 Y1.7547
N1295 G3 X2.4031 Y1.7669 I-0.0365 J-0.0005
N1300 G1 X2.1704 Y2.3939
N1305 G3 X2.1401 Y2.4175 I-0.0342 J-0.0127
N1310 G1 X1.9307 Y2.44
N1315 G3 X1.9108 Y2.3709 I-0.0039 J-0.0363
N1320 G2 X2.1118 Y2.05 I-0.1558 J-0.3209
N1325 G1 Y1.25
N1330 G2 X2.1043 Y1.1818 I-0.3148 J0.
N1335 X2.0838 Y1.1162 I-0.3997 J0.0888
N1340 G3 X2.0914 Y1.105 I0.0076 J-0.0031
N1345 G1 X2.3756
N1350 X2.3766
N1355 G18 G2 X2.4016 Z-0.1719 I0. K0.025
N1360 G1 X1.5145 Y0.959
N1365 G2 X1.5395 Z-0.1969 I0.025 K0. F75.
N1370 G1 X1.6343
N1375 X2.3759 F90.
N1380 G17 G3 Y1.0008 I0. J0.0209
N1385 G1 X2.0051
N1390 X1.6343 Y0.9799
N1395 G3 X1.6146 Y0.9598 I0.0012 J-0.0209
N1400 G1 X1.612 Y0.8968
N1405 G3 X1.6329 Y0.875 I0.0209 J-0.0009
N1410 G1 X2.255
N1415 X2.3756
N1420 G3 X2.3877 Y0.8904 I0. J0.0125
N1425 G1 X2.2199 Y1.5815
N1430 X2.2191 Y1.5838
N1435 X1.8801 Y2.3146
N1440 G3 X1.8668 Y2.3217 I-0.0113 J-0.0053
N1445 G1 X1.6344 Y2.2855
N1450 G3 X1.6363 Y2.2606 I0.0019 J-0.0124
N1455 G1 X1.755 Y2.2607
N1460 G2 X1.9657 Y2.05 I0. J-0.2108
N1465 G1 Y1.25
N1470 G2 X1.755 Y1.0392 I-0.2108 J0.
N1475 G1 X1.6344 Y1.0394
N1480 X1.5739
N1485 X1.57 Z-0.1966
N1490 X1.5662 Y1.0395 Z-0.1957
N1495 X1.5625 Z-0.1942
N1500 X1.5592 Z-0.1921
N1505 X1.5562 Z-0.1896
N1510 X1.5537 Z-0.1866
N1515 X1.5516 Z-0.1832
N1520 X1.5501 Z-0.1796
N1525 X1.5492 Z-0.1758
N1530 X1.5489 Z-0.1719
N1535 G0 Z0.2
N1540 G1 X1.4528 Y2.2032 F500.
N1545 Z-0.1744 F30.
N1550 X1.453 Z-0.1779 F75.
N1555 X1.4538 Y2.2031 Z-0.1813
N1560 X1.4552 Y2.2028 Z-0.1846
N1565 X1.457 Y2.2026 Z-0.1876
N1570 X1.4593 Y2.2022 Z-0.1903
N1575 X1.4619 Y2.2018 Z-0.1926
N1580 X1.4649 Y2.2013 Z-0.1944
N1585 X1.4681 Y2.2008 Z-0.1958
N1590 X1.4715 Y2.2003 Z-0.1966
N1595 X1.475 Y2.1997 Z-0.1969
N1600 X1.629 Y2.1753
N1605 X1.6329 Y2.175
N1610 X1.755 F90.
N1615 G2 X1.88 Y2.05 I0. J-0.125
N1620 G1 Y1.25
N1625 G2 X1.755 Y1.125 I-0.125 J0.
N1630 G1 X1.6329
N1635 X1.629 Y1.1247
N1640 X1.5393 Y1.1105
N1645 X1.5354 Y1.1099 Z-0.1966
N1650 X1.5317 Y1.1093 Z-0.1957
N1655 X1.5281 Y1.1087 Z-0.1942
N1660 X1.5248 Y1.1082 Z-0.1921
N1665 X1.5218 Y1.1077 Z-0.1896
N1670 X1.5193 Y1.1073 Z-0.1866
N1675 X1.5173 Y1.107 Z-0.1832
N1680 X1.5158 Y1.1068 Z-0.1796
N1685 X1.5149 Y1.1066 Z-0.1758
N1690 X1.5146 Z-0.1719
N1695 G0 Z0.2
N1700 G1 X2.2619 Y2.4882 F500.
N1705 Z-0.2375 F30.
N1710 X2.2621 Y2.4879 Z-0.2414 F75.
N1715 X2.2625 Y2.4871 Z-0.2452
N1720 X2.2631 Y2.4857 Z-0.2488
N1725 X2.264 Y2.4839 Z-0.2522
N1730 X2.2652 Y2.4816 Z-0.2552
N1735 X2.2665 Y2.4789 Z-0.2577
N1740 X2.268 Y2.4759 Z-0.2598
N1745 X2.2696 Y2.4727 Z-0.2613
N1750 X2.2713 Y2.4693 Z-0.2622
N1755 X2.273 Y2.4658 Z-0.2625
N1760 X2.3363 Y2.3382
N1765 G2 X2.3759 Y2.238 I-0.5813 J-0.2882 F90.
N1770 G3 X2.447 Y2.2538 I0.0349 J0.0106
N1775 G1 X2.4418 Y2.2907
N1780 G3 X2.4261 Y2.3158 I-0.0361 J-0.0051
N1785 G1 X2.369 Y2.3544
N1790 X2.3655 Y2.3565
N1795 X2.3618 Y2.3581
N1800 X2.1837 Y2.4279
N1805 G3 X2.1423 Y2.3706 I-0.0133 J-0.034
N1810 G2 X2.2578 Y2.05 I-0.3873 J-0.3206
N1815 G1 X2.256 Y1.2638
N1820 G3 X2.2688 Y1.251 I0.0128 J0.
N1825 G1 X2.3756
N1830 G3 X2.4121 Y1.288 I0. J0.0365
N1835 G1 X2.4054 Y1.7547
N1840 G3 X2.4031 Y1.7669 I-0.0365 J-0.0005
N1845 G1 X2.1704 Y2.3939
N1850 G3 X2.1401 Y2.4175 I-0.0342 J-0.0127
N1855 G1 X1.9307 Y2.44
N1860 G3 X1.9108 Y2.3709 I-0.0039 J-0.0363
N1865 G2 X2.1118 Y2.05 I-0.1558 J-0.3209
N1870 G1 Y1.25
N1875 G2 X2.1043 Y1.1818 I-0.3148 J0.
N1880 X2.0838 Y1.1162 I-0.3997 J0.0888
N1885 G3 X2.0914 Y1.105 I0.0076 J-0.0031
N1890 G1 X2.3756
N1895 X2.3766
N1900 G18 G2 X2.4016 Z-0.2375 I0. K0.025
N1905 G1 X1.5145 Y0.959
N1910 G2 X1.5395 Z-0.2625 I0.025 K0. F75.
N1915 G1 X1.6343
N1920 X2.3759 F90.
N1925 G17 G3 Y1.0008 I0. J0.0209
N1930 G1 X2.0051
N1935 X1.6343 Y0.9799
N1940 G3 X1.6146 Y0.9598 I0.0012 J-0.0209
N1945 G1 X1.612 Y0.8968
N1950 G3 X1.6329 Y0.875 I0.0209 J-0.0009
N1955 G1 X2.255
N1960 X2.3756
N1965 G3 X2.3877 Y0.8904 I0. J0.0125
N1970 G1 X2.2199 Y1.5815
N1975 X2.2191 Y1.5838
N1980 X1.8801 Y2.3146
N1985 G3 X1.8668 Y2.3217 I-0.0113 J-0.0053
N1990 G1 X1.6344 Y2.2855
N1995 G3 X1.6363 Y2.2606 I0.0019 J-0.0124
N2000 G1 X1.755 Y2.2607
N2005 G2 X1.9657 Y2.05 I0. J-0.2108
N2010 G1 Y1.25
N2015 G2 X1.755 Y1.0392 I-0.2108 J0.
N2020 G1 X1.6344 Y1.0394
N2025 X1.5739
N2030 X1.57 Z-0.2622
N2035 X1.5662 Y1.0395 Z-0.2613
N2040 X1.5625 Z-0.2598
N2045 X1.5592 Z-0.2577
N2050 X1.5562 Z-0.2552
N2055 X1.5537 Z-0.2522
N2060 X1.5516 Z-0.2488
N2065 X1.5501 Z-0.2452
N2070 X1.5492 Z-0.2414
N2075 X1.5489 Z-0.2375
N2080 G0 Z0.2
N2085 G1 X1.4528 Y2.2032 F500.
N2090 Z-0.24 F30.
N2095 X1.453 Z-0.2435 F75.
N2100 X1.4538 Y2.2031 Z-0.247
N2105 X1.4552 Y2.2028 Z-0.2502
N2110 X1.457 Y2.2026 Z-0.2532
N2115 X1.4593 Y2.2022 Z-0.2559
N2120 X1.4619 Y2.2018 Z-0.2582
N2125 X1.4649 Y2.2013 Z-0.26
N2130 X1.4681 Y2.2008 Z-0.2614
N2135 X1.4715 Y2.2003 Z-0.2622
N2140 X1.475 Y2.1997 Z-0.2625
N2145 X1.629 Y2.1753
N2150 X1.6329 Y2.175
N2155 X1.755 F90.
N2160 G2 X1.88 Y2.05 I0. J-0.125
N2165 G1 Y1.25
N2170 G2 X1.755 Y1.125 I-0.125 J0.
N2175 G1 X1.6329
N2180 X1.629 Y1.1247
N2185 X1.5393 Y1.1105
N2190 X1.5354 Y1.1099 Z-0.2622
N2195 X1.5317 Y1.1093 Z-0.2613
N2200 X1.5281 Y1.1087 Z-0.2598
N2205 X1.5248 Y1.1082 Z-0.2577
N2210 X1.5218 Y1.1077 Z-0.2552
N2215 X1.5193 Y1.1073 Z-0.2522
N2220 X1.5173 Y1.107 Z-0.2488
N2225 X1.5158 Y1.1068 Z-0.2452
N2230 X1.5149 Y1.1066 Z-0.2414
N2235 X1.5146 Z-0.2375
N2240 G0 Z0.2
N2245 G1 X2.2619 Y2.4882 F500.
N2250 Z-0.3031 F30.
N2255 X2.2621 Y2.4879 Z-0.307 F75.
N2260 X2.2625 Y2.4871 Z-0.3109
N2265 X2.2631 Y2.4857 Z-0.3145
N2270 X2.264 Y2.4839 Z-0.3178
N2275 X2.2652 Y2.4816 Z-0.3208
N2280 X2.2665 Y2.4789 Z-0.3234
N2285 X2.268 Y2.4759 Z-0.3254
N2290 X2.2696 Y2.4727 Z-0.3269
N2295 X2.2713 Y2.4693 Z-0.3278
N2300 X2.273 Y2.4658 Z-0.3281
N2305 X2.3363 Y2.3382
N2310 G2 X2.3759 Y2.238 I-0.5813 J-0.2882 F90.
N2315 G3 X2.447 Y2.2538 I0.0349 J0.0106
N2320 G1 X2.4418 Y2.2907
N2325 G3 X2.4261 Y2.3158 I-0.0361 J-0.0051
N2330 G1 X2.369 Y2.3544
N2335 X2.3655 Y2.3565
N2340 X2.3618 Y2.3581
N2345 X2.1837 Y2.4279
N2350 G3 X2.1423 Y2.3706 I-0.0133 J-0.034
N2355 G2 X2.2578 Y2.05 I-0.3873 J-0.3206
N2360 G1 X2.256 Y1.2638
N2365 G3 X2.2688 Y1.251 I0.0128 J0.
N2370 G1 X2.3756
N2375 G3 X2.4121 Y1.288 I0. J0.0365
N2380 G1 X2.4054 Y1.7547
N2385 G3 X2.4031 Y1.7669 I-0.0365 J-0.0005
N2390 G1 X2.1704 Y2.3939
N2395 G3 X2.1401 Y2.4175 I-0.0342 J-0.0127
N2400 G1 X1.9307 Y2.44
N2405 G3 X1.9108 Y2.3709 I-0.0039 J-0.0363
N2410 G2 X2.1118 Y2.05 I-0.1558 J-0.3209
N2415 G1 Y1.25
N2420 G2 X2.1043 Y1.1818 I-0.3148 J0.
N2425 X2.0838 Y1.1162 I-0.3997 J0.0888
N2430 G3 X2.0914 Y1.105 I0.0076 J-0.0031
N2435 G1 X2.3756
N2440 X2.3766
N2445 G18 G2 X2.4016 Z-0.3031 I0. K0.025
N2450 G1 X1.5145 Y0.959
N2455 G2 X1.5395 Z-0.3281 I0.025 K0. F75.
N2460 G1 X1.6343
N2465 X2.3759 F90.
N2470 G17 G3 Y1.0008 I0. J0.0209
N2475 G1 X2.0051
N2480 X1.6343 Y0.9799
N2485 G3 X1.6146 Y0.9598 I0.0012 J-0.0209
N2490 G1 X1.612 Y0.8968
N2495 G3 X1.6329 Y0.875 I0.0209 J-0.0009
N2500 G1 X2.255
N2505 X2.3756
N2510 G3 X2.3877 Y0.8904 I0. J0.0125
N2515 G1 X2.2199 Y1.5815
N2520 X2.2191 Y1.5838
N2525 X1.8801 Y2.3146
N2530 G3 X1.8668 Y2.3217 I-0.0113 J-0.0053
N2535 G1 X1.6344 Y2.2855
N2540 G3 X1.6363 Y2.2606 I0.0019 J-0.0124
N2545 G1 X1.755 Y2.2607
N2550 G2 X1.9657 Y2.05 I0. J-0.2108
N2555 G1 Y1.25
N2560 G2 X1.755 Y1.0392 I-0.2108 J0.
N2565 G1 X1.6344 Y1.0394
N2570 X1.5739
N2575 X1.57 Z-0.3278
N2580 X1.5662 Y1.0395 Z-0.3269
N2585 X1.5625 Z-0.3254
N2590 X1.5592 Z-0.3234
N2595 X1.5562 Z-0.3208
N2600 X1.5537 Z-0.3178
N2605 X1.5516 Z-0.3145
N2610 X1.5501 Z-0.3109
N2615 X1.5492 Z-0.307
N2620 X1.5489 Z-0.3031
N2625 G0 Z0.2
N2630 G1 X1.4528 Y2.2032 F500.
N2635 Z-0.3056 F30.
N2640 X1.453 Z-0.3091 F75.
N2645 X1.4538 Y2.2031 Z-0.3126
N2650 X1.4552 Y2.2028 Z-0.3158
N2655 X1.457 Y2.2026 Z-0.3188
N2660 X1.4593 Y2.2022 Z-0.3215
N2665 X1.4619 Y2.2018 Z-0.3238
N2670 X1.4649 Y2.2013 Z-0.3257
N2675 X1.4681 Y2.2008 Z-0.327
N2680 X1.4715 Y2.2003 Z-0.3278
N2685 X1.475 Y2.1997 Z-0.3281
N2690 X1.629 Y2.1753
N2695 X1.6329 Y2.175
N2700 X1.755 F90.
N2705 G2 X1.88 Y2.05 I0. J-0.125
N2710 G1 Y1.25
N2715 G2 X1.755 Y1.125 I-0.125 J0.
N2720 G1 X1.6329
N2725 X1.629 Y1.1247
N2730 X1.5393 Y1.1105
N2735 X1.5354 Y1.1099 Z-0.3278
N2740 X1.5317 Y1.1093 Z-0.3269
N2745 X1.5281 Y1.1087 Z-0.3254
N2750 X1.5248 Y1.1082 Z-0.3234
N2755 X1.5218 Y1.1077 Z-0.3208
N2760 X1.5193 Y1.1073 Z-0.3178
N2765 X1.5173 Y1.107 Z-0.3145
N2770 X1.5158 Y1.1068 Z-0.3109
N2775 X1.5149 Y1.1066 Z-0.307
N2780 X1.5146 Z-0.3031
N2785 G0 Z0.6

(2D Contour7)
N2790 G1 X0.4808 Y0.9803 F500.
N2795 G0 Z0.6
N2800 Z0.2
N2805 G1 Z0.1194 F30.
N2810 Z-0.055
N2815 Y0.98 Z-0.0589 F75.
N2820 Y0.979 Z-0.0627
N2825 X0.4809 Y0.9775 Z-0.0663
N2830 X0.481 Y0.9755 Z-0.0697
N2835 X0.4811 Y0.973 Z-0.0727
N2840 X0.4812 Y0.97 Z-0.0752
N2845 X0.4813 Y0.9666 Z-0.0773
N2850 X0.4815 Y0.963 Z-0.0788
N2855 X0.4816 Y0.9592 Z-0.0797
N2860 X0.4818 Y0.9553 Z-0.08
N2865 X0.4828 Y0.9303
N2870 G3 X0.5087 Y0.9063 I0.025 J0.001
N2875 X0.5987 Y1. I-0.0037 J0.0937 F90.
N2880 X0.4113 I-0.0937 J0.
N2885 X0.5087 Y0.9063 I0.0937 J0.
N2890 X0.5327 Y0.9323 I-0.001 J0.025
N2895 G1 X0.5317 Y0.9573
N2900 X0.5316 Y0.9612 Z-0.0797
N2905 X0.5314 Y0.965 Z-0.0788
N2910 X0.5313 Y0.9686 Z-0.0773
N2915 X0.5311 Y0.972 Z-0.0752
N2920 X0.531 Y0.9749 Z-0.0727
N2925 X0.5309 Y0.9775 Z-0.0697
N2930 X0.5308 Y0.9795 Z-0.0663
N2935 Y0.981 Z-0.0627
N2940 X0.5307 Y0.982 Z-0.0589
N2945 Y0.9823 Z-0.055
N2950 G0 Z0.2
N2955 G1 X0.4808 Y0.9803 F500.
N2960 Z0.0394 F30.
N2965 Z-0.135
N2970 Y0.98 Z-0.1389 F75.
N2975 Y0.979 Z-0.1427
N2980 X0.4809 Y0.9775 Z-0.1463
N2985 X0.481 Y0.9755 Z-0.1497
N2990 X0.4811 Y0.973 Z-0.1527
N2995 X0.4812 Y0.97 Z-0.1552
N3000 X0.4813 Y0.9666 Z-0.1573
N3005 X0.4815 Y0.963 Z-0.1588
N3010 X0.4816 Y0.9592 Z-0.1597
N3015 X0.4818 Y0.9553 Z-0.16
N3020 X0.4828 Y0.9303
N3025 G3 X0.5087 Y0.9063 I0.025 J0.001
N3030 X0.5987 Y1. I-0.0037 J0.0937 F90.
N3035 X0.4113 I-0.0937 J0.
N3040 X0.5087 Y0.9063 I0.0937 J0.
N3045 X0.5327 Y0.9323 I-0.001 J0.025
N3050 G1 X0.5317 Y0.9573
N3055 X0.5316 Y0.9612 Z-0.1597
N3060 X0.5314 Y0.965 Z-0.1588
N3065 X0.5313 Y0.9686 Z-0.1573
N3070 X0.5311 Y0.972 Z-0.1552
N3075 X0.531 Y0.9749 Z-0.1527
N3080 X0.5309 Y0.9775 Z-0.1497
N3085 X0.5308 Y0.9795 Z-0.1463
N3090 Y0.981 Z-0.1427
N3095 X0.5307 Y0.982 Z-0.1389
N3100 Y0.9823 Z-0.135
N3105 G0 Z0.2
N3110 G1 X0.4808 Y0.9803 F500.
N3115 Z-0.0406 F30.
N3120 Z-0.18
N3125 Y0.98 Z-0.1839 F75.
N3130 Y0.979 Z-0.1877
N3135 X0.4809 Y0.9775 Z-0.1913
N3140 X0.481 Y0.9755 Z-0.1947
N3145 X0.4811 Y0.973 Z-0.1977
N3150 X0.4812 Y0.97 Z-0.2002
N3155 X0.4813 Y0.9666 Z-0.2023
N3160 X0.4815 Y0.963 Z-0.2038
N3165 X0.4816 Y0.9592 Z-0.2047
N3170 X0.4818 Y0.9553 Z-0.205
N3175 X0.4828 Y0.9303
N3180 G3 X0.5087 Y0.9063 I0.025 J0.001
N3185 X0.5987 Y1. I-0.0037 J0.0937 F90.
N3190 X0.4113 I-0.0937 J0.
N3195 X0.5087 Y0.9063 I0.0937 J0.
N3200 X0.5327 Y0.9323 I-0.001 J0.025
N3205 G1 X0.5317 Y0.9573
N3210 X0.5316 Y0.9612 Z-0.2047
N3215 X0.5314 Y0.965 Z-0.2038
N3220 X0.5313 Y0.9686 Z-0.2023
N3225 X0.5311 Y0.972 Z-0.2002
N3230 X0.531 Y0.9749 Z-0.1977
N3235 X0.5309 Y0.9775 Z-0.1947
N3240 X0.5308 Y0.9795 Z-0.1913
N3245 Y0.981 Z-0.1877
N3250 X0.5307 Y0.982 Z-0.1839
N3255 Y0.9823 Z-0.18
N3260 G0 Z0.2
N3265 G1 X0.4808 Y0.9803 F500.
N3270 Z-0.0856 F30.
N3275 Z-0.225
N3280 Y0.98 Z-0.2289 F75.
N3285 Y0.979 Z-0.2327
N3290 X0.4809 Y0.9775 Z-0.2363
N3295 X0.481 Y0.9755 Z-0.2397
N3300 X0.4811 Y0.973 Z-0.2427
N3305 X0.4812 Y0.97 Z-0.2452
N3310 X0.4813 Y0.9666 Z-0.2473
N3315 X0.4815 Y0.963 Z-0.2488
N3320 X0.4816 Y0.9592 Z-0.2497
N3325 X0.4818 Y0.9553 Z-0.25
N3330 X0.4828 Y0.9303
N3335 G3 X0.5087 Y0.9063 I0.025 J0.001
N3340 X0.5987 Y1. I-0.0037 J0.0937 F90.
N3345 X0.4113 I-0.0937 J0.
N3350 X0.5087 Y0.9063 I0.0937 J0.
N3355 X0.5327 Y0.9323 I-0.001 J0.025
N3360 G1 X0.5317 Y0.9573
N3365 X0.5316 Y0.9612 Z-0.2497
N3370 X0.5314 Y0.965 Z-0.2488
N3375 X0.5313 Y0.9686 Z-0.2473
N3380 X0.5311 Y0.972 Z-0.2452
N3385 X0.531 Y0.9749 Z-0.2427
N3390 X0.5309 Y0.9775 Z-0.2397
N3395 X0.5308 Y0.9795 Z-0.2363
N3400 Y0.981 Z-0.2327
N3405 X0.5307 Y0.982 Z-0.2289
N3410 Y0.9823 Z-0.225
N3415 G0 Z0.2
N3420 G1 X0.5237 Y0.225 F500.
N3425 Z0.1194 F30.
N3430 Z-0.055
N3435 G18 G2 X0.5487 Z-0.08 I0.025 K0. F75.
N3440 G1 X0.5737
N3445 G17 G3 X0.5987 Y0.25 I0. J0.025
N3450 X0.505 Y0.3437 I-0.0937 J0. F90.
N3455 Y0.1563 I0. J-0.0937
N3460 X0.5987 Y0.25 I0. J0.0937
N3465 X0.5737 Y0.275 I-0.025 J0.
N3470 G1 X0.5487
N3475 G18 G3 X0.5237 Z-0.055 I0. K0.025
N3480 G0 Z0.2
N3485 Y0.225
N3490 G1 Z0.0394 F30.
N3495 Z-0.135
N3500 G2 X0.5487 Z-0.16 I0.025 K0. F75.
N3505 G1 X0.5737
N3510 G17 G3 X0.5987 Y0.25 I0. J0.025
N3515 X0.505 Y0.3437 I-0.0937 J0. F90.
N3520 Y0.1563 I0. J-0.0937
N3525 X0.5987 Y0.25 I0. J0.0937
N3530 X0.5737 Y0.275 I-0.025 J0.
N3535 G1 X0.5487
N3540 G18 G3 X0.5237 Z-0.135 I0. K0.025
N3545 G0 Z0.2
N3550 Y0.225
N3555 G1 Z-0.0406 F30.
N3560 Z-0.18
N3565 G2 X0.5487 Z-0.205 I0.025 K0. F75.
N3570 G1 X0.5737
N3575 G17 G3 X0.5987 Y0.25 I0. J0.025
N3580 X0.505 Y0.3437 I-0.0937 J0. F90.
N3585 Y0.1563 I0. J-0.0937
N3590 X0.5987 Y0.25 I0. J0.0937
N3595 X0.5737 Y0.275 I-0.025 J0.
N3600 G1 X0.5487
N3605 G18 G3 X0.5237 Z-0.18 I0. K0.025
N3610 G0 Z0.2
N3615 Y0.225
N3620 G1 Z-0.0856 F30.
N3625 Z-0.225
N3630 G2 X0.5487 Z-0.25 I0.025 K0. F75.
N3635 G1 X0.5737
N3640 G17 G3 X0.5987 Y0.25 I0. J0.025
N3645 X0.505 Y0.3437 I-0.0937 J0. F90.
N3650 Y0.1563 I0. J-0.0937
N3655 X0.5987 Y0.25 I0. J0.0937
N3660 X0.5737 Y0.275 I-0.025 J0.
N3665 G1 X0.5487
N3670 G18 G3 X0.5237 Z-0.225 I0. K0.025
N3675 G0 Z0.2
N3680 G1 X2.0238 Y0.225 F500.
N3685 Z0.1194 F30.
N3690 Z-0.055
N3695 G2 X2.0488 Z-0.08 I0.025 K0. F75.
N3700 G1 X2.0738
N3705 G17 G3 X2.0988 Y0.25 I0. J0.025
N3710 X2.005 Y0.3438 I-0.0938 J0. F90.
N3715 Y0.1563 I0. J-0.0938
N3720 X2.0988 Y0.25 I0. J0.0938
N3725 X2.0737 Y0.275 I-0.025 J0.
N3730 G1 X2.0487
N3735 G18 G3 X2.0237 Z-0.055 I0. K0.025
N3740 G0 Z0.2
N3745 G1 X2.0238 Y0.225 F500.
N3750 Z0.0394 F30.
N3755 Z-0.135
N3760 G2 X2.0488 Z-0.16 I0.025 K0. F75.
N3765 G1 X2.0738
N3770 G17 G3 X2.0988 Y0.25 I0. J0.025
N3775 X2.005 Y0.3438 I-0.0938 J0. F90.
N3780 Y0.1563 I0. J-0.0938
N3785 X2.0988 Y0.25 I0. J0.0938
N3790 X2.0737 Y0.275 I-0.025 J0.
N3795 G1 X2.0487
N3800 G18 G3 X2.0237 Z-0.135 I0. K0.025
N3805 G0 Z0.2
N3810 G1 X2.0238 Y0.225 F500.
N3815 Z-0.0406 F30.
N3820 Z-0.18
N3825 G2 X2.0488 Z-0.205 I0.025 K0. F75.
N3830 G1 X2.0738
N3835 G17 G3 X2.0988 Y0.25 I0. J0.025
N3840 X2.005 Y0.3438 I-0.0938 J0. F90.
N3845 Y0.1563 I0. J-0.0938
N3850 X2.0988 Y0.25 I0. J0.0938
N3855 X2.0737 Y0.275 I-0.025 J0.
N3860 G1 X2.0487
N3865 G18 G3 X2.0237 Z-0.18 I0. K0.025
N3870 G0 Z0.2
N3875 G1 X2.0238 Y0.225 F500.
N3880 Z-0.0856 F30.
N3885 Z-0.225
N3890 G2 X2.0488 Z-0.25 I0.025 K0. F75.
N3895 G1 X2.0738
N3900 G17 G3 X2.0988 Y0.25 I0. J0.025
N3905 X2.005 Y0.3438 I-0.0938 J0. F90.
N3910 Y0.1563 I0. J-0.0938
N3915 X2.0988 Y0.25 I0. J0.0938
N3920 X2.0737 Y0.275 I-0.025 J0.
N3925 G1 X2.0487
N3930 G18 G3 X2.0237 Z-0.225 I0. K0.025
N3935 G0 Z0.2
N3940 G1 X0.5307 Y2.0177 F500.
N3945 Z0.1194 F30.
N3950 Z-0.055
N3955 Y2.018 Z-0.0589 F75.
N3960 X0.5308 Y2.019 Z-0.0627
N3965 Y2.0205 Z-0.0663
N3970 X0.5309 Y2.0225 Z-0.0697
N3975 X0.531 Y2.0251 Z-0.0727
N3980 X0.5311 Y2.028 Z-0.0752
N3985 X0.5313 Y2.0314 Z-0.0773
N3990 X0.5314 Y2.035 Z-0.0788
N3995 X0.5316 Y2.0388 Z-0.0797
N4000 X0.5317 Y2.0427 Z-0.08
N4005 X0.5327 Y2.0677
N4010 G17 G3 X0.5087 Y2.0937 I-0.025 J0.001
N4015 X0.4113 Y2. I-0.0037 J-0.0937 F90.
N4020 X0.5987 I0.0937 J0.
N4025 X0.5087 Y2.0937 I-0.0937 J0.
N4030 X0.4828 Y2.0697 I-0.001 J-0.025
N4035 G1 X0.4818 Y2.0447
N4040 X0.4816 Y2.0408 Z-0.0797
N4045 X0.4815 Y2.037 Z-0.0788
N4050 X0.4813 Y2.0334 Z-0.0773
N4055 X0.4812 Y2.03 Z-0.0752
N4060 X0.4811 Y2.027 Z-0.0727
N4065 X0.481 Y2.0245 Z-0.0697
N4070 X0.4809 Y2.0225 Z-0.0663
N4075 X0.4808 Y2.021 Z-0.0627
N4080 Y2.02 Z-0.0589
N4085 Y2.0197 Z-0.055
N4090 G0 Z0.2
N4095 G1 X0.5307 Y2.0177 F500.
N4100 Z0.0394 F30.
N4105 Z-0.135
N4110 Y2.018 Z-0.1389 F75.
N4115 X0.5308 Y2.019 Z-0.1427
N4120 Y2.0205 Z-0.1463
N4125 X0.5309 Y2.0225 Z-0.1497
N4130 X0.531 Y2.0251 Z-0.1527
N4135 X0.5311 Y2.028 Z-0.1552
N4140 X0.5313 Y2.0314 Z-0.1573
N4145 X0.5314 Y2.035 Z-0.1588
N4150 X0.5316 Y2.0388 Z-0.1597
N4155 X0.5317 Y2.0427 Z-0.16
N4160 X0.5327 Y2.0677
N4165 G3 X0.5087 Y2.0937 I-0.025 J0.001
N4170 X0.4113 Y2. I-0.0037 J-0.0937 F90.
N4175 X0.5987 I0.0937 J0.
N4180 X0.5087 Y2.0937 I-0.0937 J0.
N4185 X0.4828 Y2.0697 I-0.001 J-0.025
N4190 G1 X0.4818 Y2.0447
N4195 X0.4816 Y2.0408 Z-0.1597
N4200 X0.4815 Y2.037 Z-0.1588
N4205 X0.4813 Y2.0334 Z-0.1573
N4210 X0.4812 Y2.03 Z-0.1552
N4215 X0.4811 Y2.027 Z-0.1527
N4220 X0.481 Y2.0245 Z-0.1497
N4225 X0.4809 Y2.0225 Z-0.1463
N4230 X0.4808 Y2.021 Z-0.1427
N4235 Y2.02 Z-0.1389
N4240 Y2.0197 Z-0.135
N4245 G0 Z0.2
N4250 G1 X0.5307 Y2.0177 F500.
N4255 Z-0.0406 F30.
N4260 Z-0.18
N4265 Y2.018 Z-0.1839 F75.
N4270 X0.5308 Y2.019 Z-0.1877
N4275 Y2.0205 Z-0.1913
N4280 X0.5309 Y2.0225 Z-0.1947
N4285 X0.531 Y2.0251 Z-0.1977
N4290 X0.5311 Y2.028 Z-0.2002
N4295 X0.5313 Y2.0314 Z-0.2023
N4300 X0.5314 Y2.035 Z-0.2038
N4305 X0.5316 Y2.0388 Z-0.2047
N4310 X0.5317 Y2.0427 Z-0.205
N4315 X0.5327 Y2.0677
N4320 G3 X0.5087 Y2.0937 I-0.025 J0.001
N4325 X0.4113 Y2. I-0.0037 J-0.0937 F90.
N4330 X0.5987 I0.0937 J0.
N4335 X0.5087 Y2.0937 I-0.0937 J0.
N4340 X0.4828 Y2.0697 I-0.001 J-0.025
N4345 G1 X0.4818 Y2.0447
N4350 X0.4816 Y2.0408 Z-0.2047
N4355 X0.4815 Y2.037 Z-0.2038
N4360 X0.4813 Y2.0334 Z-0.2023
N4365 X0.4812 Y2.03 Z-0.2002
N4370 X0.4811 Y2.027 Z-0.1977
N4375 X0.481 Y2.0245 Z-0.1947
N4380 X0.4809 Y2.0225 Z-0.1913
N4385 X0.4808 Y2.021 Z-0.1877
N4390 Y2.02 Z-0.1839
N4395 Y2.0197 Z-0.18
N4400 G0 Z0.2
N4405 G1 X0.5307 Y2.0177 F500.
N4410 Z-0.0856 F30.
N4415 Z-0.225
N4420 Y2.018 Z-0.2289 F75.
N4425 X0.5308 Y2.019 Z-0.2327
N4430 Y2.0205 Z-0.2363
N4435 X0.5309 Y2.0225 Z-0.2397
N4440 X0.531 Y2.0251 Z-0.2427
N4445 X0.5311 Y2.028 Z-0.2452
N4450 X0.5313 Y2.0314 Z-0.2473
N4455 X0.5314 Y2.035 Z-0.2488
N4460 X0.5316 Y2.0388 Z-0.2497
N4465 X0.5317 Y2.0427 Z-0.25
N4470 X0.5327 Y2.0677
N4475 G3 X0.5087 Y2.0937 I-0.025 J0.001
N4480 X0.4113 Y2. I-0.0037 J-0.0937 F90.
N4485 X0.5987 I0.0937 J0.
N4490 X0.5087 Y2.0937 I-0.0937 J0.
N4495 X0.4828 Y2.0697 I-0.001 J-0.025
N4500 G1 X0.4818 Y2.0447
N4505 X0.4816 Y2.0408 Z-0.2497
N4510 X0.4815 Y2.037 Z-0.2488
N4515 X0.4813 Y2.0334 Z-0.2473
N4520 X0.4812 Y2.03 Z-0.2452
N4525 X0.4811 Y2.027 Z-0.2427
N4530 X0.481 Y2.0245 Z-0.2397
N4535 X0.4809 Y2.0225 Z-0.2363
N4540 X0.4808 Y2.021 Z-0.2327
N4545 Y2.02 Z-0.2289
N4550 Y2.0197 Z-0.225
N4555 G0 Z0.6

(Bore1)
N4560 G1 X2.005 Y0.25 F500.
N4565 G0 Z0.6
N4570 Z-0.195
N4575 G1 Z-0.25 F75.
N4580 X2.001 Y0.246
N4585 X2.0013 Y0.2445
N4590 X2.0022 Y0.2432
N4595 X2.0035 Y0.2423
N4600 X2.005 Y0.242
N4605 G3 X2.0043 Z-0.2592 I0. J0.008 F90.
N4610 X2.0036 Y0.2421 Z-0.2683 I0.0007 J0.008
N4615 X2.0029 Y0.2423 Z-0.2775 I0.0014 J0.0079
N4620 X2.0023 Y0.2425 Z-0.2866 I0.0021 J0.0077
N4625 X2.0016 Y0.2427 Z-0.2958 I0.0027 J0.0075
N4630 X2.001 Y0.2431 Z-0.305 I0.0034 J0.0073
N4635 X2.0004 Y0.2434 Z-0.3141 I0.004 J0.0069
N4640 X1.9999 Y0.2439 Z-0.3233 I0.0046 J0.0066
N4645 X1.9993 Y0.2443 Z-0.3324 I0.0051 J0.0061
N4650 X1.9989 Y0.2449 Z-0.3416 I0.0057 J0.0057
N4655 X1.9984 Y0.2454 Z-0.3508 I0.0061 J0.0051
N4660 X1.9981 Y0.246 Z-0.3599 I0.0066 J0.0046
N4665 X1.9977 Y0.2466 Z-0.3691 I0.0069 J0.004
N4670 X1.9975 Y0.2473 Z-0.3782 I0.0073 J0.0034
N4675 X1.9973 Y0.2479 Z-0.3874 I0.0075 J0.0027
N4680 X1.9971 Y0.2486 Z-0.3966 I0.0077 J0.0021
N4685 X1.997 Y0.2493 Z-0.4057 I0.0079 J0.0014
N4690 Y0.25 Z-0.4149 I0.008 J0.0007
N4695 Y0.2507 Z-0.424 I0.008 J0.
N4700 X1.9971 Y0.2514 Z-0.4332 I0.008 J-0.0007
N4705 X1.9973 Y0.2521 Z-0.4424 I0.0079 J-0.0014
N4710 X1.9975 Y0.2527 Z-0.4515 I0.0077 J-0.0021
N4715 X1.9977 Y0.2534 Z-0.4607 I0.0075 J-0.0027
N4720 X1.9981 Y0.254 Z-0.4698 I0.0073 J-0.0034
N4725 X1.9984 Y0.2546 Z-0.479 I0.0069 J-0.004
N4730 X1.9989 Y0.2551 Z-0.4882 I0.0066 J-0.0046
N4735 X1.9993 Y0.2557 Z-0.4973 I0.0061 J-0.0051
N4740 X1.9999 Y0.2561 Z-0.5065 I0.0057 J-0.0057
N4745 X2.0004 Y0.2566 Z-0.5156 I0.0051 J-0.0061
N4750 X2.001 Y0.2569 Z-0.5248 I0.0046 J-0.0066
N4755 X2.0016 Y0.2573 Z-0.534 I0.004 J-0.0069
N4760 X2.0023 Y0.2575 Z-0.5431 I0.0034 J-0.0073
N4765 X2.0029 Y0.2577 Z-0.5523 I0.0027 J-0.0075
N4770 X2.0036 Y0.2579 Z-0.5614 I0.0021 J-0.0077
N4775 X2.0043 Y0.258 Z-0.5706 I0.0014 J-0.0079
N4780 X2.005 Z-0.5798 I0.0007 J-0.008
N4785 X2.0057 Z-0.5889 I0. J-0.008
N4790 X2.0064 Y0.2579 Z-0.5981 I-0.0007 J-0.008
N4795 X2.0071 Y0.2577 Z-0.6072 I-0.0014 J-0.0079
N4800 X2.0077 Y0.2575 Z-0.6164 I-0.0021 J-0.0077
N4805 X2.0108 Y0.2555 Z-0.625 I-0.0027 J-0.0075
N4810 X1.9992 Y0.2445 I-0.0058 J-0.0055
N4815 X2.0108 Y0.2555 I0.0058 J0.0055
N4820 G1 X2.0095 Y0.2564
N4825 X2.008 Y0.2567
N4830 X2.0065 Y0.2565
N4835 X2.0052 Y0.2557
N4840 X2.005 Y0.25
N4845 G0 Z0.2
N4850 Y1.
N4855 Z-0.2731
N4860 G1 Z-0.3281 F75.
N4865 X2.001 Y1.004
N4870 X1.9995 Y1.0037
N4875 X1.9982 Y1.0028
N4880 X1.9973 Y1.0015
N4885 X1.997 Y1.
N4890 G3 Y1.0007 Z-0.3373 I0.008 J0. F90.
N4895 X1.9971 Y1.0014 Z-0.3464 I0.008 J-0.0007
N4900 X1.9973 Y1.0021 Z-0.3556 I0.0079 J-0.0014
N4905 X1.9975 Y1.0027 Z-0.3648 I0.0077 J-0.0021
N4910 X1.9977 Y1.0034 Z-0.3739 I0.0075 J-0.0027
N4915 X1.9981 Y1.004 Z-0.3831 I0.0073 J-0.0034
N4920 X1.9984 Y1.0046 Z-0.3922 I0.0069 J-0.004
N4925 X1.9989 Y1.0051 Z-0.4014 I0.0066 J-0.0046
N4930 X1.9993 Y1.0057 Z-0.4106 I0.0061 J-0.0051
N4935 X1.9999 Y1.0061 Z-0.4197 I0.0057 J-0.0057
N4940 X2.0004 Y1.0066 Z-0.4289 I0.0051 J-0.0061
N4945 X2.001 Y1.0069 Z-0.438 I0.0046 J-0.0066
N4950 X2.0016 Y1.0073 Z-0.4472 I0.004 J-0.0069
N4955 X2.0023 Y1.0075 Z-0.4564 I0.0034 J-0.0073
N4960 X2.0029 Y1.0077 Z-0.4655 I0.0027 J-0.0075
N4965 X2.0036 Y1.0079 Z-0.4747 I0.0021 J-0.0077
N4970 X2.0043 Y1.008 Z-0.4838 I0.0014 J-0.0079
N4975 X2.005 Z-0.493 I0.0007 J-0.008
N4980 X2.0057 Z-0.5022 I0. J-0.008
N4985 X2.0064 Y1.0079 Z-0.5113 I-0.0007 J-0.008
N4990 X2.0071 Y1.0077 Z-0.5205 I-0.0014 J-0.0079
N4995 X2.0077 Y1.0075 Z-0.5296 I-0.0021 J-0.0077
N5000 X2.0084 Y1.0073 Z-0.5388 I-0.0027 J-0.0075
N5005 X2.009 Y1.0069 Z-0.548 I-0.0034 J-0.0073
N5010 X2.0096 Y1.0066 Z-0.5571 I-0.004 J-0.0069
N5015 X2.0101 Y1.0061 Z-0.5663 I-0.0046 J-0.0066
N5020 X2.0107 Y1.0057 Z-0.5754 I-0.0051 J-0.0061
N5025 X2.0111 Y1.0051 Z-0.5846 I-0.0057 J-0.0057
N5030 X2.0116 Y1.0046 Z-0.5938 I-0.0061 J-0.0051
N5035 X2.0119 Y1.004 Z-0.6029 I-0.0066 J-0.0046
N5040 X2.0123 Y1.0034 Z-0.6121 I-0.0069 J-0.004
N5045 X2.0125 Y1.0027 Z-0.6212 I-0.0073 J-0.0034
N5050 X1.9973 Y1.002 Z-0.625 I-0.0075 J-0.0027
N5055 X2.0127 Y0.998 I0.0077 J-0.002
N5060 X1.9973 Y1.002 I-0.0077 J0.002
N5065 G1 X1.9972 Y1.0004
N5070 X1.9977 Y0.999
N5075 X1.9987 Y0.9978
N5080 X2.0001 Y0.9971
N5085 X2.005 Y1.
N5090 G0 Z0.2
N5095 Y2.
N5100 Z-0.2731
N5105 G1 Z-0.3281 F75.
N5110 X2.001 Y2.004
N5115 X1.9995 Y2.0037
N5120 X1.9982 Y2.0028
N5125 X1.9973 Y2.0015
N5130 X1.997 Y2.
N5135 G3 Y2.0007 Z-0.3373 I0.008 J0. F90.
N5140 X1.9971 Y2.0014 Z-0.3464 I0.008 J-0.0007
N5145 X1.9973 Y2.0021 Z-0.3556 I0.0079 J-0.0014
N5150 X1.9975 Y2.0027 Z-0.3648 I0.0077 J-0.0021
N5155 X1.9977 Y2.0034 Z-0.3739 I0.0075 J-0.0027
N5160 X1.9981 Y2.004 Z-0.3831 I0.0073 J-0.0034
N5165 X1.9984 Y2.0046 Z-0.3922 I0.0069 J-0.004
N5170 X1.9989 Y2.0051 Z-0.4014 I0.0066 J-0.0046
N5175 X1.9993 Y2.0057 Z-0.4106 I0.0061 J-0.0051
N5180 X1.9999 Y2.0061 Z-0.4197 I0.0057 J-0.0057
N5185 X2.0004 Y2.0066 Z-0.4289 I0.0051 J-0.0061
N5190 X2.001 Y2.0069 Z-0.438 I0.0046 J-0.0066
N5195 X2.0016 Y2.0073 Z-0.4472 I0.004 J-0.0069
N5200 X2.0023 Y2.0075 Z-0.4564 I0.0034 J-0.0073
N5205 X2.0029 Y2.0077 Z-0.4655 I0.0027 J-0.0075
N5210 X2.0036 Y2.0079 Z-0.4747 I0.0021 J-0.0077
N5215 X2.0043 Y2.008 Z-0.4838 I0.0014 J-0.0079
N5220 X2.005 Z-0.493 I0.0007 J-0.008
N5225 X2.0057 Z-0.5022 I0. J-0.008
N5230 X2.0064 Y2.0079 Z-0.5113 I-0.0007 J-0.008
N5235 X2.0071 Y2.0077 Z-0.5205 I-0.0014 J-0.0079
N5240 X2.0077 Y2.0075 Z-0.5296 I-0.0021 J-0.0077
N5245 X2.0084 Y2.0073 Z-0.5388 I-0.0027 J-0.0075
N5250 X2.009 Y2.0069 Z-0.548 I-0.0034 J-0.0073
N5255 X2.0096 Y2.0066 Z-0.5571 I-0.004 J-0.0069
N5260 X2.0101 Y2.0061 Z-0.5663 I-0.0046 J-0.0066
N5265 X2.0107 Y2.0057 Z-0.5754 I-0.0051 J-0.0061
N5270 X2.0111 Y2.0051 Z-0.5846 I-0.0057 J-0.0057
N5275 X2.0116 Y2.0046 Z-0.5938 I-0.0061 J-0.0051
N5280 X2.0119 Y2.004 Z-0.6029 I-0.0066 J-0.0046
N5285 X2.0123 Y2.0034 Z-0.6121 I-0.0069 J-0.004
N5290 X2.0125 Y2.0027 Z-0.6212 I-0.0073 J-0.0034
N5295 X1.9973 Y2.002 Z-0.625 I-0.0075 J-0.0027
N5300 X2.0127 Y1.998 I0.0077 J-0.002
N5305 X1.9973 Y2.002 I-0.0077 J0.002
N5310 G1 X1.9972 Y2.0004
N5315 X1.9977 Y1.999
N5320 X1.9987 Y1.9978
N5325 X2.0001 Y1.9971
N5330 X2.005 Y2.
N5335 G0 Z0.2
N5340 X0.505
N5345 Z-0.195
N5350 G1 Z-0.25 F75.
N5355 X0.501 Y2.004
N5360 X0.4995 Y2.0037
N5365 X0.4982 Y2.0028
N5370 X0.4973 Y2.0015
N5375 X0.497 Y2.
N5380 G3 Y2.0007 Z-0.2592 I0.008 J0. F90.
N5385 X0.4971 Y2.0014 Z-0.2683 I0.008 J-0.0007
N5390 X0.4973 Y2.0021 Z-0.2775 I0.0079 J-0.0014
N5395 X0.4975 Y2.0027 Z-0.2866 I0.0077 J-0.0021
N5400 X0.4977 Y2.0034 Z-0.2958 I0.0075 J-0.0027
N5405 X0.4981 Y2.004 Z-0.305 I0.0073 J-0.0034
N5410 X0.4984 Y2.0046 Z-0.3141 I0.0069 J-0.004
N5415 X0.4989 Y2.0051 Z-0.3233 I0.0066 J-0.0046
N5420 X0.4993 Y2.0057 Z-0.3324 I0.0061 J-0.0051
N5425 X0.4999 Y2.0061 Z-0.3416 I0.0057 J-0.0057
N5430 X0.5004 Y2.0066 Z-0.3508 I0.0051 J-0.0061
N5435 X0.501 Y2.0069 Z-0.3599 I0.0046 J-0.0066
N5440 X0.5016 Y2.0073 Z-0.3691 I0.004 J-0.0069
N5445 X0.5023 Y2.0075 Z-0.3782 I0.0034 J-0.0073
N5450 X0.5029 Y2.0077 Z-0.3874 I0.0027 J-0.0075
N5455 X0.5036 Y2.0079 Z-0.3966 I0.0021 J-0.0077
N5460 X0.5043 Y2.008 Z-0.4057 I0.0014 J-0.0079
N5465 X0.505 Z-0.4149 I0.0007 J-0.008
N5470 X0.5057 Z-0.424 I0. J-0.008
N5475 X0.5064 Y2.0079 Z-0.4332 I-0.0007 J-0.008
N5480 X0.5071 Y2.0077 Z-0.4424 I-0.0014 J-0.0079
N5485 X0.5077 Y2.0075 Z-0.4515 I-0.0021 J-0.0077
N5490 X0.5084 Y2.0073 Z-0.4607 I-0.0027 J-0.0075
N5495 X0.509 Y2.0069 Z-0.4698 I-0.0034 J-0.0073
N5500 X0.5096 Y2.0066 Z-0.479 I-0.004 J-0.0069
N5505 X0.5101 Y2.0061 Z-0.4882 I-0.0046 J-0.0066
N5510 X0.5107 Y2.0057 Z-0.4973 I-0.0051 J-0.0061
N5515 X0.5111 Y2.0051 Z-0.5065 I-0.0057 J-0.0057
N5520 X0.5116 Y2.0046 Z-0.5156 I-0.0061 J-0.0051
N5525 X0.5119 Y2.004 Z-0.5248 I-0.0066 J-0.0046
N5530 X0.5123 Y2.0034 Z-0.534 I-0.0069 J-0.004
N5535 X0.5125 Y2.0027 Z-0.5431 I-0.0073 J-0.0034
N5540 X0.5127 Y2.0021 Z-0.5523 I-0.0075 J-0.0027
N5545 X0.5129 Y2.0014 Z-0.5614 I-0.0077 J-0.0021
N5550 X0.513 Y2.0007 Z-0.5706 I-0.0079 J-0.0014
N5555 Y2. Z-0.5798 I-0.008 J-0.0007
N5560 Y1.9993 Z-0.5889 I-0.008 J0.
N5565 X0.5129 Y1.9986 Z-0.5981 I-0.008 J0.0007
N5570 X0.5127 Y1.9979 Z-0.6072 I-0.0079 J0.0014
N5575 X0.5125 Y1.9973 Z-0.6164 I-0.0077 J0.0021
N5580 X0.5105 Y1.9942 Z-0.625 I-0.0075 J0.0027
N5585 X0.4995 Y2.0058 I-0.0055 J0.0058
N5590 X0.5105 Y1.9942 I0.0055 J-0.0058
N5595 G1 X0.5114 Y1.9955
N5600 X0.5117 Y1.997
N5605 X0.5115 Y1.9985
N5610 X0.5107 Y1.9998
N5615 X0.505 Y2.
N5620 G0 Z0.2
N5625 Y1.
N5630 Z-0.195
N5635 G1 Z-0.25 F75.
N5640 X0.501 Y1.004
N5645 X0.4995 Y1.0037
N5650 X0.4982 Y1.0028
N5655 X0.4973 Y1.0015
N5660 X0.497 Y1.
N5665 G3 Y1.0007 Z-0.2592 I0.008 J0. F90.
N5670 X0.4971 Y1.0014 Z-0.2683 I0.008 J-0.0007
N5675 X0.4973 Y1.0021 Z-0.2775 I0.0079 J-0.0014
N5680 X0.4975 Y1.0027 Z-0.2866 I0.0077 J-0.0021
N5685 X0.4977 Y1.0034 Z-0.2958 I0.0075 J-0.0027
N5690 X0.4981 Y1.004 Z-0.305 I0.0073 J-0.0034
N5695 X0.4984 Y1.0046 Z-0.3141 I0.0069 J-0.004
N5700 X0.4989 Y1.0051 Z-0.3233 I0.0066 J-0.0046
N5705 X0.4993 Y1.0057 Z-0.3324 I0.0061 J-0.0051
N5710 X0.4999 Y1.0061 Z-0.3416 I0.0057 J-0.0057
N5715 X0.5004 Y1.0066 Z-0.3508 I0.0051 J-0.0061
N5720 X0.501 Y1.0069 Z-0.3599 I0.0046 J-0.0066
N5725 X0.5016 Y1.0073 Z-0.3691 I0.004 J-0.0069
N5730 X0.5023 Y1.0075 Z-0.3782 I0.0034 J-0.0073
N5735 X0.5029 Y1.0077 Z-0.3874 I0.0027 J-0.0075
N5740 X0.5036 Y1.0079 Z-0.3966 I0.0021 J-0.0077
N5745 X0.5043 Y1.008 Z-0.4057 I0.0014 J-0.0079
N5750 X0.505 Z-0.4149 I0.0007 J-0.008
N5755 X0.5057 Z-0.424 I0. J-0.008
N5760 X0.5064 Y1.0079 Z-0.4332 I-0.0007 J-0.008
N5765 X0.5071 Y1.0077 Z-0.4424 I-0.0014 J-0.0079
N5770 X0.5077 Y1.0075 Z-0.4515 I-0.0021 J-0.0077
N5775 X0.5084 Y1.0073 Z-0.4607 I-0.0027 J-0.0075
N5780 X0.509 Y1.0069 Z-0.4698 I-0.0034 J-0.0073
N5785 X0.5096 Y1.0066 Z-0.479 I-0.004 J-0.0069
N5790 X0.5101 Y1.0061 Z-0.4882 I-0.0046 J-0.0066
N5795 X0.5107 Y1.0057 Z-0.4973 I-0.0051 J-0.0061
N5800 X0.5111 Y1.0051 Z-0.5065 I-0.0057 J-0.0057
N5805 X0.5116 Y1.0046 Z-0.5156 I-0.0061 J-0.0051
N5810 X0.5119 Y1.004 Z-0.5248 I-0.0066 J-0.0046
N5815 X0.5123 Y1.0034 Z-0.534 I-0.0069 J-0.004
N5820 X0.5125 Y1.0027 Z-0.5431 I-0.0073 J-0.0034
N5825 X0.5127 Y1.0021 Z-0.5523 I-0.0075 J-0.0027
N5830 X0.5129 Y1.0014 Z-0.5614 I-0.0077 J-0.0021
N5835 X0.513 Y1.0007 Z-0.5706 I-0.0079 J-0.0014
N5840 Y1. Z-0.5798 I-0.008 J-0.0007
N5845 Y0.9993 Z-0.5889 I-0.008 J0.
N5850 X0.5129 Y0.9986 Z-0.5981 I-0.008 J0.0007
N5855 X0.5127 Y0.9979 Z-0.6072 I-0.0079 J0.0014
N5860 X0.5125 Y0.9973 Z-0.6164 I-0.0077 J0.0021
N5865 X0.5105 Y0.9942 Z-0.625 I-0.0075 J0.0027
N5870 X0.4995 Y1.0058 I-0.0055 J0.0058
N5875 X0.5105 Y0.9942 I0.0055 J-0.0058
N5880 G1 X0.5114 Y0.9955
N5885 X0.5117 Y0.997
N5890 X0.5115 Y0.9985
N5895 X0.5107 Y0.9998
N5900 X0.505 Y1.
N5905 G0 Z0.2
N5910 Y0.25
N5915 Z-0.195
N5920 G1 Z-0.25 F75.
N5925 X0.501 Y0.246
N5930 X0.5013 Y0.2445
N5935 X0.5022 Y0.2432
N5940 X0.5035 Y0.2423
N5945 X0.505 Y0.242
N5950 G3 X0.5043 Z-0.2592 I0. J0.008 F90.
N5955 X0.5036 Y0.2421 Z-0.2683 I0.0007 J0.008
N5960 X0.5029 Y0.2423 Z-0.2775 I0.0014 J0.0079
N5965 X0.5023 Y0.2425 Z-0.2866 I0.0021 J0.0077
N5970 X0.5016 Y0.2427 Z-0.2958 I0.0027 J0.0075
N5975 X0.501 Y0.2431 Z-0.305 I0.0034 J0.0073
N5980 X0.5004 Y0.2434 Z-0.3141 I0.004 J0.0069
N5985 X0.4999 Y0.2439 Z-0.3233 I0.0046 J0.0066
N5990 X0.4993 Y0.2443 Z-0.3324 I0.0051 J0.0061
N5995 X0.4989 Y0.2449 Z-0.3416 I0.0057 J0.0057
N6000 X0.4984 Y0.2454 Z-0.3508 I0.0061 J0.0051
N6005 X0.4981 Y0.246 Z-0.3599 I0.0066 J0.0046
N6010 X0.4977 Y0.2466 Z-0.3691 I0.0069 J0.004
N6015 X0.4975 Y0.2473 Z-0.3782 I0.0073 J0.0034
N6020 X0.4973 Y0.2479 Z-0.3874 I0.0075 J0.0027
N6025 X0.4971 Y0.2486 Z-0.3966 I0.0077 J0.0021
N6030 X0.497 Y0.2493 Z-0.4057 I0.0079 J0.0014
N6035 Y0.25 Z-0.4149 I0.008 J0.0007
N6040 Y0.2507 Z-0.424 I0.008 J0.
N6045 X0.4971 Y0.2514 Z-0.4332 I0.008 J-0.0007
N6050 X0.4973 Y0.2521 Z-0.4424 I0.0079 J-0.0014
N6055 X0.4975 Y0.2527 Z-0.4515 I0.0077 J-0.0021
N6060 X0.4977 Y0.2534 Z-0.4607 I0.0075 J-0.0027
N6065 X0.4981 Y0.254 Z-0.4698 I0.0073 J-0.0034
N6070 X0.4984 Y0.2546 Z-0.479 I0.0069 J-0.004
N6075 X0.4989 Y0.2551 Z-0.4882 I0.0066 J-0.0046
N6080 X0.4993 Y0.2557 Z-0.4973 I0.0061 J-0.0051
N6085 X0.4999 Y0.2561 Z-0.5065 I0.0057 J-0.0057
N6090 X0.5004 Y0.2566 Z-0.5156 I0.0051 J-0.0061
N6095 X0.501 Y0.2569 Z-0.5248 I0.0046 J-0.0066
N6100 X0.5016 Y0.2573 Z-0.534 I0.004 J-0.0069
N6105 X0.5023 Y0.2575 Z-0.5431 I0.0034 J-0.0073
N6110 X0.5029 Y0.2577 Z-0.5523 I0.0027 J-0.0075
N6115 X0.5036 Y0.2579 Z-0.5614 I0.0021 J-0.0077
N6120 X0.5043 Y0.258 Z-0.5706 I0.0014 J-0.0079
N6125 X0.505 Z-0.5798 I0.0007 J-0.008
N6130 X0.5057 Z-0.5889 I0. J-0.008
N6135 X0.5064 Y0.2579 Z-0.5981 I-0.0007 J-0.008
N6140 X0.5071 Y0.2577 Z-0.6072 I-0.0014 J-0.0079
N6145 X0.5077 Y0.2575 Z-0.6164 I-0.0021 J-0.0077
N6150 X0.5108 Y0.2555 Z-0.625 I-0.0027 J-0.0075
N6155 X0.4992 Y0.2445 I-0.0058 J-0.0055
N6160 X0.5108 Y0.2555 I0.0058 J0.0055
N6165 G1 X0.5095 Y0.2564
N6170 X0.508 Y0.2567
N6175 X0.5065 Y0.2565
N6180 X0.5052 Y0.2557
N6185 X0.505 Y0.25
N6190 G0 Z0.6

(Bore2)
N6195 G1 X1.5675 Y1.65 F500.
N6200 G0 Z0.6
N6205 Z0.055
N6210 G1 Z0. F75.
N6215 X1.566 Y1.6515
N6220 X1.5653 Y1.6513
N6225 X1.5647 Y1.6507
N6230 X1.5645 Y1.65
N6235 X1.5649 Y1.6487 Z-0.0007 F90.
N6240 X1.5657 Y1.6476 Z-0.0013
N6245 X1.567 Y1.6471 Z-0.002
N6250 X1.5683 Y1.6472 Z-0.0026
N6255 X1.5695 Y1.6478 Z-0.0033
N6260 X1.5702 Y1.6489 Z-0.0039
N6265 X1.5704 Y1.6503 Z-0.0046
N6270 X1.57 Y1.6515 Z-0.0052
N6275 X1.5691 Y1.6525 Z-0.0059
N6280 X1.5678 Y1.6529 Z-0.0066
N6285 X1.5665 Y1.6528 Z-0.0072
N6290 X1.5653 Y1.652 Z-0.0079
N6295 X1.5647 Y1.6508 Z-0.0085
N6300 X1.5646 Y1.6495 Z-0.0092
N6305 X1.5651 Y1.6482 Z-0.0098
N6310 X1.5662 Y1.6474 Z-0.0105
N6315 X1.5675 Y1.647 Z-0.0112
N6320 X1.5688 Y1.6473 Z-0.0118
N6325 X1.5698 Y1.6482 Z-0.0125
N6330 X1.5704 Y1.6494 Z-0.0131
N6335 Y1.6508 Z-0.0138
N6340 X1.5697 Y1.652 Z-0.0144
N6345 X1.5686 Y1.6527 Z-0.0151
N6350 X1.5673 Y1.6529 Z-0.0157
N6355 X1.566 Y1.6525 Z-0.0164
N6360 X1.565 Y1.6516 Z-0.0171
N6365 X1.5646 Y1.6503 Z-0.0177
N6370 X1.5647 Y1.649 Z-0.0184
N6375 X1.5655 Y1.6479 Z-0.019
N6380 X1.5666 Y1.6472 Z-0.0197
N6385 X1.568 Y1.6471 Z-0.0203
N6390 X1.5692 Y1.6476 Z-0.021
N6395 X1.5701 Y1.6486 Z-0.0217
N6400 X1.5705 Y1.6499 Z-0.0223
N6405 X1.5702 Y1.6513 Z-0.023
N6410 X1.5693 Y1.6523 Z-0.0236
N6415 X1.5681 Y1.6529 Z-0.0243
N6420 X1.5668 Z-0.0249
N6425 X1.5656 Y1.6522 Z-0.0256
N6430 X1.5648 Y1.6511 Z-0.0262
N6435 X1.5646 Y1.6498 Z-0.0269
N6440 X1.5649 Y1.6485 Z-0.0276
N6445 X1.5659 Y1.6475 Z-0.0282
N6450 X1.5671 Y1.6471 Z-0.0289
N6455 X1.5685 Y1.6472 Z-0.0295
N6460 X1.5696 Y1.6479 Z-0.0302
N6465 X1.5703 Y1.6491 Z-0.0308
N6470 X1.5704 Y1.6505 Z-0.0315
N6475 X1.5699 Y1.6517 Z-0.0322
N6480 X1.5689 Y1.6526 Z-0.0328
N6485 X1.5676 Y1.653 Z-0.0335
N6490 X1.5663 Y1.6527 Z-0.0341
N6495 X1.5652 Y1.6519 Z-0.0348
N6500 X1.5646 Y1.6506 Z-0.0354
N6505 Y1.6493 Z-0.0361
N6510 X1.5652 Y1.6481 Z-0.0367
N6515 X1.5663 Y1.6473 Z-0.0374
N6520 X1.5677 Y1.6471 Z-0.0381
N6525 X1.569 Y1.6474 Z-0.0387
N6530 X1.5699 Y1.6483 Z-0.0394
N6535 X1.5704 Y1.6496 Z-0.04
N6540 X1.5703 Y1.651 Z-0.0407
N6545 X1.5696 Y1.6521 Z-0.0413
N6550 X1.5684 Y1.6528 Z-0.042
N6555 X1.5671 Y1.6529 Z-0.0427
N6560 X1.5658 Y1.6524 Z-0.0433
N6565 X1.5649 Y1.6514 Z-0.044
N6570 X1.5646 Y1.6501 Z-0.0446
N6575 X1.5648 Y1.6488 Z-0.0453
N6580 X1.5656 Y1.6477 Z-0.0459
N6585 X1.5668 Y1.6471 Z-0.0466
N6590 X1.5682 Z-0.0472
N6595 X1.5694 Y1.6477 Z-0.0479
N6600 X1.5702 Y1.6488 Z-0.0486
N6605 X1.5704 Y1.6501 Z-0.0492
N6610 X1.5701 Y1.6514 Z-0.0499
N6615 X1.5692 Y1.6524 Z-0.0505
N6620 X1.5679 Y1.6529 Z-0.0512
N6625 X1.5666 Y1.6528 Z-0.0518
N6630 X1.5654 Y1.6521 Z-0.0525
N6635 X1.5647 Y1.651 Z-0.0531
N6640 X1.5646 Y1.6496 Z-0.0538
N6645 X1.5651 Y1.6483 Z-0.0545
N6650 X1.566 Y1.6474 Z-0.0551
N6655 X1.5673 Y1.6471 Z-0.0558
N6660 X1.5687 Y1.6473 Z-0.0564
N6665 X1.5698 Y1.6481 Z-0.0571
N6670 X1.5704 Y1.6493 Z-0.0577
N6675 Y1.6506 Z-0.0584
N6680 X1.5698 Y1.6519 Z-0.0591
N6685 X1.5687 Y1.6527 Z-0.0597
N6690 X1.5674 Y1.653 Z-0.0604
N6695 X1.5661 Y1.6526 Z-0.061
N6700 X1.5651 Y1.6517 Z-0.0617
N6705 X1.5646 Y1.6505 Z-0.0623
N6710 X1.5647 Y1.6491 Z-0.063
N6715 X1.5654 Y1.6479 Z-0.0636
N6720 X1.5665 Y1.6472 Z-0.0643
N6725 X1.5679 Y1.6471 Z-0.065
N6730 X1.5691 Y1.6475 Z-0.0656
N6735 X1.5701 Y1.6485 Z-0.0663
N6740 X1.5704 Y1.6498 Z-0.0669
N6745 X1.5702 Y1.6511 Z-0.0676
N6750 X1.5694 Y1.6522 Z-0.0682
N6755 X1.5682 Y1.6529 Z-0.0689
N6760 X1.5669 Z-0.0696
N6765 X1.5657 Y1.6523 Z-0.0702
N6770 X1.5648 Y1.6513 Z-0.0709
N6775 X1.5645 Y1.6499 Z-0.0715
N6780 X1.5649 Y1.6486 Z-0.0722
N6785 X1.5658 Y1.6476 Z-0.0728
N6790 X1.567 Y1.6471 Z-0.0735
N6795 X1.5684 Y1.6472 Z-0.0741
N6800 X1.5695 Y1.6479 Z-0.0748
N6805 X1.5703 Y1.649 Z-0.0755
N6810 X1.5704 Y1.6503 Z-0.0761
N6815 X1.57 Y1.6516 Z-0.0768
N6820 X1.569 Y1.6525 Z-0.0774
N6825 X1.5677 Y1.6529 Z-0.0781
N6830 X1.5664 Y1.6527 Z-0.0787
N6835 X1.5653 Y1.652 Z-0.0794
N6840 X1.5646 Y1.6508 Z-0.0801
N6845 Y1.6494 Z-0.0807
N6850 X1.5652 Y1.6482 Z-0.0814
N6855 X1.5662 Y1.6473 Z-0.082
N6860 X1.5675 Y1.647 Z-0.0827
N6865 X1.5688 Y1.6474 Z-0.0833
N6870 X1.5699 Y1.6482 Z-0.084
N6875 X1.5704 Y1.6495 Z-0.0846
N6880 X1.5703 Y1.6508 Z-0.0853
N6885 X1.5697 Y1.652 Z-0.086
N6890 X1.5685 Y1.6528 Z-0.0866
N6895 X1.5672 Y1.6529 Z-0.0873
N6900 X1.5659 Y1.6525 Z-0.0879
N6905 X1.565 Y1.6515 Z-0.0886
N6910 X1.5646 Y1.6503 Z-0.0892
N6915 X1.5648 Y1.6489 Z-0.0899
N6920 X1.5655 Y1.6478 Z-0.0906
N6925 X1.5667 Y1.6472 Z-0.0912
N6930 X1.568 Y1.6471 Z-0.0919
N6935 X1.5693 Y1.6476 Z-0.0925
N6940 X1.5701 Y1.6487 Z-0.0932
N6945 X1.5705 Y1.65 Z-0.0938
N6950 X1.5701 Y1.6513 Z-0.0945
N6955 X1.5693 Y1.6524 Z-0.0951
N6960 X1.568 Y1.6529 Z-0.0958
N6965 X1.5667 Y1.6528 Z-0.0965
N6970 X1.5655 Y1.6522 Z-0.0971
N6975 X1.5648 Y1.6511 Z-0.0978
N6980 X1.5646 Y1.6497 Z-0.0984
N6985 X1.565 Y1.6485 Z-0.0991
N6990 X1.5659 Y1.6475 Z-0.0997
N6995 X1.5672 Y1.6471 Z-0.1004
N7000 X1.5685 Y1.6472 Z-0.101
N7005 X1.5697 Y1.648 Z-0.1017
N7010 X1.5703 Y1.6492 Z-0.1024
N7015 X1.5704 Y1.6505 Z-0.103
N7020 X1.5699 Y1.6518 Z-0.1037
N7025 X1.5688 Y1.6526 Z-0.1043
N7030 X1.5675 Y1.653 Z-0.105
N7035 X1.5662 Y1.6527 Z-0.1056
N7040 X1.5652 Y1.6518 Z-0.1063
N7045 X1.5646 Y1.6506 Z-0.107
N7050 Y1.6492 Z-0.1076
N7055 X1.5653 Y1.648 Z-0.1083
N7060 X1.5664 Y1.6473 Z-0.1089
N7065 X1.5677 Y1.6471 Z-0.1096
N7070 X1.569 Y1.6475 Z-0.1102
N7075 X1.57 Y1.6484 Z-0.1109
N7080 X1.5704 Y1.6497 Z-0.1115
N7085 X1.5703 Y1.651 Z-0.1122
N7090 X1.5695 Y1.6521 Z-0.1129
N7095 X1.5684 Y1.6528 Z-0.1135
N7100 X1.567 Y1.6529 Z-0.1142
N7105 X1.5658 Y1.6524 Z-0.1148
N7110 X1.5649 Y1.6514 Z-0.1155
N7115 X1.5645 Y1.6501 Z-0.1161
N7120 X1.5648 Y1.6487 Z-0.1168
N7125 X1.5657 Y1.6477 Z-0.1175
N7130 X1.5669 Y1.6471 Z-0.1181
N7135 G3 X1.5681 Y1.6529 I0.0006 J0.0029
N7140 X1.5669 Y1.6471 I-0.0006 J-0.0029
N7145 G1 X1.5677 Y1.6472
N7150 X1.5683 Y1.6476
N7155 X1.5686 Y1.6482
N7160 X1.5675 Y1.65
N7165 G0 Z0.6
N7170 M9
N7175 M5
N7180 G53 G0 Z0.

(Circular1)
N7185 M1
N7190 T1 M6
N7195 S15000 M3
N7200 G54
N7205 G17 G90
N7210 M8
N7215 G1 X1.5534 Y1.6562 F500.
N7220 G0 G43 Z0.6 H1
N7225 T5
N7230 G0 Z-0.0581
N7235 G1 Z-0.1319 F15.
N7240 X1.553 Z-0.1338
N7245 X1.5522 Z-0.1355
N7250 X1.5508 Z-0.1369
N7255 X1.549 Z-0.1378
N7260 X1.5471 Z-0.1381
N7265 X1.544
N7270 X1.542 Y1.6559
N7275 X1.5403 Y1.6551
N7280 X1.5389 Y1.6537
N7285 X1.538 Y1.6519
N7290 X1.5377 Y1.65
N7295 G3 X1.5973 I0.0298 J0. F22.5
N7300 X1.5377 I-0.0298 J0.
N7305 G1 X1.538 Y1.6481 F20.
N7310 X1.5389 Y1.6463
N7315 X1.5403 Y1.6449
N7320 X1.542 Y1.6441
N7325 X1.544 Y1.6438
N7330 X1.5471
N7335 X1.549 Z-0.1378
N7340 X1.5508 Z-0.1369
N7345 X1.5522 Z-0.1355
N7350 X1.553 Z-0.1338
N7355 X1.5534 Z-0.1319
N7360 G0 Z0.2
N7365 Y1.6562
N7370 Z-0.0781
N7375 G1 Z-0.1519 F15.
N7380 X1.553 Z-0.1538
N7385 X1.5522 Z-0.1555
N7390 X1.5508 Z-0.1569
N7395 X1.549 Z-0.1578
N7400 X1.5471 Z-0.1581
N7405 X1.544
N7410 X1.542 Y1.6559
N7415 X1.5403 Y1.6551
N7420 X1.5389 Y1.6537
N7425 X1.538 Y1.6519
N7430 X1.5377 Y1.65
N7435 G3 X1.5973 I0.0298 J0. F22.5
N7440 X1.5377 I-0.0298 J0.
N7445 G1 X1.538 Y1.6481 F20.
N7450 X1.5389 Y1.6463
N7455 X1.5403 Y1.6449
N7460 X1.542 Y1.6441
N7465 X1.544 Y1.6438
N7470 X1.5471
N7475 X1.549 Z-0.1578
N7480 X1.5508 Z-0.1569
N7485 X1.5522 Z-0.1555
N7490 X1.553 Z-0.1538
N7495 X1.5534 Z-0.1519
N7500 G0 Z0.2
N7505 Y1.6562
N7510 Z-0.0981
N7515 G1 Z-0.1719 F15.
N7520 X1.553 Z-0.1738
N7525 X1.5522 Z-0.1755
N7530 X1.5508 Z-0.1769
N7535 X1.549 Z-0.1778
N7540 X1.5471 Z-0.1781
N7545 X1.544
N7550 X1.542 Y1.6559
N7555 X1.5403 Y1.6551
N7560 X1.5389 Y1.6537
N7565 X1.538 Y1.6519
N7570 X1.5377 Y1.65
N7575 G3 X1.5973 I0.0298 J0. F22.5
N7580 X1.5377 I-0.0298 J0.
N7585 G1 X1.538 Y1.6481 F20.
N7590 X1.5389 Y1.6463
N7595 X1.5403 Y1.6449
N7600 X1.542 Y1.6441
N7605 X1.544 Y1.6438
N7610 X1.5471
N7615 X1.549 Z-0.1778
N7620 X1.5508 Z-0.1769
N7625 X1.5522 Z-0.1755
N7630 X1.553 Z-0.1738
N7635 X1.5534 Z-0.1719
N7640 G0 Z0.2
N7645 Y1.6562
N7650 Z-0.1181
N7655 G1 Z-0.1919 F15.
N7660 X1.553 Z-0.1938
N7665 X1.5522 Z-0.1955
N7670 X1.5508 Z-0.1969
N7675 X1.549 Z-0.1978
N7680 X1.5471 Z-0.1981
N7685 X1.544
N7690 X1.542 Y1.6559
N7695 X1.5403 Y1.6551
N7700 X1.5389 Y1.6537
N7705 X1.538 Y1.6519
N7710 X1.5377 Y1.65
N7715 G3 X1.5973 I0.0298 J0. F22.5
N7720 X1.5377 I-0.0298 J0.
N7725 G1 X1.538 Y1.6481 F20.
N7730 X1.5389 Y1.6463
N7735 X1.5403 Y1.6449
N7740 X1.542 Y1.6441
N7745 X1.544 Y1.6438
N7750 X1.5471
N7755 X1.549 Z-0.1978
N7760 X1.5508 Z-0.1969
N7765 X1.5522 Z-0.1955
N7770 X1.553 Z-0.1938
N7775 X1.5534 Z-0.1919
N7780 G0 Z0.2
N7785 Y1.6562
N7790 Z-0.1381
N7795 G1 Z-0.2119 F15.
N7800 X1.553 Z-0.2138
N7805 X1.5522 Z-0.2155
N7810 X1.5508 Z-0.2169
N7815 X1.549 Z-0.2178
N7820 X1.5471 Z-0.2181
N7825 X1.544
N7830 X1.542 Y1.6559
N7835 X1.5403 Y1.6551
N7840 X1.5389 Y1.6537
N7845 X1.538 Y1.6519
N7850 X1.5377 Y1.65
N7855 G3 X1.5973 I0.0298 J0. F22.5
N7860 X1.5377 I-0.0298 J0.
N7865 G1 X1.538 Y1.6481 F20.
N7870 X1.5389 Y1.6463
N7875 X1.5403 Y1.6449
N7880 X1.542 Y1.6441
N7885 X1.544 Y1.6438
N7890 X1.5471
N7895 X1.549 Z-0.2178
N7900 X1.5508 Z-0.2169
N7905 X1.5522 Z-0.2155
N7910 X1.553 Z-0.2138
N7915 X1.5534 Z-0.2119
N7920 G0 Z0.2
N7925 Y1.6562
N7930 Z-0.1581
N7935 G1 Z-0.2319 F15.
N7940 X1.553 Z-0.2338
N7945 X1.5522 Z-0.2355
N7950 X1.5508 Z-0.2369
N7955 X1.549 Z-0.2378
N7960 X1.5471 Z-0.2381
N7965 X1.544
N7970 X1.542 Y1.6559
N7975 X1.5403 Y1.6551
N7980 X1.5389 Y1.6537
N7985 X1.538 Y1.6519
N7990 X1.5377 Y1.65
N7995 G3 X1.5973 I0.0298 J0. F22.5
N8000 X1.5377 I-0.0298 J0.
N8005 G1 X1.538 Y1.6481 F20.
N8010 X1.5389 Y1.6463
N8015 X1.5403 Y1.6449
N8020 X1.542 Y1.6441
N8025 X1.544 Y1.6438
N8030 X1.5471
N8035 X1.549 Z-0.2378
N8040 X1.5508 Z-0.2369
N8045 X1.5522 Z-0.2355
N8050 X1.553 Z-0.2338
N8055 X1.5534 Z-0.2319
N8060 G0 Z0.2
N8065 Y1.6562
N8070 Z-0.1781
N8075 G1 Z-0.2519 F15.
N8080 X1.553 Z-0.2538
N8085 X1.5522 Z-0.2555
N8090 X1.5508 Z-0.2569
N8095 X1.549 Z-0.2578
N8100 X1.5471 Z-0.2581
N8105 X1.544
N8110 X1.542 Y1.6559
N8115 X1.5403 Y1.6551
N8120 X1.5389 Y1.6537
N8125 X1.538 Y1.6519
N8130 X1.5377 Y1.65
N8135 G3 X1.5973 I0.0298 J0. F22.5
N8140 X1.5377 I-0.0298 J0.
N8145 G1 X1.538 Y1.6481 F20.
N8150 X1.5389 Y1.6463
N8155 X1.5403 Y1.6449
N8160 X1.542 Y1.6441
N8165 X1.544 Y1.6438
N8170 X1.5471
N8175 X1.549 Z-0.2578
N8180 X1.5508 Z-0.2569
N8185 X1.5522 Z-0.2555
N8190 X1.553 Z-0.2538
N8195 X1.5534 Z-0.2519
N8200 G0 Z0.2
N8205 Y1.6562
N8210 Z-0.1981
N8215 G1 Z-0.2719 F15.
N8220 X1.553 Z-0.2738
N8225 X1.5522 Z-0.2755
N8230 X1.5508 Z-0.2769
N8235 X1.549 Z-0.2778
N8240 X1.5471 Z-0.2781
N8245 X1.544
N8250 X1.542 Y1.6559
N8255 X1.5403 Y1.6551
N8260 X1.5389 Y1.6537
N8265 X1.538 Y1.6519
N8270 X1.5377 Y1.65
N8275 G3 X1.5973 I0.0298 J0. F22.5
N8280 X1.5377 I-0.0298 J0.
N8285 G1 X1.538 Y1.6481 F20.
N8290 X1.5389 Y1.6463
N8295 X1.5403 Y1.6449
N8300 X1.542 Y1.6441
N8305 X1.544 Y1.6438
N8310 X1.5471
N8315 X1.549 Z-0.2778
N8320 X1.5508 Z-0.2769
N8325 X1.5522 Z-0.2755
N8330 X1.553 Z-0.2738
N8335 X1.5534 Z-0.2719
N8340 G0 Z0.2
N8345 Y1.6562
N8350 Z-0.2181
N8355 G1 Z-0.2919 F15.
N8360 X1.553 Z-0.2938
N8365 X1.5522 Z-0.2955
N8370 X1.5508 Z-0.2969
N8375 X1.549 Z-0.2978
N8380 X1.5471 Z-0.2981
N8385 X1.544
N8390 X1.542 Y1.6559
N8395 X1.5403 Y1.6551
N8400 X1.5389 Y1.6537
N8405 X1.538 Y1.6519
N8410 X1.5377 Y1.65
N8415 G3 X1.5973 I0.0298 J0. F22.5
N8420 X1.5377 I-0.0298 J0.
N8425 G1 X1.538 Y1.6481 F20.
N8430 X1.5389 Y1.6463
N8435 X1.5403 Y1.6449
N8440 X1.542 Y1.6441
N8445 X1.544 Y1.6438
N8450 X1.5471
N8455 X1.549 Z-0.2978
N8460 X1.5508 Z-0.2969
N8465 X1.5522 Z-0.2955
N8470 X1.553 Z-0.2938
N8475 X1.5534 Z-0.2919
N8480 G0 Z0.2
N8485 Y1.6562
N8490 Z-0.2331
N8495 G1 Z-0.3069 F15.
N8500 X1.553 Z-0.3088
N8505 X1.5522 Z-0.3105
N8510 X1.5508 Z-0.3119
N8515 X1.549 Z-0.3128
N8520 X1.5471 Z-0.3131
N8525 X1.544
N8530 X1.542 Y1.6559
N8535 X1.5403 Y1.6551
N8540 X1.5389 Y1.6537
N8545 X1.538 Y1.6519
N8550 X1.5377 Y1.65
N8555 G3 X1.5973 I0.0298 J0. F22.5
N8560 X1.5377 I-0.0298 J0.
N8565 G1 X1.538 Y1.6481 F20.
N8570 X1.5389 Y1.6463
N8575 X1.5403 Y1.6449
N8580 X1.542 Y1.6441
N8585 X1.544 Y1.6438
N8590 X1.5471
N8595 X1.549 Z-0.3128
N8600 X1.5508 Z-0.3119
N8605 X1.5522 Z-0.3105
N8610 X1.553 Z-0.3088
N8615 X1.5534 Z-0.3069
N8620 G0 Z0.2
N8625 Y1.6562
N8630 Z-0.2481
N8635 G1 Z-0.3219 F15.
N8640 X1.553 Z-0.3238
N8645 X1.5522 Z-0.3255
N8650 X1.5508 Z-0.3269
N8655 X1.549 Z-0.3278
N8660 X1.5471 Z-0.3281
N8665 X1.544
N8670 X1.542 Y1.6559
N8675 X1.5403 Y1.6551
N8680 X1.5389 Y1.6537
N8685 X1.538 Y1.6519
N8690 X1.5377 Y1.65
N8695 G3 X1.5973 I0.0298 J0. F22.5
N8700 X1.5377 I-0.0298 J0.
N8705 G1 X1.538 Y1.6481 F20.
N8710 X1.5389 Y1.6463
N8715 X1.5403 Y1.6449
N8720 X1.542 Y1.6441
N8725 X1.544 Y1.6438
N8730 X1.5471
N8735 X1.549 Z-0.3278
N8740 X1.5508 Z-0.3269
N8745 X1.5522 Z-0.3255
N8750 X1.553 Z-0.3238
N8755 X1.5534 Z-0.3219
N8760 G0 Z0.6
N8765 M9
N8770 M5
N8775 G53 G0 Z0.

(2D Contour6)
N8780 M1
N8785 T5 M6
N8790 S15000 M3
N8795 G54
N8800 G17 G90
N8805 M8
N8810 G1 X0.98 Y0.95 F500.
N8815 G0 G43 Z0.6 H5
N8820 G0 Z0.2
N8825 G1 Z0.1194 F30.
N8830 Z-0.055
N8835 G19 G2 Y0.925 Z-0.08 J-0.025 K0. F75.
N8840 G1 Y0.9
N8845 G17 G3 X1.005 Y0.875 I0.025 J0.
N8850 G1 X1.63 F90.
N8855 Y1.125
N8860 X0.88
N8865 Y0.875
N8870 X1.005
N8875 G3 X1.03 Y0.9 I0. J0.025
N8880 G1 Y0.925
N8885 G19 G3 Y0.95 Z-0.055 J0. K0.025
N8890 G0 Z0.2
N8895 X0.98
N8900 G1 Z0.0394 F30.
N8905 Z-0.135
N8910 G2 Y0.925 Z-0.16 J-0.025 K0. F75.
N8915 G1 Y0.9
N8920 G17 G3 X1.005 Y0.875 I0.025 J0.
N8925 G1 X1.63 F90.
N8930 Y1.125
N8935 X0.88
N8940 Y0.875
N8945 X1.005
N8950 G3 X1.03 Y0.9 I0. J0.025
N8955 G1 Y0.925
N8960 G19 G3 Y0.95 Z-0.135 J0. K0.025
N8965 G0 Z0.2
N8970 X0.98
N8975 G1 Z-0.0406 F30.
N8980 Z-0.215
N8985 G2 Y0.925 Z-0.24 J-0.025 K0. F75.
N8990 G1 Y0.9
N8995 G17 G3 X1.005 Y0.875 I0.025 J0.
N9000 G1 X1.63 F90.
N9005 Y1.125
N9010 X0.88
N9015 Y0.875
N9020 X1.005
N9025 G3 X1.03 Y0.9 I0. J0.025
N9030 G1 Y0.925
N9035 G19 G3 Y0.95 Z-0.215 J0. K0.025
N9040 G0 Z0.2
N9045 X0.98
N9050 G1 Z-0.1206 F30.
N9055 Z-0.295
N9060 G2 Y0.925 Z-0.32 J-0.025 K0. F75.
N9065 G1 Y0.9
N9070 G17 G3 X1.005 Y0.875 I0.025 J0.
N9075 G1 X1.63 F90.
N9080 Y1.125
N9085 X0.88
N9090 Y0.875
N9095 X1.005
N9100 G3 X1.03 Y0.9 I0. J0.025
N9105 G1 Y0.925
N9110 G19 G3 Y0.95 Z-0.295 J0. K0.025
N9115 G0 Z0.2
N9120 X0.98
N9125 G1 Z-0.2006 F30.
N9130 Z-0.375
N9135 G2 Y0.925 Z-0.4 J-0.025 K0. F75.
N9140 G1 Y0.9
N9145 G17 G3 X1.005 Y0.875 I0.025 J0.
N9150 G1 X1.63 F90.
N9155 Y1.125
N9160 X0.88
N9165 Y0.875
N9170 X1.005
N9175 G3 X1.03 Y0.9 I0. J0.025
N9180 G1 Y0.925
N9185 G19 G3 Y0.95 Z-0.375 J0. K0.025
N9190 G0 Z0.2
N9195 X0.98
N9200 G1 Z-0.2806 F30.
N9205 Z-0.455
N9210 G2 Y0.925 Z-0.48 J-0.025 K0. F75.
N9215 G1 Y0.9
N9220 G17 G3 X1.005 Y0.875 I0.025 J0.
N9225 G1 X1.63 F90.
N9230 Y1.125
N9235 X0.88
N9240 Y0.875
N9245 X1.005
N9250 G3 X1.03 Y0.9 I0. J0.025
N9255 G1 Y0.925
N9260 G19 G3 Y0.95 Z-0.455 J0. K0.025
N9265 G0 Z0.2
N9270 X0.98
N9275 G1 Z-0.3606 F30.
N9280 Z-0.535
N9285 G2 Y0.925 Z-0.56 J-0.025 K0. F75.
N9290 G1 Y0.9
N9295 G17 G3 X1.005 Y0.875 I0.025 J0.
N9300 G1 X1.63 F90.
N9305 Y1.125
N9310 X0.88
N9315 Y0.875
N9320 X1.005
N9325 G3 X1.03 Y0.9 I0. J0.025
N9330 G1 Y0.925
N9335 G19 G3 Y0.95 Z-0.535 J0. K0.025
N9340 G0 Z0.2
N9345 X0.98
N9350 G1 Z-0.4406 F30.
N9355 Z-0.6
N9360 G2 Y0.925 Z-0.625 J-0.025 K0. F75.
N9365 G1 Y0.9
N9370 G17 G3 X1.005 Y0.875 I0.025 J0.
N9375 G1 X1.63 F90.
N9380 Y1.125
N9385 X0.88
N9390 Y0.875
N9395 X1.005
N9400 G3 X1.03 Y0.9 I0. J0.025
N9405 G1 Y0.925
N9410 G19 G3 Y0.95 Z-0.6 J0. K0.025
N9415 G0 Z0.6

(2D Contour5)
N9420 G17
N9425 G1 X0.23 Y2.45 F500.
N9430 G0 Z0.6
N9435 Z0.2
N9440 G1 Z0.1194 F30.
N9445 Z-0.055
N9450 G19 G2 Y2.425 Z-0.08 J-0.025 K0. F75.
N9455 G1 Y2.4
N9460 G17 G3 X0.255 Y2.375 I0.025 J0.
N9465 G1 X0.755 F90.
N9470 G2 X0.88 Y2.25 I0. J-0.125
N9475 G1 Y2.175
N9480 X1.63
N9485 Y2.25
N9490 G2 X1.755 Y2.375 I0.125 J0.
N9495 G1 X2.255
N9500 G3 X2.28 Y2.4 I0. J0.025
N9505 G1 Y2.425
N9510 G19 G3 Y2.45 Z-0.055 J0. K0.025
N9515 G0 Z0.2
N9520 X0.23
N9525 G1 Z0.0394 F30.
N9530 Z-0.135
N9535 G2 Y2.425 Z-0.16 J-0.025 K0. F75.
N9540 G1 Y2.4
N9545 G17 G3 X0.255 Y2.375 I0.025 J0.
N9550 G1 X0.755 F90.
N9555 G2 X0.88 Y2.25 I0. J-0.125
N9560 G1 Y2.175
N9565 X1.63
N9570 Y2.25
N9575 G2 X1.755 Y2.375 I0.125 J0.
N9580 G1 X2.255
N9585 G3 X2.28 Y2.4 I0. J0.025
N9590 G1 Y2.425
N9595 G19 G3 Y2.45 Z-0.135 J0. K0.025
N9600 G0 Z0.2
N9605 X0.23
N9610 G1 Z-0.0406 F30.
N9615 Z-0.215
N9620 G2 Y2.425 Z-0.24 J-0.025 K0. F75.
N9625 G1 Y2.4
N9630 G17 G3 X0.255 Y2.375 I0.025 J0.
N9635 G1 X0.755 F90.
N9640 G2 X0.88 Y2.25 I0. J-0.125
N9645 G1 Y2.175
N9650 X1.63
N9655 Y2.25
N9660 G2 X1.755 Y2.375 I0.125 J0.
N9665 G1 X2.255
N9670 G3 X2.28 Y2.4 I0. J0.025
N9675 G1 Y2.425
N9680 G19 G3 Y2.45 Z-0.215 J0. K0.025
N9685 G0 Z0.2
N9690 X0.23
N9695 G1 Z-0.1206 F30.
N9700 Z-0.295
N9705 G2 Y2.425 Z-0.32 J-0.025 K0. F75.
N9710 G1 Y2.4
N9715 G17 G3 X0.255 Y2.375 I0.025 J0.
N9720 G1 X0.755 F90.
N9725 G2 X0.88 Y2.25 I0. J-0.125
N9730 G1 Y2.175
N9735 X1.63
N9740 Y2.25
N9745 G2 X1.755 Y2.375 I0.125 J0.
N9750 G1 X2.255
N9755 G3 X2.28 Y2.4 I0. J0.025
N9760 G1 Y2.425
N9765 G19 G3 Y2.45 Z-0.295 J0. K0.025
N9770 G0 Z0.2
N9775 X0.23
N9780 G1 Z-0.2006 F30.
N9785 Z-0.375
N9790 G2 Y2.425 Z-0.4 J-0.025 K0. F75.
N9795 G1 Y2.4
N9800 G17 G3 X0.255 Y2.375 I0.025 J0.
N9805 G1 X0.755 F90.
N9810 G2 X0.88 Y2.25 I0. J-0.125
N9815 G1 Y2.175
N9820 X1.63
N9825 Y2.25
N9830 G2 X1.755 Y2.375 I0.125 J0.
N9835 G1 X2.255
N9840 G3 X2.28 Y2.4 I0. J0.025
N9845 G1 Y2.425
N9850 G19 G3 Y2.45 Z-0.375 J0. K0.025
N9855 G0 Z0.2
N9860 X0.23
N9865 G1 Z-0.2806 F30.
N9870 Z-0.455
N9875 G2 Y2.425 Z-0.48 J-0.025 K0. F75.
N9880 G1 Y2.4
N9885 G17 G3 X0.255 Y2.375 I0.025 J0.
N9890 G1 X0.755 F90.
N9895 G2 X0.88 Y2.25 I0. J-0.125
N9900 G1 Y2.175
N9905 X1.63
N9910 Y2.25
N9915 G2 X1.755 Y2.375 I0.125 J0.
N9920 G1 X2.255
N9925 G3 X2.28 Y2.4 I0. J0.025
N9930 G1 Y2.425
N9935 G19 G3 Y2.45 Z-0.455 J0. K0.025
N9940 G0 Z0.2
N9945 X0.23
N9950 G1 Z-0.3606 F30.
N9955 Z-0.535
N9960 G2 Y2.425 Z-0.56 J-0.025 K0. F75.
N9965 G1 Y2.4
N9970 G17 G3 X0.255 Y2.375 I0.025 J0.
N9975 G1 X0.755 F90.
N9980 G2 X0.88 Y2.25 I0. J-0.125
N9985 G1 Y2.175
N9990 X1.63
N9995 Y2.25
N10000 G2 X1.755 Y2.375 I0.125 J0.
N10005 G1 X2.255
N10010 G3 X2.28 Y2.4 I0. J0.025
N10015 G1 Y2.425
N10020 G19 G3 Y2.45 Z-0.535 J0. K0.025
N10025 G0 Z0.2
N10030 X0.23
N10035 G1 Z-0.4406 F30.
N10040 Z-0.6
N10045 G2 Y2.425 Z-0.625 J-0.025 K0. F75.
N10050 G1 Y2.4
N10055 G17 G3 X0.255 Y2.375 I0.025 J0.
N10060 G1 X0.755 F90.
N10065 G2 X0.88 Y2.25 I0. J-0.125
N10070 G1 Y2.175
N10075 X1.0675
N10080 Z-0.5625
N10085 X1.4425
N10090 Z-0.625 F30.
N10095 X1.63 F90.
N10100 Y2.25
N10105 G2 X1.755 Y2.375 I0.125 J0.
N10110 G1 X2.255
N10115 G3 X2.28 Y2.4 I0. J0.025
N10120 G1 Y2.425
N10125 G19 G3 Y2.45 Z-0.6 J0. K0.025
N10130 G0 Z0.6

N10135 M5
N10140 M9
N10145 G53 G0 Z0.
N10150 X1.255
N10155 G53 G0 Y0.
N10160 M30

%
